luts/cold_blue.cube
# Ascension Engine — Cold Blue LUT
LUT_3D_SIZE 9
0.0 0.0 0.03
0.099952 0.007475 0.038372
0.199904 0.01495 0.046744
0.299855 0.022425 0.055116
0.399807 0.0299 0.063488
0.499759 0.037375 0.07186
0.59971 0.04485 0.080232
0.699662 0.052325 0.088604
0.799614 0.0598 0.096976
0.013648 0.114675 0.046436
0.1136 0.12215 0.054808
0.213551 0.129625 0.06318
0.313503 0.1371 0.071552
0.413455 0.144575 0.079924
0.513406 0.15205 0.088296
0.613358 0.159525 0.096668
0.71331 0.167 0.10504
0.813262 0.174475 0.113412
0.027295 0.22935 0.062872
0.127247 0.236825 0.071244
0.227199 0.2443 0.079616
0.327151 0.251775 0.087988
0.427103 0.25925 0.09636
0.527054 0.266725 0.104732
0.627006 0.2742 0.113104
0.726958 0.281675 0.121476
0.82691 0.28915 0.129848
0.040943 0.344025 0.079308
0.140895 0.3515 0.08768
0.240847 0.358975 0.096052
0.340799 0.36645 0.104424
0.44075 0.373925 0.112796
0.540702 0.3814 0.121168
0.640654 0.388875 0.12954
0.740606 0.39635 0.137912
0.840557 0.403825 0.146284
0.054591 0.4587 0.095744
0.154543 0.466175 0.104116
0.254495 0.47365 0.112488
0.354446 0.481125 0.12086
0.454398 0.4886 0.129232
0.55435 0.496075 0.137604
0.654302 0.50355 0.145976
0.754253 0.511025 0.154348
0.854205 0.5185 0.16272
0.068239 0.573375 0.11218
0.16819 0.58085 0.120552
0.268142 0.588325 0.128924
0.368094 0.5958 0.137296
0.468046 0.603275 0.145668
0.567998 0.61075 0.15404
0.667949 0.618225 0.162412
0.767901 0.6257 0.170784
0.867853 0.633175 0.179156
0.081886 0.68805 0.128616
0.181838 0.695525 0.136988
0.28179 0.703 0.14536
0.381742 0.710475 0.153732
0.481694 0.71795 0.162104
0.581645 0.725425 0.170476
0.681597 0.7329 0.178848
0.781549 0.740375 0.18722
0.881501 0.74785 0.195592
0.095534 0.802725 0.145052
0.195486 0.8102 0.153424
0.295438 0.817675 0.161796
0.39539 0.82515 0.170168
0.495341 0.832625 0.17854
0.595293 0.8401 0.186912
0.695245 0.847575 0.195284
0.795196 0.85505 0.203656
0.895148 0.862525 0.212028
0.109182 0.9174 0.161488
0.209134 0.924875 0.16986
0.309086 0.93235 0.178232
0.409037 0.939825 0.186604
0.508989 0.9473 0.194976
0.608941 0.954775 0.203348
0.708893 0.96225 0.21172
0.808844 0.969725 0.220092
0.908796 0.9772 0.228464
0.002651 0.00285 0.145192
0.102602 0.010325 0.153564
0.202554 0.0178 0.161936
0.302506 0.025275 0.170308
0.402458 0.03275 0.17868
0.502409 0.040225 0.187052
0.602361 0.0477 0.195424
0.702313 0.055175 0.203796
0.802264 0.06265 0.212168
0.016298 0.117525 0.161628
0.11625 0.125 0.17
0.216202 0.132475 0.178372
0.316153 0.13995 0.186744
0.416105 0.147425 0.195116
0.516057 0.1549 0.203488
0.616009 0.162375 0.21186
0.715961 0.16985 0.220232
0.815912 0.177325 0.228604
0.029946 0.2322 0.178064
0.129898 0.239675 0.186436
0.22985 0.24715 0.194808
0.329801 0.254625 0.20318
0.429753 0.2621 0.211552
0.529705 0.269575 0.219924
0.629656 0.27705 0.228296
0.729608 0.284525 0.236668
0.82956 0.292 0.24504
0.043594 0.346875 0.1945
0.143545 0.35435 0.202872
0.243497 0.361825 0.211244
0.343449 0.3693 0.219616
0.443401 0.376775 0.227988
0.543353 0.38425 0.23636
0.643304 0.391725 0.244732
0.743256 0.3992 0.253104
0.843208 0.406675 0.261476
0.057241 0.46155 0.210936
0.157193 0.469025 0.219308
0.257145 0.4765 0.22768
0.357097 0.483975 0.236052
0.457049 0.49145 0.244424
0.557 0.498925 0.252796
0.656952 0.5064 0.261168
0.756904 0.513875 0.26954
0.856855 0.52135 0.277912
0.070889 0.576225 0.227372
0.170841 0.5837 0.235744
0.270793 0.591175 0.244116
0.370745 0.59865 0.252488
0.470696 0.606125 0.26086
0.570648 0.6136 0.269232
0.6706 0.621075 0.277604
0.770552 0.62855 0.285976
0.870503 0.636025 0.294348
0.084537 0.6909 0.243808
0.184489 0.698375 0.25218
0.28444 0.70585 0.260552
0.384392 0.713325 0.268924
0.484344 0.7208 0.277296
0.584296 0.728275 0.285668
0.684248 0.73575 0.29404
0.784199 0.743225 0.302412
0.884151 0.7507 0.310784
0.098185 0.805575 0.260244
0.198136 0.81305 0.268616
0.298088 0.820525 0.276988
0.39804 0.828 0.28536
0.497992 0.835475 0.293732
0.597944 0.84295 0.302104
0.697895 0.850425 0.310476
0.797847 0.8579 0.318848
0.897799 0.865375 0.32722
0.111832 0.92025 0.27668
0.211784 0.927725 0.285052
0.311736 0.9352 0.293424
0.411688 0.942675 0.301796
0.511639 0.95015 0.310168
0.611591 0.957625 0.31854
0.711543 0.9651 0.326912
0.811495 0.972575 0.335284
0.911447 0.98005 0.343656
0.005301 0.0057 0.260384
0.105253 0.013175 0.268756
0.205205 0.02065 0.277128
0.305156 0.028125 0.2855
0.405108 0.0356 0.293872
0.50506 0.043075 0.302244
0.605012 0.05055 0.310616
0.704963 0.058025 0.318988
0.804915 0.0655 0.32736
0.018949 0.120375 0.27682
0.1189 0.12785 0.285192
0.218852 0.135325 0.293564
0.318804 0.1428 0.301936
0.418756 0.150275 0.310308
0.518707 0.15775 0.31868
0.618659 0.165225 0.327052
0.718611 0.1727 0.335424
0.818563 0.180175 0.343796
0.032597 0.23505 0.293256
0.132548 0.242525 0.301628
0.2325 0.25 0.31
0.332452 0.257475 0.318372
0.432403 0.26495 0.326744
0.532355 0.272425 0.335116
0.632307 0.2799 0.343488
0.732259 0.287375 0.35186
0.83221 0.29485 0.360232
0.046244 0.349725 0.309692
0.146196 0.3572 0.318064
0.246148 0.364675 0.326436
0.3461 0.37215 0.334808
0.446051 0.379625 0.34318
0.546003 0.3871 0.351552
0.645955 0.394575 0.359924
0.745907 0.40205 0.368296
0.845858 0.409525 0.376668
0.059892 0.4644 0.326128
0.159844 0.471875 0.3345
0.259796 0.47935 0.342872
0.359747 0.486825 0.351244
0.459699 0.4943 0.359616
0.559651 0.501775 0.367988
0.659602 0.50925 0.37636
0.759554 0.516725 0.384732
0.859506 0.5242 0.393104
0.07354 0.579075 0.342564
0.173491 0.58655 0.350936
0.273443 0.594025 0.359308
0.373395 0.6015 0.36768
0.473347 0.608975 0.376052
0.573298 0.61645 0.384424
0.67325 0.623925 0.392796
0.773202 0.6314 0.401168
0.873154 0.638875 0.40954
0.087188 0.69375 0.359
0.187139 0.701225 0.367372
0.287091 0.7087 0.375744
0.387043 0.716175 0.384116
0.486994 0.72365 0.392488
0.586946 0.731125 0.40086
0.686898 0.7386 0.409232
0.78685 0.746075 0.417604
0.886802 0.75355 0.425976
0.100835 0.808425 0.375436
0.200787 0.8159 0.383808
0.300739 0.823375 0.39218
0.400691 0.83085 0.400552
0.500642 0.838325 0.408924
0.600594 0.8458 0.417296
0.700546 0.853275 0.425668
0.800498 0.86075 0.43404
0.900449 0.868225 0.442412
0.114483 0.9231 0.391872
0.214435 0.930575 0.400244
0.314386 0.93805 0.408616
0.414338 0.945525 0.416988
0.51429 0.953 0.42536
0.614242 0.960475 0.433732
0.714194 0.96795 0.442104
0.814145 0.975425 0.450476
0.914097 0.9829 0.458848
0.007952 0.00855 0.375576
0.107903 0.016025 0.383948
0.207855 0.0235 0.39232
0.307807 0.030975 0.400692
0.407759 0.03845 0.409064
0.50771 0.045925 0.417436
0.607662 0.0534 0.425808
0.707614 0.060875 0.43418
0.807566 0.06835 0.442552
0.021599 0.123225 0.392012
0.121551 0.1307 0.400384
0.221503 0.138175 0.408756
0.321455 0.14565 0.417128
0.421406 0.153125 0.4255
0.521358 0.1606 0.433872
0.62131 0.168075 0.442244
0.721261 0.17555 0.450616
0.821213 0.183025 0.458988
0.035247 0.2379 0.408448
0.135199 0.245375 0.41682
0.235151 0.25285 0.425192
0.335102 0.260325 0.433564
0.435054 0.2678 0.441936
0.535006 0.275275 0.450308
0.634957 0.28275 0.45868
0.734909 0.290225 0.467052
0.834861 0.2977 0.475424
0.048895 0.352575 0.424884
0.148846 0.36005 0.433256
0.248798 0.367525 0.441628
0.34875 0.375 0.45
0.448702 0.382475 0.458372
0.548654 0.38995 0.466744
0.648605 0.397425 0.475116
0.748557 0.4049 0.483488
0.848509 0.412375 0.49186
0.062542 0.46725 0.44132
0.162494 0.474725 0.449692
0.262446 0.4822 0.458064
0.362398 0.489675 0.466436
0.46235 0.49715 0.474808
0.562301 0.504625 0.48318
0.662253 0.5121 0.491552
0.762205 0.519575 0.499924
0.862156 0.52705 0.508296
0.07619 0.581925 0.457756
0.176142 0.5894 0.466128
0.276094 0.596875 0.4745
0.376046 0.60435 0.482872
0.475997 0.611825 0.491244
0.575949 0.6193 0.499616
0.675901 0.626775 0.507988
0.775852 0.63425 0.51636
0.875804 0.641725 0.524732
0.089838 0.6966 0.474192
0.18979 0.704075 0.482564
0.289741 0.71155 0.490936
0.389693 0.719025 0.499308
0.489645 0.7265 0.50768
0.589597 0.733975 0.516052
0.689549 0.74145 0.524424
0.7895 0.748925 0.532796
0.889452 0.7564 0.541168
0.103486 0.811275 0.490628
0.203438 0.81875 0.499
0.303389 0.826225 0.507372
0.403341 0.8337 0.515744
0.503293 0.841175 0.524116
0.603244 0.84865 0.532488
0.703196 0.856125 0.54086
0.803148 0.8636 0.549232
0.9031 0.871075 0.557604
0.117134 0.92595 0.507064
0.217085 0.933425 0.515436
0.317037 0.9409 0.523808
0.416989 0.948375 0.53218
0.516941 0.95585 0.540552
0.616892 0.963325 0.548924
0.716844 0.9708 0.557296
0.816796 0.978275 0.565668
0.916748 0.98575 0.57404
0.010602 0.0114 0.490768
0.110554 0.018875 0.49914
0.210506 0.02635 0.507512
0.310457 0.033825 0.515884
0.410409 0.0413 0.524256
0.510361 0.048775 0.532628
0.610313 0.05625 0.541
0.710264 0.063725 0.549372
0.810216 0.0712 0.557744
0.02425 0.126075 0.507204
0.124202 0.13355 0.515576
0.224153 0.141025 0.523948
0.324105 0.1485 0.53232
0.424057 0.155975 0.540692
0.524008 0.16345 0.549064
0.62396 0.170925 0.557436
0.723912 0.1784 0.565808
0.823864 0.185875 0.57418
0.037897 0.24075 0.52364
0.137849 0.248225 0.532012
0.237801 0.2557 0.540384
0.337753 0.263175 0.548756
0.437705 0.27065 0.557128
0.537656 0.278125 0.5655
0.637608 0.2856 0.573872
0.73756 0.293075 0.582244
0.837511 0.30055 0.590616
0.051545 0.355425 0.540076
0.151497 0.3629 0.548448
0.251449 0.370375 0.55682
0.351401 0.37785 0.565192
0.451352 0.385325 0.573564
0.551304 0.3928 0.581936
0.651256 0.400275 0.590308
0.751208 0.40775 0.59868
0.851159 0.415225 0.607052
0.065193 0.4701 0.556512
0.165145 0.477575 0.564884
0.265097 0.48505 0.573256
0.365048 0.492525 0.581628
0.465 0.5 0.59
0.564952 0.507475 0.598372
0.664903 0.51495 0.606744
0.764855 0.522425 0.615116
0.864807 0.5299 0.623488
0.078841 0.584775 0.572948
0.178792 0.59225 0.58132
0.278744 0.599725 0.589692
0.378696 0.6072 0.598064
0.478648 0.614675 0.606436
0.5786 0.62215 0.614808
0.678551 0.629625 0.62318
0.778503 0.6371 0.631552
0.878455 0.644575 0.639924
0.092488 0.69945 0.589384
0.19244 0.706925 0.597756
0.292392 0.7144 0.606128
0.392344 0.721875 0.6145
0.492295 0.72935 0.622872
0.592247 0.736825 0.631244
0.692199 0.7443 0.639616
0.792151 0.751775 0.647988
0.892103 0.75925 0.65636
0.106136 0.814125 0.60582
0.206088 0.8216 0.614192
0.30604 0.829075 0.622564
0.405992 0.83655 0.630936
0.505943 0.844025 0.639308
0.605895 0.8515 0.64768
0.705847 0.858975 0.656052
0.805799 0.86645 0.664424
0.90575 0.873925 0.672796
0.119784 0.9288 0.622256
0.219736 0.936275 0.630628
0.319688 0.94375 0.639
0.419639 0.951225 0.647372
0.519591 0.9587 0.655744
0.619543 0.966175 0.664116
0.719495 0.97365 0.672488
0.819446 0.981125 0.68086
0.919398 0.9886 0.689232
0.013253 0.01425 0.60596
0.113204 0.021725 0.614332
0.213156 0.0292 0.622704
0.313108 0.036675 0.631076
0.41306 0.04415 0.639448
0.513011 0.051625 0.64782
0.612963 0.0591 0.656192
0.712915 0.066575 0.664564
0.812867 0.07405 0.672936
0.0269 0.128925 0.622396
0.126852 0.1364 0.630768
0.226804 0.143875 0.63914
0.326756 0.15135 0.647512
0.426707 0.158825 0.655884
0.526659 0.1663 0.664256
0.626611 0.173775 0.672628
0.726562 0.18125 0.681
0.826514 0.188725 0.689372
0.040548 0.2436 0.638832
0.1405 0.251075 0.647204
0.240452 0.25855 0.655576
0.340403 0.266025 0.663948
0.440355 0.2735 0.67232
0.540307 0.280975 0.680692
0.640259 0.28845 0.689064
0.74021 0.295925 0.697436
0.840162 0.3034 0.705808
0.054196 0.358275 0.655268
0.154147 0.36575 0.66364
0.254099 0.373225 0.672012
0.354051 0.3807 0.680384
0.454003 0.388175 0.688756
0.553955 0.39565 0.697128
0.653906 0.403125 0.7055
0.753858 0.4106 0.713872
0.85381 0.418075 0.722244
0.067844 0.47295 0.671704
0.167795 0.480425 0.680076
0.267747 0.4879 0.688448
0.367699 0.495375 0.69682
0.467651 0.50285 0.705192
0.567602 0.510325 0.713564
0.667554 0.5178 0.721936
0.767506 0.525275 0.730308
0.867457 0.53275 0.73868
0.081491 0.587625 0.68814
0.181443 0.5951 0.696512
0.281395 0.602575 0.704884
0.381347 0.61005 0.713256
0.481298 0.617525 0.721628
0.58125 0.625 0.73
0.681202 0.632475 0.738372
0.781154 0.63995 0.746744
0.881105 0.647425 0.755116
0.095139 0.7023 0.704576
0.195091 0.709775 0.712948
0.295042 0.71725 0.72132
0.394994 0.724725 0.729692
0.494946 0.7322 0.738064
0.594898 0.739675 0.746436
0.69485 0.74715 0.754808
0.794801 0.754625 0.76318
0.894753 0.7621 0.771552
0.108787 0.816975 0.721012
0.208738 0.82445 0.729384
0.30869 0.831925 0.737756
0.408642 0.8394 0.746128
0.508594 0.846875 0.7545
0.608546 0.85435 0.762872
0.708497 0.861825 0.771244
0.808449 0.8693 0.779616
0.908401 0.876775 0.787988
0.122434 0.93165 0.737448
0.222386 0.939125 0.74582
0.322338 0.9466 0.754192
0.42229 0.954075 0.762564
0.522242 0.96155 0.770936
0.622193 0.969025 0.779308
0.722145 0.9765 0.78768
0.822097 0.983975 0.796052
0.922049 0.99145 0.804424
0.015903 0.0171 0.721152
0.115855 0.024575 0.729524
0.215807 0.03205 0.737896
0.315758 0.039525 0.746268
0.41571 0.047 0.75464
0.515662 0.054475 0.763012
0.615614 0.06195 0.771384
0.715565 0.069425 0.779756
0.815517 0.0769 0.788128
0.029551 0.131775 0.737588
0.129502 0.13925 0.74596
0.229454 0.146725 0.754332
0.329406 0.1542 0.762704
0.429358 0.161675 0.771076
0.52931 0.16915 0.779448
0.629261 0.176625 0.78782
0.729213 0.1841 0.796192
0.829165 0.191575 0.804564
0.043198 0.24645 0.754024
0.14315 0.253925 0.762396
0.243102 0.2614 0.770768
0.343054 0.268875 0.77914
0.443005 0.27635 0.787512
0.542957 0.283825 0.795884
0.642909 0.2913 0.804256
0.742861 0.298775 0.812628
0.842813 0.30625 0.821
0.056846 0.361125 0.77046
0.156798 0.3686 0.778832
0.25675 0.376075 0.787204
0.356702 0.38355 0.795576
0.456653 0.391025 0.803948
0.556605 0.3985 0.81232
0.656557 0.405975 0.820692
0.756509 0.41345 0.829064
0.85646 0.420925 0.837436
0.070494 0.4758 0.786896
0.170446 0.483275 0.795268
0.270397 0.49075 0.80364
0.370349 0.498225 0.812012
0.470301 0.5057 0.820384
0.570253 0.513175 0.828756
0.670205 0.52065 0.837128
0.770156 0.528125 0.8455
0.870108 0.5356 0.853872
0.084142 0.590475 0.803332
0.184093 0.59795 0.811704
0.284045 0.605425 0.820076
0.383997 0.6129 0.828448
0.483949 0.620375 0.83682
0.583901 0.62785 0.845192
0.683852 0.635325 0.853564
0.783804 0.6428 0.861936
0.883756 0.650275 0.870308
0.097789 0.70515 0.819768
0.197741 0.712625 0.82814
0.297693 0.7201 0.836512
0.397645 0.727575 0.844884
0.497597 0.73505 0.853256
0.597548 0.742525 0.861628
0.6975 0.75 0.87
0.797452 0.757475 0.878372
0.897404 0.76495 0.886744
0.111437 0.819825 0.836204
0.211389 0.8273 0.844576
0.311341 0.834775 0.852948
0.411293 0.84225 0.86132
0.511244 0.849725 0.869692
0.611196 0.8572 0.878064
0.711148 0.864675 0.886436
0.811099 0.87215 0.894808
0.911051 0.879625 0.90318
0.125085 0.9345 0.85264
0.225037 0.941975 0.861012
0.324989 0.94945 0.869384
0.42494 0.956925 0.877756
0.524892 0.9644 0.886128
0.624844 0.971875 0.8945
0.724796 0.97935 0.902872
0.824747 0.986825 0.911244
0.924699 0.9943 0.919616
0.018553 0.01995 0.836344
0.118505 0.027425 0.844716
0.218457 0.0349 0.853088
0.318409 0.042375 0.86146
0.418361 0.04985 0.869832
0.518312 0.057325 0.878204
0.618264 0.0648 0.886576
0.718216 0.072275 0.894948
0.818168 0.07975 0.90332
0.032201 0.134625 0.85278
0.132153 0.1421 0.861152
0.232105 0.149575 0.869524
0.332056 0.15705 0.877896
0.432008 0.164525 0.886268
0.53196 0.172 0.89464
0.631912 0.179475 0.903012
0.731864 0.18695 0.911384
0.831815 0.194425 0.919756
0.045849 0.2493 0.869216
0.145801 0.256775 0.877588
0.245753 0.26425 0.88596
0.345704 0.271725 0.894332
0.445656 0.2792 0.902704
0.545608 0.286675 0.911076
0.64556 0.29415 0.919448
0.745511 0.301625 0.92782
0.845463 0.3091 0.936192
0.059497 0.363975 0.885652
0.159448 0.37145 0.894024
0.2594 0.378925 0.902396
0.359352 0.3864 0.910768
0.459304 0.393875 0.91914
0.559256 0.40135 0.927512
0.659207 0.408825 0.935884
0.759159 0.4163 0.944256
0.859111 0.423775 0.952628
0.073145 0.47865 0.902088
0.173096 0.486125 0.91046
0.273048 0.4936 0.918832
0.373 0.501075 0.927204
0.472951 0.50855 0.935576
0.572903 0.516025 0.943948
0.672855 0.5235 0.95232
0.772807 0.530975 0.960692
0.872759 0.53845 0.969064
0.086792 0.593325 0.918524
0.186744 0.6008 0.926896
0.286696 0.608275 0.935268
0.386647 0.61575 0.94364
0.486599 0.623225 0.952012
0.586551 0.6307 0.960384
0.686503 0.638175 0.968756
0.786455 0.64565 0.977128
0.886406 0.653125 0.9855
0.10044 0.708 0.93496
0.200392 0.715475 0.943332
0.300344 0.72295 0.951704
0.400295 0.730425 0.960076
0.500247 0.7379 0.968448
0.600199 0.745375 0.97682
0.700151 0.75285 0.985192
0.800102 0.760325 0.993564
0.900054 0.7678 1.0
0.114088 0.822675 0.951396
0.214039 0.83015 0.959768
0.313991 0.837625 0.96814
0.413943 0.8451 0.976512
0.513895 0.852575 0.984884
0.613847 0.86005 0.993256
0.713798 0.867525 1.0
0.81375 0.875 1.0
0.913702 0.882475 1.0
0.127735 0.93735 0.967832
0.227687 0.944825 0.976204
0.327639 0.9523 0.984576
0.427591 0.959775 0.992948
0.527543 0.96725 1.0
0.627494 0.974725 1.0
0.727446 0.9822 1.0
0.827398 0.989675 1.0
0.92735 0.99715 1.0
0.021204 0.0228 0.951536
0.121156 0.030275 0.959908
0.221108 0.03775 0.96828
0.321059 0.045225 0.976652
0.421011 0.0527 0.985024
0.520963 0.060175 0.993396
0.620915 0.06765 1.0
0.720866 0.075125 1.0
0.820818 0.0826 1.0
0.034852 0.137475 0.967972
0.134803 0.14495 0.976344
0.234755 0.152425 0.984716
0.334707 0.1599 0.993088
0.434659 0.167375 1.0
0.53461 0.17485 1.0
0.634562 0.182325 1.0
0.734514 0.1898 1.0
0.834466 0.197275 1.0
0.048499 0.25215 0.984408
0.148451 0.259625 0.99278
0.248403 0.2671 1.0
0.348355 0.274575 1.0
0.448306 0.28205 1.0
0.548258 0.289525 1.0
0.64821 0.297 1.0
0.748162 0.304475 1.0
0.848114 0.31195 1.0
0.062147 0.366825 1.0
0.162099 0.3743 1.0
0.262051 0.381775 1.0
0.362003 0.38925 1.0
0.461954 0.396725 1.0
0.561906 0.4042 1.0
0.661858 0.411675 1.0
0.76181 0.41915 1.0
0.861761 0.426625 1.0
0.075795 0.4815 1.0
0.175747 0.488975 1.0
0.275699 0.49645 1.0
0.37565 0.503925 1.0
0.475602 0.5114 1.0
0.575554 0.518875 1.0
0.675506 0.52635 1.0
0.775457 0.533825 1.0
0.875409 0.5413 1.0
0.089443 0.596175 1.0
0.189395 0.60365 1.0
0.289346 0.611125 1.0
0.389298 0.6186 1.0
0.48925 0.626075 1.0
0.589201 0.63355 1.0
0.689153 0.641025 1.0
0.789105 0.6485 1.0
0.889057 0.655975 1.0
0.103091 0.71085 1.0
0.203042 0.718325 1.0
0.302994 0.7258 1.0
0.402946 0.733275 1.0
0.502897 0.74075 1.0
0.602849 0.748225 1.0
0.702801 0.7557 1.0
0.802753 0.763175 1.0
0.902705 0.77065 1.0
0.116738 0.825525 1.0
0.21669 0.833 1.0
0.316642 0.840475 1.0
0.416594 0.84795 1.0
0.516545 0.855425 1.0
0.616497 0.8629 1.0
0.716449 0.870375 1.0
0.816401 0.87785 1.0
0.916352 0.885325 1.0
0.130386 0.9402 1.0
0.230338 0.947675 1.0
0.330289 0.95515 1.0
0.430241 0.962625 1.0
0.530193 0.9701 1.0
0.630145 0.977575 1.0
0.730097 0.98505 1.0
0.830048 0.992525 1.0
0.93 1.0 1.0
