luts/cold_blue.cube
# Ascension Engine — Cold Blue LUT
LUT_3D_SIZE 5
0.0 0.0 0.03
0.199904 0.01495 0.046744
0.399807 0.0299 0.063488
0.59971 0.04485 0.080232
0.799614 0.0598 0.096976
0.027295 0.22935 0.062872
0.227199 0.2443 0.079616
0.427103 0.25925 0.09636
0.627006 0.2742 0.113104
0.82691 0.28915 0.129848
0.054591 0.4587 0.095744
0.254495 0.47365 0.112488
0.454398 0.4886 0.129232
0.654302 0.50355 0.145976
0.854205 0.5185 0.16272
0.081886 0.68805 0.128616
0.28179 0.703 0.14536
0.481694 0.71795 0.162104
0.681597 0.7329 0.178848
0.881501 0.74785 0.195592
0.109182 0.9174 0.161488
0.309086 0.93235 0.178232
0.508989 0.9473 0.194976
0.708893 0.96225 0.21172
0.908796 0.9772 0.228464
0.005301 0.0057 0.260384
0.205205 0.02065 0.277128
0.405108 0.0356 0.293872
0.605012 0.05055 0.310616
0.804915 0.0655 0.32736
0.032597 0.23505 0.293256
0.2325 0.25 0.31
0.432403 0.26495 0.326744
0.632307 0.2799 0.343488
0.83221 0.29485 0.360232
0.059892 0.4644 0.326128
0.259796 0.47935 0.342872
0.459699 0.4943 0.359616
0.659602 0.50925 0.37636
0.859506 0.5242 0.393104
0.087188 0.69375 0.359
0.287091 0.7087 0.375744
0.486994 0.72365 0.392488
0.686898 0.7386 0.409232
0.886802 0.75355 0.425976
0.114483 0.9231 0.391872
0.314386 0.93805 0.408616
0.51429 0.953 0.42536
0.714194 0.96795 0.442104
0.914097 0.9829 0.458848
0.010602 0.0114 0.490768
0.210506 0.02635 0.507512
0.410409 0.0413 0.524256
0.610313 0.05625 0.541
0.810216 0.0712 0.557744
0.037897 0.24075 0.52364
0.237801 0.2557 0.540384
0.437705 0.27065 0.557128
0.637608 0.2856 0.573872
0.837511 0.30055 0.590616
0.065193 0.4701 0.556512
0.265097 0.48505 0.573256
0.465 0.5 0.59
0.664903 0.51495 0.606744
0.864807 0.5299 0.623488
0.092488 0.69945 0.589384
0.292392 0.7144 0.606128
0.492295 0.72935 0.622872
0.692199 0.7443 0.639616
0.892103 0.75925 0.65636
0.119784 0.9288 0.622256
0.319688 0.94375 0.639
0.519591 0.9587 0.655744
0.719495 0.97365 0.672488
0.919398 0.9886 0.689232
0.015903 0.0171 0.721152
0.215807 0.03205 0.737896
0.41571 0.047 0.75464
0.615614 0.06195 0.771384
0.815517 0.0769 0.788128
0.043198 0.24645 0.754024
0.243102 0.2614 0.770768
0.443005 0.27635 0.787512
0.642909 0.2913 0.804256
0.842813 0.30625 0.821
0.070494 0.4758 0.786896
0.270397 0.49075 0.80364
0.470301 0.5057 0.820384
0.670205 0.52065 0.837128
0.870108 0.5356 0.853872
0.097789 0.70515 0.819768
0.297693 0.7201 0.836512
0.497597 0.73505 0.853256
0.6975 0.75 0.87
0.897404 0.76495 0.886744
0.125085 0.9345 0.85264
0.324989 0.94945 0.869384
0.524892 0.9644 0.886128
0.724796 0.97935 0.902872
0.924699 0.9943 0.919616
0.021204 0.0228 0.951536
0.221108 0.03775 0.96828
0.421011 0.0527 0.985024
0.620915 0.06765 1.0
0.820818 0.0826 1.0
0.048499 0.25215 0.984408
0.248403 0.2671 1.0
0.448306 0.28205 1.0
0.64821 0.297 1.0
0.848114 0.31195 1.0
0.075795 0.4815 1.0
0.275699 0.49645 1.0
0.475602 0.5114 1.0
0.675506 0.52635 1.0
0.875409 0.5413 1.0
0.103091 0.71085 1.0
0.302994 0.7258 1.0
0.502897 0.74075 1.0
0.702801 0.7557 1.0
0.902705 0.77065 1.0
0.130386 0.9402 1.0
0.330289 0.95515 1.0
0.530193 0.9701 1.0
0.730097 0.98505 1.0
0.93 1.0 1.0
