luts/cold_blue.cube
# Ascension Engine — Cold Blue LUT
LUT_3D_SIZE 33
0.0 0.0 0.03
0.024988 0.001869 0.032093
0.049976 0.003737 0.034186
0.074964 0.005606 0.036279
0.099952 0.007475 0.038372
0.12494 0.009344 0.040465
0.149928 0.011213 0.042558
0.174916 0.013081 0.044651
0.199904 0.01495 0.046744
0.224891 0.016819 0.048837
0.249879 0.018687 0.05093
0.274867 0.020556 0.053023
0.299855 0.022425 0.055116
0.324843 0.024294 0.057209
0.349831 0.026162 0.059302
0.374819 0.028031 0.061395
0.399807 0.0299 0.063488
0.424795 0.031769 0.065581
0.449783 0.033637 0.067674
0.474771 0.035506 0.069767
0.499759 0.037375 0.07186
0.524747 0.039244 0.073953
0.549735 0.041112 0.076046
0.574723 0.042981 0.078139
0.59971 0.04485 0.080232
0.624698 0.046719 0.082325
0.649686 0.048587 0.084418
0.674674 0.050456 0.086511
0.699662 0.052325 0.088604
0.72465 0.054194 0.090697
0.749638 0.056062 0.09279
0.774626 0.057931 0.094883
0.799614 0.0598 0.096976
0.003412 0.028669 0.034109
0.0284 0.030537 0.036202
0.053388 0.032406 0.038295
0.078376 0.034275 0.040388
0.103364 0.036144 0.042481
0.128352 0.038012 0.044574
0.15334 0.039881 0.046667
0.178327 0.04175 0.04876
0.203315 0.043619 0.050853
0.228303 0.045487 0.052946
0.253291 0.047356 0.055039
0.278279 0.049225 0.057132
0.303267 0.051094 0.059225
0.328255 0.052962 0.061318
0.353243 0.054831 0.063411
0.378231 0.0567 0.065504
0.403219 0.058569 0.067597
0.428207 0.060437 0.06969
0.453195 0.062306 0.071783
0.478183 0.064175 0.073876
0.503171 0.066044 0.075969
0.528159 0.067912 0.078062
0.553147 0.069781 0.080155
0.578135 0.07165 0.082248
0.603122 0.073519 0.084341
0.62811 0.075387 0.086434
0.653098 0.077256 0.088527
0.678086 0.079125 0.09062
0.703074 0.080994 0.092713
0.728062 0.082862 0.094806
0.75305 0.084731 0.096899
0.778038 0.0866 0.098992
0.803026 0.088469 0.101085
0.006824 0.057337 0.038218
0.031812 0.059206 0.040311
0.0568 0.061075 0.042404
0.081788 0.062944 0.044497
0.106776 0.064812 0.04659
0.131764 0.066681 0.048683
0.156752 0.06855 0.050776
0.181739 0.070419 0.052869
0.206727 0.072288 0.054962
0.231715 0.074156 0.057055
0.256703 0.076025 0.059148
0.281691 0.077894 0.061241
0.306679 0.079763 0.063334
0.331667 0.081631 0.065427
0.356655 0.0835 0.06752
0.381643 0.085369 0.069613
0.406631 0.087237 0.071706
0.431619 0.089106 0.073799
0.456607 0.090975 0.075892
0.481595 0.092844 0.077985
0.506583 0.094713 0.080078
0.531571 0.096581 0.082171
0.556559 0.09845 0.084264
0.581546 0.100319 0.086357
0.606534 0.102187 0.08845
0.631522 0.104056 0.090543
0.65651 0.105925 0.092636
0.681498 0.107794 0.094729
0.706486 0.109662 0.096822
0.731474 0.111531 0.098915
0.756462 0.1134 0.101008
0.78145 0.115269 0.103101
0.806438 0.117137 0.105194
0.010236 0.086006 0.042327
0.035224 0.087875 0.04442
0.060212 0.089744 0.046513
0.0852 0.091612 0.048606
0.110188 0.093481 0.050699
0.135176 0.09535 0.052792
0.160163 0.097219 0.054885
0.185151 0.099087 0.056978
0.210139 0.100956 0.059071
0.235127 0.102825 0.061164
0.260115 0.104694 0.063257
0.285103 0.106563 0.06535
0.310091 0.108431 0.067443
0.335079 0.1103 0.069536
0.360067 0.112169 0.071629
0.385055 0.114037 0.073722
0.410043 0.115906 0.075815
0.435031 0.117775 0.077908
0.460019 0.119644 0.080001
0.485007 0.121512 0.082094
0.509995 0.123381 0.084187
0.534983 0.12525 0.08628
0.55997 0.127119 0.088373
0.584958 0.128988 0.090466
0.609946 0.130856 0.092559
0.634934 0.132725 0.094652
0.659922 0.134594 0.096745
0.68491 0.136462 0.098838
0.709898 0.138331 0.100931
0.734886 0.1402 0.103024
0.759874 0.142069 0.105117
0.784862 0.143937 0.10721
0.80985 0.145806 0.109303
0.013648 0.114675 0.046436
0.038636 0.116544 0.048529
0.063624 0.118413 0.050622
0.088612 0.120281 0.052715
0.1136 0.12215 0.054808
0.138587 0.124019 0.056901
0.163575 0.125887 0.058994
0.188563 0.127756 0.061087
0.213551 0.129625 0.06318
0.238539 0.131494 0.065273
0.263527 0.133362 0.067366
0.288515 0.135231 0.069459
0.313503 0.1371 0.071552
0.338491 0.138969 0.073645
0.363479 0.140838 0.075738
0.388467 0.142706 0.077831
0.413455 0.144575 0.079924
0.438443 0.146444 0.082017
0.463431 0.148312 0.08411
0.488419 0.150181 0.086203
0.513406 0.15205 0.088296
0.538394 0.153919 0.090389
0.563382 0.155787 0.092482
0.58837 0.157656 0.094575
0.613358 0.159525 0.096668
0.638346 0.161394 0.098761
0.663334 0.163262 0.100854
0.688322 0.165131 0.102947
0.71331 0.167 0.10504
0.738298 0.168869 0.107133
0.763286 0.170737 0.109226
0.788274 0.172606 0.111319
0.813262 0.174475 0.113412
0.01706 0.143344 0.050545
0.042048 0.145212 0.052638
0.067036 0.147081 0.054731
0.092024 0.14895 0.056824
0.117011 0.150819 0.058917
0.141999 0.152688 0.06101
0.166987 0.154556 0.063103
0.191975 0.156425 0.065196
0.216963 0.158294 0.067289
0.241951 0.160162 0.069382
0.266939 0.162031 0.071475
0.291927 0.1639 0.073568
0.316915 0.165769 0.075661
0.341903 0.167637 0.077754
0.366891 0.169506 0.079847
0.391879 0.171375 0.08194
0.416867 0.173244 0.084033
0.441855 0.175113 0.086126
0.466843 0.176981 0.088219
0.491831 0.17885 0.090312
0.516818 0.180719 0.092405
0.541806 0.182587 0.094498
0.566794 0.184456 0.096591
0.591782 0.186325 0.098684
0.61677 0.188194 0.100777
0.641758 0.190062 0.10287
0.666746 0.191931 0.104963
0.691734 0.1938 0.107056
0.716722 0.195669 0.109149
0.74171 0.197537 0.111242
0.766698 0.199406 0.113335
0.791686 0.201275 0.115428
0.816674 0.203144 0.117521
0.020472 0.172013 0.054654
0.04546 0.173881 0.056747
0.070447 0.17575 0.05884
0.095435 0.177619 0.060933
0.120423 0.179487 0.063026
0.145411 0.181356 0.065119
0.170399 0.183225 0.067212
0.195387 0.185094 0.069305
0.220375 0.186963 0.071398
0.245363 0.188831 0.073491
0.270351 0.1907 0.075584
0.295339 0.192569 0.077677
0.320327 0.194437 0.07977
0.345315 0.196306 0.081863
0.370303 0.198175 0.083956
0.395291 0.200044 0.086049
0.420279 0.201912 0.088142
0.445267 0.203781 0.090235
0.470255 0.20565 0.092328
0.495242 0.207519 0.094421
0.52023 0.209388 0.096514
0.545218 0.211256 0.098607
0.570206 0.213125 0.1007
0.595194 0.214994 0.102793
0.620182 0.216863 0.104886
0.64517 0.218731 0.106979
0.670158 0.2206 0.109072
0.695146 0.222469 0.111165
0.720134 0.224337 0.113258
0.745122 0.226206 0.115351
0.77011 0.228075 0.117444
0.795098 0.229944 0.119537
0.820086 0.231812 0.12163
0.023884 0.200681 0.058763
0.048872 0.20255 0.060856
0.073859 0.204419 0.062949
0.098847 0.206288 0.065042
0.123835 0.208156 0.067135
0.148823 0.210025 0.069228
0.173811 0.211894 0.071321
0.198799 0.213762 0.073414
0.223787 0.215631 0.075507
0.248775 0.2175 0.0776
0.273763 0.219369 0.079693
0.298751 0.221238 0.081786
0.323739 0.223106 0.083879
0.348727 0.224975 0.085972
0.373715 0.226844 0.088065
0.398703 0.228712 0.090158
0.423691 0.230581 0.092251
0.448679 0.23245 0.094344
0.473666 0.234319 0.096437
0.498654 0.236187 0.09853
0.523642 0.238056 0.100623
0.54863 0.239925 0.102716
0.573618 0.241794 0.104809
0.598606 0.243663 0.106902
0.623594 0.245531 0.108995
0.648582 0.2474 0.111088
0.67357 0.249269 0.113181
0.698558 0.251138 0.115274
0.723546 0.253006 0.117367
0.748534 0.254875 0.11946
0.773522 0.256744 0.121553
0.79851 0.258613 0.123646
0.823498 0.260481 0.125739
0.027295 0.22935 0.062872
0.052283 0.231219 0.064965
0.077271 0.233088 0.067058
0.102259 0.234956 0.069151
0.127247 0.236825 0.071244
0.152235 0.238694 0.073337
0.177223 0.240563 0.07543
0.202211 0.242431 0.077523
0.227199 0.2443 0.079616
0.252187 0.246169 0.081709
0.277175 0.248037 0.083802
0.302163 0.249906 0.085895
0.327151 0.251775 0.087988
0.352139 0.253644 0.090081
0.377127 0.255512 0.092174
0.402115 0.257381 0.094267
0.427103 0.25925 0.09636
0.45209 0.261119 0.098453
0.477078 0.262987 0.100546
0.502066 0.264856 0.102639
0.527054 0.266725 0.104732
0.552042 0.268594 0.106825
0.57703 0.270462 0.108918
0.602018 0.272331 0.111011
0.627006 0.2742 0.113104
0.651994 0.276069 0.115197
0.676982 0.277938 0.11729
0.70197 0.279806 0.119383
0.726958 0.281675 0.121476
0.751946 0.283544 0.123569
0.776934 0.285412 0.125662
0.801922 0.287281 0.127755
0.82691 0.28915 0.129848
0.030707 0.258019 0.066981
0.055695 0.259887 0.069074
0.080683 0.261756 0.071167
0.105671 0.263625 0.07326
0.130659 0.265494 0.075353
0.155647 0.267363 0.077446
0.180635 0.269231 0.079539
0.205623 0.2711 0.081632
0.230611 0.272969 0.083725
0.255599 0.274838 0.085818
0.280587 0.276706 0.087911
0.305575 0.278575 0.090004
0.330563 0.280444 0.092097
0.355551 0.282313 0.09419
0.380539 0.284181 0.096283
0.405527 0.28605 0.098376
0.430514 0.287919 0.100469
0.455502 0.289787 0.102562
0.48049 0.291656 0.104655
0.505478 0.293525 0.106748
0.530466 0.295394 0.108841
0.555454 0.297262 0.110934
0.580442 0.299131 0.113027
0.60543 0.301 0.11512
0.630418 0.302869 0.117213
0.655406 0.304737 0.119306
0.680394 0.306606 0.121399
0.705382 0.308475 0.123492
0.73037 0.310344 0.125585
0.755358 0.312213 0.127678
0.780346 0.314081 0.129771
0.805334 0.31595 0.131864
0.830321 0.317819 0.133957
0.034119 0.286687 0.07109
0.059107 0.288556 0.073183
0.084095 0.290425 0.075276
0.109083 0.292294 0.077369
0.134071 0.294162 0.079462
0.159059 0.296031 0.081555
0.184047 0.2979 0.083648
0.209035 0.299769 0.085741
0.234023 0.301638 0.087834
0.259011 0.303506 0.089927
0.283999 0.305375 0.09202
0.308987 0.307244 0.094113
0.333975 0.309113 0.096206
0.358963 0.310981 0.098299
0.383951 0.31285 0.100392
0.408938 0.314719 0.102485
0.433926 0.316588 0.104578
0.458914 0.318456 0.106671
0.483902 0.320325 0.108764
0.50889 0.322194 0.110857
0.533878 0.324062 0.11295
0.558866 0.325931 0.115043
0.583854 0.3278 0.117136
0.608842 0.329669 0.119229
0.63383 0.331537 0.121322
0.658818 0.333406 0.123415
0.683806 0.335275 0.125508
0.708794 0.337144 0.127601
0.733782 0.339012 0.129694
0.75877 0.340881 0.131787
0.783757 0.34275 0.13388
0.808745 0.344619 0.135973
0.833733 0.346487 0.138066
0.037531 0.315356 0.075199
0.062519 0.317225 0.077292
0.087507 0.319094 0.079385
0.112495 0.320963 0.081478
0.137483 0.322831 0.083571
0.162471 0.3247 0.085664
0.187459 0.326569 0.087757
0.212447 0.328437 0.08985
0.237435 0.330306 0.091943
0.262423 0.332175 0.094036
0.287411 0.334044 0.096129
0.312399 0.335913 0.098222
0.337387 0.337781 0.100315
0.362374 0.33965 0.102408
0.387362 0.341519 0.104501
0.41235 0.343388 0.106594
0.437338 0.345256 0.108687
0.462326 0.347125 0.11078
0.487314 0.348994 0.112873
0.512302 0.350863 0.114966
0.53729 0.352731 0.117059
0.562278 0.3546 0.119152
0.587266 0.356469 0.121245
0.612254 0.358337 0.123338
0.637242 0.360206 0.125431
0.66223 0.362075 0.127524
0.687218 0.363944 0.129617
0.712206 0.365812 0.13171
0.737194 0.367681 0.133803
0.762182 0.36955 0.135896
0.787169 0.371419 0.137989
0.812157 0.373287 0.140082
0.837145 0.375156 0.142175
0.040943 0.344025 0.079308
0.065931 0.345894 0.081401
0.090919 0.347762 0.083494
0.115907 0.349631 0.085587
0.140895 0.3515 0.08768
0.165883 0.353369 0.089773
0.190871 0.355237 0.091866
0.215859 0.357106 0.093959
0.240847 0.358975 0.096052
0.265835 0.360844 0.098145
0.290823 0.362712 0.100238
0.315811 0.364581 0.102331
0.340799 0.36645 0.104424
0.365786 0.368319 0.106517
0.390774 0.370188 0.10861
0.415762 0.372056 0.110703
0.44075 0.373925 0.112796
0.465738 0.375794 0.114889
0.490726 0.377663 0.116982
0.515714 0.379531 0.119075
0.540702 0.3814 0.121168
0.56569 0.383269 0.123261
0.590678 0.385138 0.125354
0.615666 0.387006 0.127447
0.640654 0.388875 0.12954
0.665642 0.390744 0.131633
0.69063 0.392612 0.133726
0.715618 0.394481 0.135819
0.740606 0.39635 0.137912
0.765593 0.398219 0.140005
0.790581 0.400087 0.142098
0.815569 0.401956 0.144191
0.840557 0.403825 0.146284
0.044355 0.372694 0.083417
0.069343 0.374563 0.08551
0.094331 0.376431 0.087603
0.119319 0.3783 0.089696
0.144307 0.380169 0.091789
0.169295 0.382038 0.093882
0.194283 0.383906 0.095975
0.219271 0.385775 0.098068
0.244259 0.387644 0.100161
0.269247 0.389512 0.102254
0.294235 0.391381 0.104347
0.319223 0.39325 0.10644
0.34421 0.395119 0.108533
0.369198 0.396987 0.110626
0.394186 0.398856 0.112719
0.419174 0.400725 0.114812
0.444162 0.402594 0.116905
0.46915 0.404463 0.118998
0.494138 0.406331 0.121091
0.519126 0.4082 0.123184
0.544114 0.410069 0.125277
0.569102 0.411938 0.12737
0.59409 0.413806 0.129463
0.619078 0.415675 0.131556
0.644066 0.417544 0.133649
0.669054 0.419412 0.135742
0.694042 0.421281 0.137835
0.719029 0.42315 0.139928
0.744017 0.425019 0.142021
0.769005 0.426887 0.144114
0.793993 0.428756 0.146207
0.818981 0.430625 0.1483
0.843969 0.432494 0.150393
0.047767 0.401363 0.087526
0.072755 0.403231 0.089619
0.097743 0.4051 0.091712
0.122731 0.406969 0.093805
0.147719 0.408838 0.095898
0.172707 0.410706 0.097991
0.197695 0.412575 0.100084
0.222683 0.414444 0.102177
0.247671 0.416312 0.10427
0.272659 0.418181 0.106363
0.297647 0.42005 0.108456
0.322634 0.421919 0.110549
0.347622 0.423787 0.112642
0.37261 0.425656 0.114735
0.397598 0.427525 0.116828
0.422586 0.429394 0.118921
0.447574 0.431262 0.121014
0.472562 0.433131 0.123107
0.49755 0.435 0.1252
0.522538 0.436869 0.127293
0.547526 0.438738 0.129386
0.572514 0.440606 0.131479
0.597502 0.442475 0.133572
0.62249 0.444344 0.135665
0.647478 0.446213 0.137758
0.672466 0.448081 0.139851
0.697454 0.44995 0.141944
0.722441 0.451819 0.144037
0.747429 0.453688 0.14613
0.772417 0.455556 0.148223
0.797405 0.457425 0.150316
0.822393 0.459294 0.152409
0.847381 0.461163 0.154502
0.051179 0.430031 0.091635
0.076167 0.4319 0.093728
0.101155 0.433769 0.095821
0.126143 0.435638 0.097914
0.151131 0.437506 0.100007
0.176119 0.439375 0.1021
0.201107 0.441244 0.104193
0.226095 0.443113 0.106286
0.251083 0.444981 0.108379
0.27607 0.44685 0.110472
0.301058 0.448719 0.112565
0.326046 0.450588 0.114658
0.351034 0.452456 0.116751
0.376022 0.454325 0.118844
0.40101 0.456194 0.120937
0.425998 0.458062 0.12303
0.450986 0.459931 0.125123
0.475974 0.4618 0.127216
0.500962 0.463669 0.129309
0.52595 0.465537 0.131402
0.550938 0.467406 0.133495
0.575926 0.469275 0.135588
0.600914 0.471144 0.137681
0.625902 0.473013 0.139774
0.65089 0.474881 0.141867
0.675878 0.47675 0.14396
0.700865 0.478619 0.146053
0.725853 0.480488 0.148146
0.750841 0.482356 0.150239
0.775829 0.484225 0.152332
0.800817 0.486094 0.154425
0.825805 0.487962 0.156518
0.850793 0.489831 0.158611
0.054591 0.4587 0.095744
0.079579 0.460569 0.097837
0.104567 0.462438 0.09993
0.129555 0.464306 0.102023
0.154543 0.466175 0.104116
0.179531 0.468044 0.106209
0.204519 0.469913 0.108302
0.229507 0.471781 0.110395
0.254495 0.47365 0.112488
0.279482 0.475519 0.114581
0.30447 0.477388 0.116674
0.329458 0.479256 0.118767
0.354446 0.481125 0.12086
0.379434 0.482994 0.122953
0.404422 0.484862 0.125046
0.42941 0.486731 0.127139
0.454398 0.4886 0.129232
0.479386 0.490469 0.131325
0.504374 0.492337 0.133418
0.529362 0.494206 0.135511
0.55435 0.496075 0.137604
0.579338 0.497944 0.139697
0.604326 0.499812 0.14179
0.629314 0.501681 0.143883
0.654302 0.50355 0.145976
0.679289 0.505419 0.148069
0.704277 0.507288 0.150162
0.729265 0.509156 0.152255
0.754253 0.511025 0.154348
0.779241 0.512894 0.156441
0.804229 0.514763 0.158534
0.829217 0.516631 0.160627
0.854205 0.5185 0.16272
0.058003 0.487369 0.099853
0.082991 0.489237 0.101946
0.107979 0.491106 0.104039
0.132967 0.492975 0.106132
0.157955 0.494844 0.108225
0.182943 0.496713 0.110318
0.207931 0.498581 0.112411
0.232918 0.50045 0.114504
0.257906 0.502319 0.116597
0.282894 0.504188 0.11869
0.307882 0.506056 0.120783
0.33287 0.507925 0.122876
0.357858 0.509794 0.124969
0.382846 0.511663 0.127062
0.407834 0.513531 0.129155
0.432822 0.5154 0.131248
0.45781 0.517269 0.133341
0.482798 0.519138 0.135434
0.507786 0.521006 0.137527
0.532774 0.522875 0.13962
0.557762 0.524744 0.141713
0.58275 0.526613 0.143806
0.607738 0.528481 0.145899
0.632726 0.53035 0.147992
0.657713 0.532219 0.150085
0.682701 0.534088 0.152178
0.707689 0.535956 0.154271
0.732677 0.537825 0.156364
0.757665 0.539694 0.158457
0.782653 0.541562 0.16055
0.807641 0.543431 0.162643
0.832629 0.5453 0.164736
0.857617 0.547169 0.166829
0.061415 0.516038 0.103962
0.086403 0.517906 0.106055
0.111391 0.519775 0.108148
0.136379 0.521644 0.110241
0.161367 0.523513 0.112334
0.186355 0.525381 0.114427
0.211342 0.52725 0.11652
0.23633 0.529119 0.118613
0.261318 0.530987 0.120706
0.286306 0.532856 0.122799
0.311294 0.534725 0.124892
0.336282 0.536594 0.126985
0.36127 0.538463 0.129078
0.386258 0.540331 0.131171
0.411246 0.5422 0.133264
0.436234 0.544069 0.135357
0.461222 0.545937 0.13745
0.48621 0.547806 0.139543
0.511198 0.549675 0.141636
0.536186 0.551544 0.143729
0.561174 0.553412 0.145822
0.586162 0.555281 0.147915
0.61115 0.55715 0.150008
0.636137 0.559019 0.152101
0.661125 0.560887 0.154194
0.686113 0.562756 0.156287
0.711101 0.564625 0.15838
0.736089 0.566494 0.160473
0.761077 0.568362 0.162566
0.786065 0.570231 0.164659
0.811053 0.5721 0.166752
0.836041 0.573969 0.168845
0.861029 0.575838 0.170938
0.064827 0.544706 0.108071
0.089815 0.546575 0.110164
0.114803 0.548444 0.112257
0.139791 0.550312 0.11435
0.164779 0.552181 0.116443
0.189767 0.55405 0.118536
0.214754 0.555919 0.120629
0.239742 0.557787 0.122722
0.26473 0.559656 0.124815
0.289718 0.561525 0.126908
0.314706 0.563394 0.129001
0.339694 0.565263 0.131094
0.364682 0.567131 0.133187
0.38967 0.569 0.13528
0.414658 0.570869 0.137373
0.439646 0.572738 0.139466
0.464634 0.574606 0.141559
0.489622 0.576475 0.143652
0.51461 0.578344 0.145745
0.539598 0.580213 0.147838
0.564586 0.582081 0.149931
0.589574 0.58395 0.152024
0.614561 0.585819 0.154117
0.639549 0.587688 0.15621
0.664537 0.589556 0.158303
0.689525 0.591425 0.160396
0.714513 0.593294 0.162489
0.739501 0.595163 0.164582
0.764489 0.597031 0.166675
0.789477 0.5989 0.168768
0.814465 0.600769 0.170861
0.839453 0.602637 0.172954
0.864441 0.604506 0.175047
0.068239 0.573375 0.11218
0.093227 0.575244 0.114273
0.118215 0.577113 0.116366
0.143203 0.578981 0.118459
0.16819 0.58085 0.120552
0.193178 0.582719 0.122645
0.218166 0.584588 0.124738
0.243154 0.586456 0.126831
0.268142 0.588325 0.128924
0.29313 0.590194 0.131017
0.318118 0.592062 0.13311
0.343106 0.593931 0.135203
0.368094 0.5958 0.137296
0.393082 0.597669 0.139389
0.41807 0.599538 0.141482
0.443058 0.601406 0.143575
0.468046 0.603275 0.145668
0.493034 0.605144 0.147761
0.518022 0.607012 0.149854
0.54301 0.608881 0.151947
0.567998 0.61075 0.15404
0.592985 0.612619 0.156133
0.617973 0.614487 0.158226
0.642961 0.616356 0.160319
0.667949 0.618225 0.162412
0.692937 0.620094 0.164505
0.717925 0.621962 0.166598
0.742913 0.623831 0.168691
0.767901 0.6257 0.170784
0.792889 0.627569 0.172877
0.817877 0.629437 0.17497
0.842865 0.631306 0.177063
0.867853 0.633175 0.179156
0.071651 0.602044 0.116289
0.096639 0.603913 0.118382
0.121627 0.605781 0.120475
0.146615 0.60765 0.122568
0.171602 0.609519 0.124661
0.19659 0.611387 0.126754
0.221578 0.613256 0.128847
0.246566 0.615125 0.13094
0.271554 0.616994 0.133033
0.296542 0.618862 0.135126
0.32153 0.620731 0.137219
0.346518 0.6226 0.139312
0.371506 0.624469 0.141405
0.396494 0.626337 0.143498
0.421482 0.628206 0.145591
0.44647 0.630075 0.147684
0.471458 0.631944 0.149777
0.496446 0.633813 0.15187
0.521434 0.635681 0.153963
0.546422 0.63755 0.156056
0.571409 0.639419 0.158149
0.596397 0.641288 0.160242
0.621385 0.643156 0.162335
0.646373 0.645025 0.164428
0.671361 0.646894 0.166521
0.696349 0.648763 0.168614
0.721337 0.650631 0.170707
0.746325 0.6525 0.1728
0.771313 0.654369 0.174893
0.796301 0.656238 0.176986
0.821289 0.658106 0.179079
0.846277 0.659975 0.181172
0.871265 0.661844 0.183265
0.075063 0.630713 0.120398
0.100051 0.632581 0.122491
0.125039 0.63445 0.124584
0.150026 0.636319 0.126677
0.175014 0.638188 0.12877
0.200002 0.640056 0.130863
0.22499 0.641925 0.132956
0.249978 0.643794 0.135049
0.274966 0.645663 0.137142
0.299954 0.647531 0.139235
0.324942 0.6494 0.141328
0.34993 0.651269 0.143421
0.374918 0.653138 0.145514
0.399906 0.655006 0.147607
0.424894 0.656875 0.1497
0.449882 0.658744 0.151793
0.47487 0.660613 0.153886
0.499858 0.662481 0.155979
0.524846 0.66435 0.158072
0.549833 0.666219 0.160165
0.574821 0.668087 0.162258
0.599809 0.669956 0.164351
0.624797 0.671825 0.166444
0.649785 0.673694 0.168537
0.674773 0.675562 0.17063
0.699761 0.677431 0.172723
0.724749 0.6793 0.174816
0.749737 0.681169 0.176909
0.774725 0.683037 0.179002
0.799713 0.684906 0.181095
0.824701 0.686775 0.183188
0.849689 0.688644 0.185281
0.874677 0.690512 0.187374
0.078475 0.659381 0.124507
0.103462 0.66125 0.1266
0.12845 0.663119 0.128693
0.153438 0.664988 0.130786
0.178426 0.666856 0.132879
0.203414 0.668725 0.134972
0.228402 0.670594 0.137065
0.25339 0.672462 0.139158
0.278378 0.674331 0.141251
0.303366 0.6762 0.143344
0.328354 0.678069 0.145437
0.353342 0.679937 0.14753
0.37833 0.681806 0.149623
0.403318 0.683675 0.151716
0.428306 0.685544 0.153809
0.453294 0.687412 0.155902
0.478282 0.689281 0.157995
0.50327 0.69115 0.160088
0.528257 0.693019 0.162181
0.553245 0.694887 0.164274
0.578233 0.696756 0.166367
0.603221 0.698625 0.16846
0.628209 0.700494 0.170553
0.653197 0.702363 0.172646
0.678185 0.704231 0.174739
0.703173 0.7061 0.176832
0.728161 0.707969 0.178925
0.753149 0.709838 0.181018
0.778137 0.711706 0.183111
0.803125 0.713575 0.185204
0.828113 0.715444 0.187297
0.853101 0.717313 0.18939
0.878089 0.719181 0.191483
0.081886 0.68805 0.128616
0.106874 0.689919 0.130709
0.131862 0.691787 0.132802
0.15685 0.693656 0.134895
0.181838 0.695525 0.136988
0.206826 0.697394 0.139081
0.231814 0.699263 0.141174
0.256802 0.701131 0.143267
0.28179 0.703 0.14536
0.306778 0.704869 0.147453
0.331766 0.706738 0.149546
0.356754 0.708606 0.151639
0.381742 0.710475 0.153732
0.40673 0.712344 0.155825
0.431718 0.714213 0.157918
0.456706 0.716081 0.160011
0.481694 0.71795 0.162104
0.506681 0.719819 0.164197
0.531669 0.721688 0.16629
0.556657 0.723556 0.168383
0.581645 0.725425 0.170476
0.606633 0.727294 0.172569
0.631621 0.729162 0.174662
0.656609 0.731031 0.176755
0.681597 0.7329 0.178848
0.706585 0.734769 0.180941
0.731573 0.736637 0.183034
0.756561 0.738506 0.185127
0.781549 0.740375 0.18722
0.806537 0.742244 0.189313
0.831525 0.744112 0.191406
0.856513 0.745981 0.193499
0.881501 0.74785 0.195592
0.085298 0.716719 0.132725
0.110286 0.718587 0.134818
0.135274 0.720456 0.136911
0.160262 0.722325 0.139004
0.18525 0.724194 0.141097
0.210238 0.726063 0.14319
0.235226 0.727931 0.145283
0.260214 0.7298 0.147376
0.285202 0.731669 0.149469
0.31019 0.733537 0.151562
0.335178 0.735406 0.153655
0.360166 0.737275 0.155748
0.385154 0.739144 0.157841
0.410142 0.741012 0.159934
0.43513 0.742881 0.162027
0.460118 0.74475 0.16412
0.485105 0.746619 0.166213
0.510093 0.748487 0.168306
0.535081 0.750356 0.170399
0.560069 0.752225 0.172492
0.585057 0.754094 0.174585
0.610045 0.755962 0.176678
0.635033 0.757831 0.178771
0.660021 0.7597 0.180864
0.685009 0.761569 0.182957
0.709997 0.763437 0.18505
0.734985 0.765306 0.187143
0.759973 0.767175 0.189236
0.784961 0.769044 0.191329
0.809949 0.770913 0.193422
0.834937 0.772781 0.195515
0.859924 0.77465 0.197608
0.884912 0.776519 0.199701
0.08871 0.745387 0.136834
0.113698 0.747256 0.138927
0.138686 0.749125 0.14102
0.163674 0.750994 0.143113
0.188662 0.752862 0.145206
0.21365 0.754731 0.147299
0.238638 0.7566 0.149392
0.263626 0.758469 0.151485
0.288614 0.760337 0.153578
0.313602 0.762206 0.155671
0.33859 0.764075 0.157764
0.363578 0.765944 0.159857
0.388566 0.767813 0.16195
0.413554 0.769681 0.164043
0.438542 0.77155 0.166136
0.463529 0.773419 0.168229
0.488517 0.775288 0.170322
0.513505 0.777156 0.172415
0.538493 0.779025 0.174508
0.563481 0.780894 0.176601
0.588469 0.782763 0.178694
0.613457 0.784631 0.180787
0.638445 0.7865 0.18288
0.663433 0.788369 0.184973
0.688421 0.790238 0.187066
0.713409 0.792106 0.189159
0.738397 0.793975 0.191252
0.763385 0.795844 0.193345
0.788373 0.797713 0.195438
0.813361 0.799581 0.197531
0.838349 0.80145 0.199624
0.863336 0.803319 0.201717
0.888324 0.805187 0.20381
0.092122 0.774056 0.140943
0.11711 0.775925 0.143036
0.142098 0.777794 0.145129
0.167086 0.779662 0.147222
0.192074 0.781531 0.149315
0.217062 0.7834 0.151408
0.24205 0.785269 0.153501
0.267038 0.787138 0.155594
0.292026 0.789006 0.157687
