luts/desaturated.cube
TITLE "desaturated"
# Grey-crush LUT — desaturate skin, push shadows dark, ~15% saturation
# Generated for Ascension Engine
LUT_3D_SIZE 5
0.000000 0.000000 0.010720
0.021080 0.007826 0.019632
0.094211 0.034976 0.047965
0.266591 0.083972 0.098000
0.363730 0.156315 0.171347
0.033231 0.059283 0.046550
0.119711 0.121045 0.095755
0.289172 0.206804 0.168221
0.386819 0.317630 0.297665
0.486347 0.379823 0.359903
0.148516 0.290135 0.165128
0.311884 0.351947 0.295392
0.410011 0.414578 0.357598
0.509925 0.477920 0.420619
0.611320 0.541892 0.484350
0.334720 0.449550 0.355294
0.433301 0.513250 0.418287
0.533585 0.577542 0.481994
0.635293 0.642370 0.546332
0.738227 0.707686 0.611237
0.456683 0.613356 0.479639
0.557323 0.678459 0.543955
0.659334 0.744029 0.608840
0.762532 0.810031 0.674243
0.866779 0.876433 0.740119
0.000964 0.000975 0.019121
0.033534 0.015724 0.046865
0.120313 0.050987 0.096256
0.289674 0.108734 0.168920
0.387332 0.190286 0.298175
0.048757 0.080072 0.094035
0.149192 0.150854 0.165820
0.312389 0.279587 0.295903
0.410526 0.341245 0.358115
0.510449 0.403743 0.421143
0.181430 0.313597 0.293631
0.335227 0.375737 0.355811
0.433818 0.438650 0.418811
0.534110 0.502241 0.482523
0.635825 0.566435 0.546866
0.358181 0.473763 0.416480
0.457202 0.537696 0.480167
0.557850 0.602199 0.544488
0.659868 0.667218 0.609378
0.763072 0.732710 0.674785
0.480676 0.638120 0.542112
0.581664 0.703406 0.606982
0.683975 0.769144 0.672370
0.787436 0.835302 0.738234
0.891916 0.901851 0.804536
0.004310 0.004358 0.045783
0.049129 0.026620 0.094531
0.149870 0.070271 0.166514
0.312893 0.136959 0.296413
0.411041 0.269068 0.358633
0.067514 0.104247 0.163439
0.182182 0.184212 0.294141
0.335734 0.302987 0.356329
0.434335 0.364982 0.419335
0.534635 0.427769 0.483052
0.217904 0.337191 0.354026
0.358691 0.399638 0.417004
0.457721 0.462820 0.480696
0.558377 0.526648 0.545022
0.660401 0.591057 0.609917
0.381757 0.498068 0.478342
0.481197 0.562225 0.542645
0.582193 0.626930 0.607520
0.684510 0.692134 0.672913
0.787976 0.757797 0.738780
0.504757 0.662956 0.605124
0.606082 0.728419 0.670498
0.708682 0.794321 0.736349
0.812398 0.860631 0.802639
0.917106 0.927321 0.869338
0.010346 0.010462 0.092825
0.067956 0.040636 0.164127
0.182937 0.092909 0.294651
0.336241 0.168708 0.356846
0.434852 0.292405 0.419858
0.089579 0.131875 0.292381
0.218735 0.221171 0.354543
0.359200 0.326523 0.417527
0.458240 0.388833 0.481225
0.558903 0.451895 0.545556
0.284719 0.360907 0.415197
0.382269 0.423646 0.478870
0.481718 0.487083 0.543179
0.582721 0.551140 0.608058
0.685045 0.615755 0.673455
0.405441 0.522461 0.540803
0.505280 0.586833 0.605662
0.606612 0.651734 0.671040
0.709218 0.717118 0.736895
0.812939 0.782946 0.803189
0.528924 0.687861 0.668626
0.630572 0.753495 0.734464
0.733452 0.819556 0.800742
0.837416 0.886014 0.867430
0.942348 0.952844 0.934500
0.019260 0.019474 0.161760
0.090094 0.057872 0.292890
0.219567 0.118970 0.355060
0.359710 0.204035 0.418051
0.458759 0.315880 0.481755
0.115023 0.163016 0.352758
0.285220 0.288397 0.415720
0.382781 0.350184 0.479399
0.482239 0.412794 0.543713
0.583250 0.476117 0.608597
0.307910 0.384739 0.477045
0.405955 0.447755 0.541337
0.505803 0.511437 0.606200
0.607142 0.575713 0.671583
0.709754 0.640526 0.737441
0.429228 0.546939 0.603804
0.529449 0.611518 0.669169
0.631103 0.676608 0.735010
0.733990 0.742165 0.801292
0.837959 0.808155 0.867983
0.553174 0.712833 0.732580
0.655133 0.778634 0.798846
0.758285 0.844849 0.865522
0.862491 0.911452 0.932581
0.967639 0.978417 1.000000
