luts/desaturated.cube
TITLE "desaturated"
# Grey-crush LUT — desaturate skin, push shadows dark, ~15% saturation
# Generated for Ascension Engine
LUT_3D_SIZE 9
0.000000 0.000000 0.010720
0.004717 0.001751 0.012909
0.021080 0.007826 0.019632
0.050610 0.018789 0.031211
0.094211 0.034976 0.047965
0.152555 0.056637 0.070156
0.266591 0.083972 0.098000
0.314882 0.117149 0.131679
0.363730 0.156315 0.171347
0.007436 0.013265 0.019300
0.026786 0.027084 0.030695
0.059546 0.046274 0.047254
0.106552 0.071052 0.069241
0.168436 0.101601 0.096874
0.277864 0.138075 0.130335
0.326293 0.180612 0.169780
0.375262 0.269933 0.215347
0.424710 0.300572 0.298802
0.033231 0.059283 0.046550
0.069268 0.087234 0.068333
0.119711 0.121045 0.095755
0.185164 0.160858 0.128999
0.289172 0.206804 0.168221
0.337733 0.286859 0.213561
0.386819 0.317630 0.297665
0.436372 0.348624 0.328674
0.486347 0.379823 0.359903
0.079782 0.142328 0.094644
0.133697 0.185520 0.127671
0.202745 0.273194 0.166671
0.300512 0.303859 0.211783
0.349203 0.334756 0.296528
0.398403 0.365866 0.327530
0.448058 0.397173 0.358750
0.498126 0.428664 0.390173
0.548569 0.460327 0.421785
0.148516 0.290135 0.165128
0.221186 0.320931 0.210013
0.311884 0.351947 0.295392
0.360700 0.383168 0.326385
0.410011 0.414578 0.357598
0.459767 0.446166 0.389014
0.509925 0.477920 0.420619
0.560452 0.509832 0.452401
0.611320 0.541892 0.484350
0.274894 0.369201 0.294257
0.323287 0.400528 0.325241
0.372224 0.432038 0.356446
0.421644 0.463719 0.387855
0.471498 0.495562 0.419453
0.521745 0.527557 0.451229
0.572355 0.559696 0.483172
0.623298 0.591973 0.515272
0.674552 0.624381 0.547521
0.334720 0.449550 0.355294
0.383775 0.481322 0.386696
0.433301 0.513250 0.418287
0.483250 0.545326 0.450057
0.533585 0.577542 0.481994
0.584275 0.609892 0.514088
0.635293 0.642370 0.546332
0.686617 0.674969 0.578717
0.738227 0.707686 0.611237
0.395352 0.530983 0.417122
0.444981 0.563138 0.448885
0.495024 0.595429 0.480816
0.545445 0.627850 0.512905
0.596214 0.660396 0.545143
0.647306 0.693061 0.577523
0.698698 0.725841 0.610039
0.750372 0.758731 0.642683
0.802312 0.791726 0.675450
0.456683 0.613356 0.479639
0.506818 0.645846 0.511722
0.557323 0.678459 0.543955
0.608170 0.711188 0.576330
0.659334 0.744029 0.608840
0.710795 0.776978 0.641480
0.762532 0.810031 0.674243
0.814532 0.843184 0.707124
0.866779 0.876433 0.740119
0.000216 0.000218 0.012785
0.007503 0.003518 0.019374
0.026921 0.011409 0.030811
0.059753 0.024330 0.047413
0.106834 0.042578 0.069446
0.168797 0.066380 0.097126
0.278115 0.095924 0.130636
0.326546 0.131368 0.170131
0.375517 0.172852 0.215749
0.010910 0.017917 0.030300
0.033383 0.033754 0.046707
0.069492 0.055051 0.068536
0.120012 0.082010 0.096005
0.185544 0.114800 0.129298
0.289423 0.153571 0.168571
0.337987 0.198453 0.213961
0.387076 0.281586 0.297920
0.436631 0.312317 0.328932
0.040596 0.069259 0.067634
0.080024 0.099426 0.094893
0.134016 0.135509 0.127968
0.203144 0.177646 0.167018
0.300764 0.267940 0.212181
0.349457 0.298564 0.296784
0.398660 0.329422 0.327787
0.448317 0.360496 0.359009
0.498387 0.391770 0.390434
0.091358 0.158072 0.126646
0.148854 0.203613 0.165474
0.263879 0.284857 0.210410
0.312136 0.315613 0.295648
0.360955 0.346593 0.326642
0.410269 0.377780 0.357857
0.460027 0.409158 0.389274
0.510187 0.440716 0.420881
0.560716 0.472443 0.452665
0.164531 0.301849 0.208647
0.275144 0.332731 0.294512
0.323540 0.363827 0.325498
0.372480 0.395122 0.356705
0.421902 0.426601 0.388115
0.471758 0.458254 0.419715
0.522007 0.490069 0.451492
0.572619 0.522039 0.483436
0.623564 0.554154 0.515538
0.286443 0.381123 0.324354
0.334973 0.412521 0.355553
0.384031 0.444098 0.386956
0.433559 0.475842 0.418549
0.483511 0.507743 0.450320
0.533848 0.539794 0.482258
0.584539 0.571987 0.514354
0.635559 0.604314 0.546599
0.686885 0.636770 0.578985
0.346436 0.461645 0.385797
0.395609 0.493477 0.417384
0.445240 0.525463 0.449148
0.495285 0.557593 0.481081
0.545708 0.589861 0.513171
0.596478 0.622260 0.545410
0.647572 0.654785 0.577791
0.698966 0.687430 0.610308
0.750642 0.720190 0.642953
0.407211 0.543226 0.447977
0.456943 0.575434 0.479903
0.507079 0.607775 0.511987
0.557586 0.640245 0.544221
0.608435 0.672837 0.576598
0.659601 0.705546 0.609109
0.711063 0.738368 0.641750
0.762802 0.771299 0.674514
0.814803 0.804334 0.707396
0.468668 0.625729 0.510804
0.518895 0.658267 0.543033
0.569484 0.690924 0.575404
0.620409 0.723696 0.607911
0.671646 0.756579 0.640547
0.723175 0.789568 0.673306
0.774977 0.822659 0.706185
0.827037 0.855849 0.739177
0.879341 0.889135 0.772278
0.000964 0.000975 0.019121
0.010993 0.005956 0.030414
0.033534 0.015724 0.046865
0.069717 0.030645 0.068740
0.120313 0.050987 0.096256
0.185925 0.076958 0.129598
0.289674 0.108734 0.168920
0.338241 0.146465 0.214362
0.387332 0.190286 0.298175
0.015107 0.023326 0.046165
0.040764 0.041218 0.067836
0.080266 0.064652 0.095142
0.134336 0.093815 0.128266
0.203544 0.128870 0.167366
0.301015 0.169956 0.212580
0.349711 0.217199 0.297039
0.398917 0.293275 0.328044
0.448577 0.324094 0.359268
0.048757 0.080072 0.094035
0.091619 0.112478 0.126943
0.149192 0.150854 0.165820
0.264128 0.195332 0.210807
0.312389 0.279587 0.295903
0.361210 0.310302 0.326899
0.410526 0.341245 0.358115
0.460286 0.372397 0.389535
0.510449 0.403743 0.421143
0.103781 0.174707 0.164282
0.164888 0.222614 0.209042
0.275394 0.296556 0.294767
0.323793 0.327399 0.325755
0.372735 0.358460 0.356963
0.422160 0.389721 0.388375
0.472018 0.421170 0.419977
0.522270 0.452793 0.451756
0.572882 0.484581 0.483701
0.181430 0.313597 0.293631
0.286694 0.344563 0.324611
0.335227 0.375737 0.355811
0.384287 0.407103 0.387216
0.433818 0.438650 0.418811
0.483771 0.470366 0.450584
0.534110 0.502241 0.482523
0.584804 0.534266 0.514620
0.635825 0.566435 0.546866
0.298027 0.393072 0.354660
0.346690 0.424540 0.386057
0.395865 0.456181 0.417645
0.445499 0.487987 0.449412
0.495546 0.519946 0.481345
0.545970 0.552052 0.513436
0.596743 0.584297 0.545677
0.647838 0.616674 0.578060
0.699234 0.649177 0.610577
0.358181 0.473763 0.416480
0.407468 0.505655 0.448240
0.457202 0.537696 0.480167
0.507341 0.569880 0.512253
0.557850 0.602199 0.544488
0.608700 0.634646 0.576866
0.659868 0.667218 0.609378
0.711331 0.699907 0.642020
0.763072 0.732710 0.674785
0.419096 0.555490 0.478990
0.468928 0.587749 0.511070
0.519156 0.620140 0.543300
0.569748 0.652657 0.575672
0.620675 0.685294 0.608180
0.671913 0.718047 0.640817
0.723443 0.750911 0.673578
0.775247 0.783882 0.706457
0.827308 0.816956 0.739450
0.480676 0.638120 0.542112
0.530992 0.670704 0.574479
0.581664 0.703406 0.606982
0.632666 0.736221 0.639614
0.683975 0.769144 0.672370
0.735571 0.802173 0.705245
0.787436 0.835302 0.738234
0.839555 0.868529 0.771332
0.891916 0.901851 0.804536
0.002315 0.002341 0.030022
0.015206 0.009093 0.046322
0.040933 0.020789 0.068038
0.080509 0.037749 0.095392
0.134656 0.060215 0.128565
0.203944 0.088380 0.167715
0.301267 0.122409 0.212980
0.349966 0.162448 0.297294
0.399174 0.208622 0.328301
0.020044 0.029508 0.067141
0.048943 0.049488 0.094283
0.091879 0.075086 0.127239
0.149531 0.106478 0.166167
0.264377 0.143816 0.211205
0.312641 0.187236 0.296158
0.361465 0.274324 0.327156
0.410784 0.304998 0.358374
0.460546 0.335903 0.389795
0.057727 0.091732 0.125922
0.104059 0.126398 0.164627
0.165245 0.167086 0.209438
0.275644 0.213923 0.295022
0.324046 0.291270 0.326012
0.372991 0.322074 0.357222
0.422418 0.353098 0.388636
0.472278 0.384326 0.420239
0.522532 0.415743 0.452019
0.117057 0.192239 0.207680
0.181806 0.277589 0.293886
0.286945 0.308289 0.324868
0.335480 0.339217 0.356070
0.384544 0.370356 0.387477
0.434076 0.401690 0.419073
0.484032 0.433207 0.450847
0.534373 0.464894 0.482788
0.585068 0.496743 0.514886
0.199219 0.325378 0.323724
0.298279 0.356425 0.354919
0.346944 0.387674 0.386318
0.396122 0.419110 0.417907
0.445758 0.450723 0.449675
0.495807 0.482500 0.481610
0.546233 0.514434 0.513702
0.597008 0.546515 0.545944
0.648104 0.578736 0.578328
0.309644 0.405049 0.385159
0.358436 0.436584 0.416742
0.407726 0.468289 0.448503
0.457462 0.500154 0.480432
0.507602 0.532170 0.512519
0.558113 0.564330 0.544755
0.608965 0.596626 0.577134
0.660134 0.629052 0.609648
0.711599 0.661602 0.642290
0.369955 0.485904 0.447332
0.419354 0.517854 0.479254
0.469188 0.549950 0.511336
0.519418 0.582186 0.543567
0.570012 0.614555 0.575940
0.620940 0.647051 0.608449
0.672180 0.679667 0.641087
0.723712 0.712401 0.673849
0.775516 0.745246 0.706729
0.431006 0.567773 0.510153
0.480936 0.600084 0.542379
0.531254 0.632523 0.574747
0.581929 0.665087 0.607251
0.632932 0.697768 0.639884
0.684242 0.730564 0.672641
0.735839 0.763469 0.705517
0.787706 0.796480 0.738507
0.839827 0.829592 0.771606
0.492706 0.650529 0.573554
0.543110 0.683159 0.606053
0.593864 0.715904 0.638681
0.644941 0.748761 0.671434
0.696320 0.781725 0.704306
0.747982 0.814792 0.737291
0.799909 0.847959 0.770387
0.852088 0.881223 0.803588
0.904505 0.914580 0.836891
0.004310 0.004358 0.045783
0.020159 0.012949 0.067342
0.049129 0.026620 0.094531
0.092140 0.045654 0.127536
0.149870 0.070271 0.166514
0.264627 0.100654 0.211603
0.312893 0.136959 0.296413
0.361720 0.179323 0.327413
0.411041 0.269068 0.358633
0.025737 0.036476 0.093429
0.057930 0.058575 0.126217
0.104338 0.086363 0.164972
0.165603 0.120005 0.209834
0.275894 0.159647 0.295277
0.324299 0.205417 0.326269
0.373247 0.285991 0.357481
0.422676 0.316755 0.388896
0.472538 0.347743 0.420501
0.067514 0.104247 0.163439
0.117354 0.141193 0.208074
0.182182 0.184212 0.294141
0.287195 0.272329 0.325125
0.335734 0.302987 0.356329
0.384800 0.333878 0.387737
0.434335 0.364982 0.419335
0.484292 0.396283 0.451110
0.534635 0.427769 0.483052
0.131196 0.210674 0.293006
0.199614 0.289266 0.323981
0.298530 0.320055 0.355177
0.347198 0.351066 0.386578
0.396379 0.382281 0.418169
0.446017 0.413686 0.449938
0.496068 0.445269 0.481874
0.546496 0.477019 0.513968
0.597272 0.508926 0.546211
0.217904 0.337191 0.354026
0.309897 0.368316 0.385419
0.358691 0.399638 0.417004
0.407983 0.431143 0.448766
0.457721 0.462820 0.480696
0.507864 0.494658 0.512785
0.558377 0.526648 0.545022
0.609230 0.558784 0.577402
0.660401 0.591057 0.609917
0.321294 0.417051 0.415838
0.370210 0.448653 0.447595
0.419611 0.480420 0.479519
0.469448 0.512343 0.511601
0.519680 0.544415 0.543834
0.570275 0.576628 0.576208
0.621206 0.608974 0.608718
0.672447 0.641448 0.641357
0.723980 0.674044 0.674120
0.381757 0.498068 0.478342
0.431264 0.530075 0.510418
0.481197 0.562225 0.542645
0.531517 0.594512 0.575015
0.582193 0.626930 0.607520
0.633198 0.659472 0.640154
0.684510 0.692134 0.672913
0.736108 0.724911 0.705789
0.787976 0.757797 0.738780
0.442940 0.580077 0.541457
0.492967 0.612437 0.573822
0.543373 0.644924 0.606322
0.594128 0.677533 0.638952
0.645207 0.710259 0.671705
0.696588 0.743097 0.704578
0.748251 0.776043 0.737564
0.800180 0.809093 0.770661
0.852360 0.842243 0.803862
0.504757 0.662956 0.605124
0.555248 0.695630 0.637749
0.606082 0.728419 0.670498
0.657233 0.761317 0.703366
0.708682 0.794321 0.736349
0.760409 0.827426 0.769441
0.812398 0.860631 0.802639
0.864634 0.893930 0.835939
0.917106 0.927321 0.869338
0.006978 0.007056 0.066650
0.025869 0.017545 0.093676
0.058134 0.033232 0.126513
0.104618 0.054371 0.165318
0.165961 0.081166 0.210230
0.276144 0.113790 0.295532
0.324552 0.152389 0.326526
0.373502 0.197096 0.357740
0.422934 0.280719 0.389156
0.032201 0.044243 0.125200
0.067735 0.068489 0.163783
0.117652 0.098491 0.208468
0.182559 0.134404 0.294396
0.287446 0.176368 0.325382
0.335988 0.267076 0.356588
0.385056 0.297693 0.387997
0.434593 0.328544 0.419597
0.484553 0.359613 0.451373
0.078128 0.117626 0.206715
0.131512 0.156872 0.293261
0.200010 0.202238 0.324238
0.298781 0.283989 0.355436
0.347453 0.314739 0.386838
0.396636 0.345712 0.418431
0.446276 0.376893 0.450201
0.496329 0.408267 0.482139
0.546759 0.439820 0.514234
0.146203 0.270335 0.323094
0.218319 0.300978 0.354284
0.310149 0.331853 0.385680
0.358946 0.362944 0.417265
0.408240 0.394233 0.449029
0.457981 0.425707 0.480961
0.508125 0.457355 0.513050
0.558640 0.489166 0.545289
0.609495 0.521131 0.577670
0.273175 0.349034 0.384521
0.321547 0.380236 0.416100
0.370466 0.411629 0.447858
0.419869 0.443201 0.479783
0.469708 0.474940 0.511867
0.519942 0.506837 0.544101
0.570539 0.538884 0.576476
0.621471 0.571073 0.608987
0.672714 0.603396 0.641628
0.332975 0.429080 0.446686
0.382013 0.460746 0.478606
0.431522 0.492573 0.510684
0.481457 0.524554 0.542912
0.531779 0.556681 0.575283
0.582457 0.588945 0.607789
0.633464 0.621340 0.640425
0.684777 0.653862 0.673184
0.736377 0.686503 0.706062
0.393586 0.510254 0.509501
0.443199 0.542316 0.541724
0.493228 0.574519 0.574090
0.543636 0.606857 0.606591
0.594393 0.639323 0.639222
0.645474 0.671912 0.671976
0.696856 0.704618 0.704850
0.748520 0.737437 0.737837
0.800450 0.770364 0.770935
0.454898 0.592399 0.572896
0.505019 0.624809 0.605393
0.555511 0.657343 0.638019
0.606347 0.689997 0.670769
0.657500 0.722766 0.703638
0.708950 0.755646 0.736622
0.760678 0.788632 0.769715
0.812668 0.821720 0.802914
0.864906 0.854908 0.836215
0.516830 0.675400 0.636816
0.567406 0.708118 0.669562
0.618318 0.740949 0.702427
0.669542 0.773888 0.735406
0.721059 0.806931 0.768496
0.772850 0.840075 0.801691
0.824900 0.873316 0.834988
0.877194 0.906650 0.868384
0.929721 0.940076 0.901875
0.010346 0.010462 0.092825
0.032349 0.022898 0.125494
0.067956 0.040636 0.164127
0.117950 0.063910 0.208863
0.182937 0.092909 0.294651
0.287697 0.127794 0.325639
0.336241 0.168708 0.356846
0.385312 0.215774 0.388258
0.434852 0.292405 0.419858
0.039448 0.052819 0.162598
0.078367 0.079240 0.207108
0.131828 0.111478 0.293516
0.200406 0.149683 0.324495
0.299033 0.193987 0.355694
0.347707 0.278720 0.387099
0.396892 0.309429 0.418693
0.446535 0.340365 0.450464
0.496590 0.371512 0.482403
0.089579 0.131875 0.292381
0.146538 0.173440 0.323351
0.218735 0.221171 0.354543
0.310401 0.295686 0.385940
0.359200 0.326523 0.417527
0.408498 0.357577 0.449293
0.458240 0.388833 0.481225
0.508387 0.420276 0.513316
0.558903 0.451895 0.545556
0.162087 0.281989 0.353392
0.273425 0.312723 0.384781
0.321800 0.343683 0.416362
0.370721 0.374851 0.448121
0.420127 0.406212 0.480048
0.469968 0.437754 0.512133
0.520204 0.469465 0.544368
0.570803 0.501336 0.576745
0.621737 0.533357 0.609257
0.284719 0.360907 0.415197
0.333229 0.392183 0.446950
0.382269 0.423646 0.478870
0.431781 0.455283 0.510950
0.481718 0.487083 0.543179
0.532042 0.519039 0.575551
0.582721 0.551140 0.608058
0.633730 0.583381 0.640695
0.685045 0.615755 0.673455
0.344687 0.441133 0.477693
0.393842 0.472862 0.509767
0.443458 0.504749 0.541991
0.493489 0.536787 0.574358
0.543899 0.568966 0.606860
0.594657 0.601281 0.639492
0.645740 0.633725 0.672248
0.697123 0.666293 0.705122
0.748789 0.698979 0.738110
0.405441 0.522461 0.540803
0.455157 0.554578 0.573164
0.505280 0.586833 0.605662
0.555775 0.619221 0.638289
0.606612 0.651734 0.671040
0.657766 0.684368 0.703911
0.709218 0.717118 0.736895
0.760948 0.749978 0.769989
0.812939 0.782946 0.803189
0.466879 0.604741 0.604464
0.517092 0.637199 0.637087
0.567669 0.669779 0.669833
0.618583 0.702478 0.702699
0.669809 0.735290 0.735679
0.721328 0.768210 0.768769
0.773120 0.801236 0.801965
0.825171 0.834362 0.835264
0.877467 0.867587 0.868660
0.528924 0.687861 0.668626
0.579583 0.720623 0.701488
0.630572 0.753495 0.734464
0.681868 0.786474 0.767550
0.733452 0.819556 0.800742
0.785307 0.852737 0.834037
0.837416 0.886014 0.867430
0.889767 0.919384 0.900919
0.942348 0.952844 0.934500
0.014434 0.014595 0.124480
0.039613 0.029022 0.162941
0.078607 0.048846 0.207502
0.132145 0.074282 0.293771
0.200803 0.105507 0.324752
0.299284 0.142675 0.355953
0.347961 0.185921 0.387359
0.397149 0.273458 0.418954
0.446794 0.304126 0.450728
0.047489 0.062217 0.205753
0.089836 0.090837 0.292636
0.146873 0.125333 0.323608
0.219150 0.165849 0.354802
0.310653 0.212510 0.386200
0.359455 0.290400 0.417789
0.408755 0.321198 0.449556
0.458500 0.352217 0.481490
0.508649 0.383439 0.513582
0.101874 0.147003 0.322464
0.162441 0.190905 0.353650
0.273675 0.276723 0.385041
0.322053 0.307416 0.416623
0.370977 0.338338 0.448384
0.420385 0.369471 0.480312
0.470228 0.400800 0.512399
0.520466 0.432312 0.544635
0.571067 0.463994 0.577013
0.178853 0.293679 0.383883
0.284969 0.324502 0.415458
0.333482 0.355543 0.447213
0.382525 0.386786 0.479135
0.432039 0.418217 0.511216
0.481978 0.449825 0.543446
0.532304 0.481598 0.575819
0.582985 0.513527 0.608327
0.633996 0.545604 0.640965
0.296298 0.372809 0.446041
0.344941 0.404158 0.477958
0.394099 0.435688 0.510033
0.443717 0.467389 0.542258
0.493750 0.499249 0.574626
0.544161 0.531261 0.607129
0.594922 0.563417 0.639762
0.646006 0.595709 0.672519
0.697391 0.628131 0.705394
0.356428 0.453211 0.508850
0.405698 0.485001 0.541070
0.455417 0.516947 0.573432
0.505542 0.549039 0.605931
0.556038 0.581271 0.638559
0.606877 0.613636 0.671312
0.658033 0.646128 0.704183
0.709486 0.678742 0.737168
0.761217 0.711472 0.770263
0.417322 0.534690 0.572239
0.467139 0.566860 0.604733
0.517354 0.599166 0.637357
0.567933 0.631602 0.670104
0.618848 0.664162 0.702971
0.670076 0.696841 0.735952
0.721596 0.729634 0.769043
0.773390 0.762536 0.802240
0.825442 0.795543 0.835539
0.478884 0.617101 0.636154
0.529187 0.649607 0.668898
0.579847 0.682233 0.701760
0.630837 0.714975 0.734737
0.682135 0.747829 0.767824
0.733721 0.780790 0.801017
0.785577 0.813854 0.834312
0.837688 0.847018 0.867706
0.890040 0.880279 0.901196
0.541039 0.700339 0.700549
0.591779 0.733143 0.733522
0.642843 0.766057 0.766605
0.694211 0.799075 0.799794
0.745861 0.832196 0.833086
0.797778 0.865414 0.866476
0.849947 0.898726 0.899962
0.902354 0.932131 0.933540
0.954987 0.965624 0.967209
0.019260 0.019474 0.161760
0.047673 0.035931 0.206145
0.090094 0.057872 0.292890
0.147209 0.085496 0.323865
0.219567 0.118970 0.355060
0.310905 0.158440 0.386460
0.359710 0.204035 0.418051
0.409012 0.285122 0.449819
0.458759 0.315880 0.481755
0.056337 0.072446 0.291755
0.102150 0.103288 0.322721
0.162795 0.140064 0.353909
0.273924 0.182908 0.385302
0.322305 0.271464 0.416885
0.371232 0.302116 0.448647
0.420643 0.333000 0.480577
0.470488 0.364098 0.512664
0.520728 0.395394 0.544902
0.115023 0.163016 0.352758
0.179227 0.209273 0.384143
0.285220 0.288397 0.415720
0.333736 0.319180 0.447476
0.382781 0.350184 0.479399
0.432298 0.381394 0.511481
0.482239 0.412794 0.543713
0.532567 0.444372 0.576087
0.583250 0.476117 0.608597
0.196509 0.305404 0.414555
0.296549 0.336312 0.446304
0.345195 0.367432 0.478222
0.394356 0.398748 0.510298
0.443976 0.430248 0.542525
0.494011 0.461920 0.574894
0.544424 0.493754 0.607398
0.595187 0.525740 0.640032
0.646272 0.557872 0.672790
0.307910 0.384739 0.477045
0.356682 0.416159 0.509115
0.405955 0.447755 0.541337
0.455676 0.479518 0.573700
0.505803 0.511437 0.606200
0.556301 0.543505 0.638829
0.607142 0.575713 0.671583
0.658300 0.608056 0.704455
0.709754 0.640526 0.737441
0.368197 0.465313 0.540149
0.417580 0.497163 0.572507
0.467399 0.529166 0.605002
0.517616 0.561312 0.637627
0.568197 0.593596 0.670376
0.619114 0.626010 0.703243
0.670343 0.658549 0.736225
0.721864 0.691207 0.769317
0.773660 0.723981 0.802515
0.429228 0.546939 0.603804
0.479144 0.579162 0.636424
0.529449 0.611518 0.669169
0.580111 0.644002 0.702032
0.631103 0.676608 0.735010
0.682403 0.709331 0.768098
0.733990 0.742165 0.801292
0.785847 0.775108 0.834588
0.837959 0.808155 0.867983
0.490910 0.629480 0.667962
0.541302 0.662032 0.700821
0.592043 0.694703 0.733795
0.643110 0.727488 0.766879
0.694478 0.760383 0.800069
0.746130 0.793384 0.833361
0.798048 0.826487 0.866752
0.850218 0.859689 0.900239
0.902627 0.892985 0.933818
0.553174 0.712833 0.732580
0.603993 0.745680 0.765660
0.655133 0.778634 0.798846
0.706569 0.811691 0.832134
0.758285 0.844849 0.865522
0.810264 0.878104 0.899005
0.862491 0.911452 0.932581
0.914953 0.944891 0.966247
0.967639 0.978417 1.000000
