luts/desaturated.cube
TITLE "desaturated"
# Grey-crush LUT — desaturate skin, push shadows dark, ~15% saturation
# Generated for Ascension Engine
LUT_3D_SIZE 33
0.000000 0.000000 0.010720
0.000236 0.000088 0.010856
0.001055 0.000392 0.011264
0.002534 0.000941 0.011947
0.004717 0.001751 0.012909
0.007638 0.002836 0.014153
0.011324 0.004204 0.015685
0.015798 0.005865 0.017509
0.021080 0.007826 0.019632
0.027187 0.010093 0.022058
0.034135 0.012673 0.024793
0.041938 0.015570 0.027843
0.050610 0.018789 0.031211
0.060162 0.022335 0.034903
0.070606 0.026213 0.038924
0.081952 0.030425 0.043276
0.094211 0.034976 0.047965
0.107392 0.039870 0.052994
0.121504 0.045109 0.058366
0.136556 0.050697 0.064086
0.152555 0.056637 0.070156
0.169511 0.062932 0.076580
0.187429 0.069584 0.083360
0.206317 0.076596 0.090499
0.266591 0.083972 0.098000
0.278607 0.091712 0.105867
0.290662 0.099820 0.114100
0.302754 0.108298 0.122704
0.314882 0.117149 0.131679
0.327045 0.126374 0.141029
0.339241 0.135975 0.150755
0.351470 0.145955 0.160861
0.363730 0.156315 0.171347
0.000372 0.000664 0.011244
0.001341 0.001356 0.011917
0.002981 0.002317 0.012869
0.005335 0.003557 0.014102
0.008433 0.005087 0.015623
0.012302 0.006913 0.017437
0.016964 0.009043 0.019548
0.022438 0.011482 0.021963
0.028741 0.014237 0.024687
0.035888 0.017311 0.027725
0.043894 0.020711 0.031082
0.052771 0.024440 0.034762
0.062531 0.028502 0.038770
0.073186 0.032902 0.043110
0.084745 0.037642 0.047786
0.097220 0.042727 0.052803
0.110618 0.048158 0.058163
0.124950 0.053941 0.063869
0.140224 0.060077 0.069926
0.156446 0.066569 0.076337
0.173627 0.073420 0.083104
0.191772 0.080633 0.090230
0.210889 0.088210 0.097718
0.269406 0.096154 0.105571
0.281432 0.104466 0.113791
0.293495 0.113150 0.122380
0.305596 0.122207 0.131342
0.317732 0.131640 0.140678
0.329903 0.141451 0.150391
0.342107 0.151641 0.160482
0.354343 0.162213 0.170955
0.366611 0.173168 0.181810
0.378909 0.184509 0.193050
0.001664 0.002968 0.012829
0.003468 0.004368 0.014052
0.005994 0.006060 0.015562
0.009271 0.008054 0.017365
0.013324 0.010354 0.019465
0.018175 0.012967 0.021869
0.023842 0.015898 0.024581
0.030341 0.019152 0.027608
0.037689 0.022734 0.030952
0.045898 0.026647 0.034621
0.054981 0.030895 0.038616
0.064950 0.035483 0.042944
0.075816 0.040413 0.047608
0.087589 0.045689 0.052612
0.100279 0.051315 0.057959
0.113896 0.057293 0.063653
0.128448 0.063625 0.069697
0.143943 0.070316 0.076095
0.160390 0.077367 0.082848
0.177796 0.084781 0.089961
0.196169 0.092561 0.097436
0.215515 0.100708 0.105275
0.272223 0.109226 0.113482
0.284258 0.118116 0.122058
0.296331 0.127381 0.131006
0.308440 0.137023 0.140328
0.320584 0.147043 0.150027
0.332762 0.157444 0.160104
0.344974 0.168228 0.170563
0.357218 0.179396 0.181404
0.369493 0.190951 0.192629
0.381798 0.202894 0.204242
0.394133 0.215227 0.216243
0.003994 0.007126 0.015501
0.006694 0.009288 0.017293
0.010151 0.011761 0.019383
0.014389 0.014550 0.021775
0.019430 0.017659 0.024476
0.025291 0.021094 0.027491
0.031988 0.024858 0.030824
0.039536 0.028956 0.034480
0.047949 0.033392 0.038464
0.057239 0.038169 0.042779
0.067418 0.043290 0.047431
0.078495 0.048759 0.052422
0.090483 0.054579 0.057756
0.103390 0.060753 0.063438
0.117225 0.067284 0.069469
0.131998 0.074173 0.075853
0.147716 0.081425 0.082594
0.164387 0.089041 0.089693
0.182019 0.097024 0.097155
0.200619 0.105376 0.104981
0.220194 0.114100 0.113173
0.275043 0.123197 0.121736
0.287086 0.132670 0.130670
0.299168 0.142521 0.139979
0.311285 0.152752 0.149663
0.323438 0.163365 0.159727
0.335624 0.174361 0.170171
0.347843 0.185743 0.180998
0.360094 0.197512 0.192210
0.372376 0.209671 0.203808
0.384689 0.222220 0.215795
0.397030 0.273341 0.228172
0.409400 0.280985 0.283663
0.007436 0.013265 0.019300
0.011074 0.016230 0.021682
0.015499 0.019519 0.024371
0.020731 0.023136 0.027374
0.026786 0.027084 0.030695
0.033682 0.031369 0.034339
0.041432 0.035993 0.038311
0.050049 0.040960 0.042615
0.059546 0.046274 0.047254
0.069935 0.051937 0.052232
0.081225 0.057952 0.057554
0.093428 0.064323 0.063222
0.106552 0.071052 0.069241
0.120606 0.078142 0.075612
0.135599 0.085595 0.082339
0.151540 0.093413 0.089426
0.168436 0.101601 0.096874
0.186294 0.110158 0.104686
0.205123 0.119088 0.112865
0.265851 0.128393 0.121414
0.277864 0.138075 0.130335
0.289917 0.148136 0.139629
0.302007 0.158578 0.149300
0.314133 0.169403 0.159350
0.326293 0.180612 0.169780
0.338487 0.192208 0.180593
0.350714 0.204193 0.191790
0.362972 0.216568 0.203374
0.375262 0.269933 0.215347
0.387581 0.277570 0.227710
0.399929 0.285222 0.283380
0.412306 0.292890 0.291083
0.424710 0.300572 0.298802
0.012041 0.021480 0.024267
0.016653 0.025280 0.027258
0.022076 0.029414 0.030567
0.028328 0.033886 0.034200
0.035422 0.038699 0.038159
0.043375 0.043858 0.042450
0.052197 0.049364 0.047077
0.061903 0.055222 0.052043
0.072502 0.061434 0.057352
0.084005 0.068002 0.063008
0.096423 0.074931 0.069013
0.109764 0.082221 0.075371
0.124038 0.089876 0.082086
0.139253 0.097899 0.089159
0.155417 0.106290 0.096593
0.172538 0.115054 0.104392
0.190624 0.124191 0.112558
0.209680 0.133705 0.121093
0.268665 0.143596 0.130000
0.280688 0.153868 0.139281
0.292750 0.164521 0.148938
0.304848 0.175559 0.158974
0.316982 0.186982 0.169390
0.329150 0.198793 0.180188
0.341352 0.210993 0.191372
0.353587 0.223584 0.202941
0.365852 0.274157 0.214899
0.378149 0.281803 0.227248
0.390475 0.289463 0.283097
0.402830 0.297139 0.290800
0.415213 0.304830 0.298517
0.427623 0.312535 0.306250
0.440060 0.320254 0.313997
0.017852 0.031847 0.030440
0.023468 0.036507 0.034060
0.029916 0.041511 0.038008
0.037210 0.046862 0.042287
0.045366 0.052562 0.046901
0.054394 0.058616 0.051854
0.064308 0.065025 0.057151
0.075119 0.071792 0.062793
0.086836 0.078920 0.068786
0.099469 0.086412 0.075131
0.113029 0.094270 0.081832
0.127522 0.102497 0.088892
0.142959 0.111094 0.096313
0.159347 0.120064 0.104099
0.176694 0.129409 0.112251
0.195006 0.139132 0.120773
0.214292 0.149233 0.129666
0.271482 0.159716 0.138933
0.283514 0.170582 0.148576
0.295584 0.181833 0.158598
0.307691 0.193470 0.169000
0.319833 0.205496 0.179784
0.332010 0.217913 0.190953
0.344219 0.270748 0.202509
0.356461 0.278386 0.214453
0.368734 0.286040 0.226787
0.381037 0.293710 0.282814
0.393370 0.301394 0.290516
0.405732 0.309092 0.298233
0.418121 0.316805 0.305965
0.430538 0.324532 0.313712
0.442981 0.332273 0.321472
0.455451 0.340026 0.329247
0.024905 0.044429 0.037857
0.031550 0.049973 0.042123
0.039045 0.055869 0.046725
0.047405 0.062118 0.051666
0.056640 0.068725 0.056950
0.066763 0.075692 0.062580
0.077785 0.083021 0.068559
0.089716 0.090716 0.074891
0.102566 0.098777 0.081579
0.116344 0.107209 0.088626
0.131058 0.116012 0.096034
0.146718 0.125189 0.103806
0.163330 0.134743 0.111945
0.180902 0.144675 0.120452
0.199442 0.154987 0.129332
0.218957 0.165682 0.138585
0.274301 0.176760 0.148215
0.286342 0.188225 0.158222
0.298421 0.200077 0.168610
0.310536 0.212319 0.179381
0.322686 0.267342 0.190536
0.334871 0.274973 0.202077
0.347088 0.282620 0.214006
0.359337 0.290283 0.226326
0.371617 0.297960 0.239037
0.383928 0.305652 0.290232
0.396267 0.313359 0.297949
0.408635 0.321080 0.305680
0.421031 0.328814 0.313426
0.433455 0.336562 0.321187
0.445904 0.344323 0.328961
0.458379 0.352097 0.336748
0.470880 0.359884 0.344550
0.033231 0.059283 0.046550
0.040928 0.065730 0.051478
0.049492 0.072536 0.056749
0.058934 0.079703 0.062366
0.069268 0.087234 0.068333
0.080502 0.095132 0.074652
0.092648 0.103398 0.081327
0.105715 0.112035 0.088360
0.119711 0.121045 0.095755
0.134646 0.130430 0.103513
0.150528 0.140193 0.111639
0.167365 0.150335 0.120133
0.185164 0.160858 0.128999
0.203932 0.171765 0.138238
0.265110 0.183057 0.147854
0.277122 0.194736 0.157847
0.289172 0.206804 0.168221
0.301259 0.219262 0.178978
0.313383 0.271563 0.190118
0.325541 0.279203 0.201645
0.337733 0.286859 0.213561
0.349958 0.294530 0.225866
0.362215 0.302215 0.238563
0.374502 0.309916 0.289949
0.386819 0.317630 0.297665
0.399166 0.325358 0.305396
0.411541 0.333100 0.313141
0.423943 0.340855 0.320901
0.436372 0.348624 0.328674
0.448828 0.356405 0.336462
0.461309 0.364199 0.344262
0.473816 0.372005 0.352076
0.486347 0.379823 0.359903
0.042859 0.076458 0.056549
0.051627 0.083826 0.062154
0.061278 0.091559 0.068107
0.071821 0.099660 0.074413
0.083269 0.108131 0.081075
0.095630 0.116975 0.088095
0.108914 0.126192 0.095476
0.123130 0.135786 0.103222
0.138287 0.145759 0.111333
0.154392 0.156112 0.119814
0.171453 0.166847 0.128666
0.189479 0.177967 0.137892
0.208476 0.189473 0.147493
0.267924 0.201366 0.157473
0.279945 0.213650 0.167833
0.292004 0.268156 0.178575
0.304100 0.275789 0.189702
0.316232 0.283438 0.201214
0.328398 0.291102 0.213115
0.340598 0.298781 0.225406
0.352830 0.306475 0.238089
0.365094 0.314183 0.289665
0.377389 0.321905 0.297381
0.389713 0.329641 0.305111
0.402066 0.337390 0.312856
0.414447 0.345153 0.320615
0.426856 0.352928 0.328388
0.439292 0.360717 0.336175
0.451753 0.368517 0.343975
0.464241 0.376330 0.351788
0.476753 0.384155 0.359614
0.489289 0.391992 0.367453
0.501850 0.399840 0.375304
0.053811 0.095997 0.067882
0.063670 0.104303 0.074175
0.074425 0.112979 0.080824
0.086086 0.122029 0.087830
0.098663 0.131455 0.095198
0.112164 0.141258 0.102930
0.126600 0.151441 0.111028
0.141979 0.162005 0.119495
0.158308 0.172953 0.128334
0.175595 0.184286 0.137545
0.193848 0.196007 0.147133
0.213073 0.208116 0.157099
0.270740 0.220616 0.167445
0.282770 0.272378 0.178173
0.294838 0.280020 0.189285
0.306943 0.287678 0.200784
0.319083 0.295350 0.212671
0.331257 0.303037 0.224947
0.343465 0.310739 0.237615
0.355704 0.318455 0.289382
0.367975 0.326185 0.297097
0.380277 0.333928 0.304826
0.392608 0.341685 0.312571
0.404968 0.349454 0.320329
0.417356 0.357237 0.328102
0.429771 0.365032 0.335888
0.442213 0.372840 0.343688
0.454680 0.380659 0.351501
0.467173 0.388491 0.359326
0.479691 0.396334 0.367165
0.492233 0.404189 0.375015
0.504799 0.412055 0.382878
0.517388 0.419932 0.390753
0.066112 0.117941 0.080573
0.077079 0.127199 0.087566
0.088953 0.136833 0.094921
0.101746 0.146846 0.102639
0.115467 0.157240 0.110724
0.130123 0.168016 0.119177
0.145723 0.179177 0.128002
0.162276 0.190725 0.137200
0.179789 0.202660 0.146774
0.198270 0.214985 0.156726
0.217724 0.268971 0.167058
0.273559 0.276606 0.177772
0.285597 0.284256 0.188870
0.297674 0.291922 0.200354
0.309787 0.299602 0.212226
0.321935 0.307298 0.224488
0.334117 0.315007 0.237142
0.346333 0.322731 0.289098
0.358580 0.330468 0.296813
0.370858 0.338219 0.304542
0.383167 0.345983 0.312286
0.395505 0.353760 0.320044
0.407871 0.361549 0.327816
0.420265 0.369351 0.335602
0.432687 0.377166 0.343401
0.445135 0.384992 0.351213
0.457608 0.392830 0.359038
0.470107 0.400680 0.366876
0.482631 0.408541 0.374726
0.495179 0.416413 0.382589
0.507750 0.424296 0.390463
0.520345 0.432190 0.398349
0.532962 0.440095 0.406247
0.079782 0.142328 0.094644
0.091871 0.152551 0.102349
0.104881 0.163156 0.110420
0.118820 0.174145 0.118860
0.133697 0.185520 0.127671
0.149520 0.197282 0.136855
0.166298 0.209433 0.146415
0.184037 0.221975 0.156353
0.202745 0.273194 0.166671
0.264370 0.280838 0.177371
0.276379 0.288497 0.188455
0.288427 0.296171 0.199925
0.300512 0.303859 0.211783
0.312633 0.311563 0.224030
0.324790 0.319280 0.236670
0.336980 0.327011 0.288815
0.349203 0.334756 0.296528
0.361457 0.342514 0.304257
0.373743 0.350285 0.312001
0.386058 0.358069 0.319758
0.398403 0.365866 0.327530
0.410776 0.373674 0.335315
0.423177 0.381495 0.343114
0.435604 0.389328 0.350925
0.448058 0.397173 0.358750
0.460538 0.405029 0.366587
0.473043 0.412896 0.374437
0.485572 0.420774 0.382299
0.498126 0.428664 0.390173
0.510702 0.436564 0.398059
0.523302 0.444475 0.405957
0.535925 0.452396 0.413865
0.548569 0.460327 0.421785
0.094840 0.169190 0.110116
0.108067 0.180392 0.118543
0.122225 0.191981 0.127340
0.137323 0.203958 0.136510
0.153370 0.216325 0.146057
0.170372 0.269786 0.155980
0.188338 0.277422 0.166284
0.207275 0.285074 0.176970
0.267183 0.292742 0.188040
0.279202 0.300424 0.199496
0.291258 0.308121 0.211340
0.303352 0.315832 0.223573
0.315482 0.323557 0.236198
0.327646 0.331296 0.288531
0.339844 0.339048 0.296244
0.352074 0.346813 0.303973
0.364336 0.354591 0.311715
0.376629 0.362382 0.319472
0.388951 0.370186 0.327244
0.401303 0.378001 0.335028
0.413682 0.385829 0.342826
0.426089 0.393668 0.350638
0.438523 0.401519 0.358462
0.450983 0.409381 0.366299
0.463469 0.417255 0.374148
0.475980 0.425139 0.382010
0.488515 0.433034 0.389883
0.501074 0.440940 0.397769
0.513656 0.448857 0.405666
0.526261 0.456784 0.413574
0.538889 0.464721 0.421494
0.551538 0.472668 0.429424
0.564209 0.480625 0.437366
0.111304 0.198561 0.127010
0.125682 0.210754 0.136166
0.141002 0.223338 0.145699
0.157272 0.274010 0.155609
0.174500 0.281655 0.165899
0.192693 0.289316 0.176570
0.211858 0.296991 0.187626
0.269999 0.304682 0.199068
0.282026 0.312386 0.210897
0.294092 0.320105 0.223116
0.306194 0.327838 0.235726
0.318332 0.335584 0.288248
0.330504 0.343344 0.295960
0.342710 0.351116 0.303688
0.354948 0.358901 0.311430
0.367217 0.366699 0.319187
0.379517 0.374509 0.326957
0.391846 0.382332 0.334742
0.404204 0.390166 0.342539
0.416590 0.398011 0.350350
0.429004 0.405869 0.358174
0.441444 0.413737 0.366010
0.453910 0.421617 0.373859
0.466401 0.429507 0.381720
0.478918 0.437408 0.389594
0.491458 0.445320 0.397478
0.504023 0.453242 0.405375
0.516611 0.461175 0.413283
0.529221 0.469118 0.421202
0.541854 0.477070 0.429132
0.554508 0.485033 0.437073
0.567184 0.493005 0.445025
0.579881 0.500987 0.452988
0.129191 0.270601 0.145341
0.144733 0.278239 0.155237
0.161227 0.285893 0.165513
0.178680 0.293562 0.176171
0.197101 0.301245 0.187212
0.216495 0.308944 0.198640
0.272817 0.316656 0.210455
0.284853 0.324383 0.222659
0.296927 0.332123 0.235255
0.309038 0.339877 0.287964
0.321184 0.347643 0.295676
0.333364 0.355423 0.303403
0.345578 0.363215 0.311145
0.357823 0.371020 0.318901
0.370099 0.378837 0.326671
0.382406 0.386666 0.334455
0.394742 0.394506 0.342252
0.407107 0.402358 0.350063
0.419499 0.410222 0.357886
0.431919 0.418096 0.365722
0.444366 0.425982 0.373570
0.456838 0.433878 0.381431
0.469335 0.441786 0.389304
0.481857 0.449703 0.397188
0.494404 0.457631 0.405084
0.506974 0.465569 0.412992
0.519567 0.473518 0.420911
0.532182 0.481476 0.428840
0.544820 0.489444 0.436781
0.557480 0.497421 0.444733
0.570161 0.505408 0.452695
0.582863 0.513404 0.460667
0.595585 0.521410 0.468649
0.148516 0.290135 0.165128
0.165234 0.297812 0.175772
0.182914 0.305504 0.186799
0.201562 0.313210 0.198213
0.221186 0.320931 0.210013
0.275637 0.328665 0.222204
0.287682 0.336412 0.234785
0.299765 0.344173 0.287681
0.311884 0.351947 0.295392
0.324038 0.359734 0.303119
0.336226 0.367533 0.310860
0.348447 0.375344 0.318616
0.360700 0.383168 0.326385
0.372983 0.391003 0.334168
0.385297 0.398850 0.341965
0.397640 0.406709 0.349775
0.410011 0.414578 0.357598
0.422410 0.422459 0.365433
0.434836 0.430351 0.373281
0.447289 0.438253 0.381142
0.459767 0.446166 0.389014
0.472270 0.454089 0.396898
0.484798 0.462023 0.404794
0.497350 0.469967 0.412701
0.509925 0.477920 0.420619
0.522524 0.485884 0.428549
0.535145 0.493857 0.436489
0.547788 0.501840 0.444440
0.560452 0.509832 0.452401
0.573138 0.517834 0.460373
0.585845 0.525844 0.468356
0.598572 0.533864 0.476348
0.611320 0.541892 0.484350
0.169295 0.309767 0.186387
0.187201 0.317481 0.197786
0.206077 0.325209 0.209572
0.266443 0.332951 0.221748
0.278459 0.340706 0.234315
0.290513 0.348474 0.287397
0.302605 0.356255 0.295108
0.314732 0.364048 0.302834
0.326894 0.371854 0.310575
0.339090 0.379672 0.318330
0.351318 0.387503 0.326099
0.363578 0.395344 0.333882
0.375869 0.403198 0.341678
0.388190 0.411062 0.349487
0.400539 0.418938 0.357310
0.412917 0.426825 0.365145
0.425323 0.434723 0.372992
0.437755 0.442631 0.380852
0.450213 0.450550 0.388724
0.462698 0.458479 0.396608
0.475207 0.466418 0.404503
0.487740 0.474367 0.412410
0.500298 0.482326 0.420328
0.512878 0.490295 0.428257
0.525482 0.498274 0.436197
0.538108 0.506262 0.444147
0.550757 0.514259 0.452108
0.563426 0.522266 0.460080
0.576117 0.530281 0.468062
0.588829 0.538306 0.476054
0.601561 0.546339 0.484056
0.614313 0.554382 0.492067
0.627084 0.562433 0.500089
0.191541 0.329492 0.209132
0.210646 0.337241 0.221293
0.269258 0.345003 0.233846
0.281283 0.352778 0.287114
0.293346 0.360566 0.294824
0.305446 0.368367 0.302550
0.317582 0.376180 0.310290
0.329752 0.384004 0.318045
0.341955 0.391841 0.325813
0.354191 0.399689 0.333595
0.366459 0.407549 0.341391
0.378756 0.415420 0.349200
0.391084 0.423302 0.357022
0.403440 0.431194 0.364856
0.415825 0.439098 0.372703
0.428236 0.447012 0.380563
0.440675 0.454936 0.388434
0.453140 0.462871 0.396317
0.465630 0.470816 0.404212
0.478144 0.478771 0.412119
0.490684 0.486735 0.420036
0.503247 0.494710 0.427965
0.515833 0.502693 0.435904
0.528442 0.510686 0.443854
0.541073 0.518689 0.451815
0.553727 0.526700 0.459786
0.566401 0.534721 0.467768
0.579097 0.542751 0.475759
0.591813 0.550789 0.483761
0.604550 0.558836 0.491772
0.617307 0.566892 0.499793
0.630083 0.574956 0.507824
0.642878 0.583028 0.515864
0.215269 0.349305 0.233377
0.272075 0.357087 0.286831
0.284109 0.364882 0.294541
0.296181 0.372689 0.302265
0.308290 0.380508 0.310005
0.320433 0.388340 0.317759
0.332612 0.396183 0.325527
0.344823 0.404037 0.333309
0.357066 0.411903 0.341104
0.369341 0.419780 0.348912
0.381645 0.427668 0.356734
0.393980 0.435567 0.364568
0.406343 0.443476 0.372415
0.418734 0.451396 0.380273
0.431152 0.459326 0.388144
0.443596 0.467267 0.396027
0.456067 0.475217 0.403922
0.468563 0.483177 0.411827
0.481084 0.491147 0.419745
0.493628 0.499127 0.427673
0.506197 0.507116 0.435612
0.518788 0.515114 0.443562
0.531403 0.523121 0.451522
0.544039 0.531138 0.459493
0.556698 0.539164 0.467474
0.569377 0.547198 0.475465
0.582078 0.555241 0.483466
0.594799 0.563293 0.491477
0.607541 0.571354 0.499498
0.620302 0.579422 0.507528
0.633083 0.587499 0.515568
0.645882 0.595585 0.523617
0.658701 0.603678 0.531675
0.274894 0.369201 0.294257
0.286937 0.377015 0.301981
0.299018 0.384841 0.309720
0.311135 0.392679 0.317474
0.323287 0.400528 0.325241
0.335473 0.408389 0.333022
0.347692 0.416261 0.340817
0.359943 0.424144 0.348625
0.372224 0.432038 0.356446
0.384536 0.439943 0.364280
0.396877 0.447858 0.372126
0.409247 0.455784 0.379984
0.421644 0.463719 0.387855
0.434068 0.471665 0.395737
0.446519 0.479621 0.403631
0.458996 0.487587 0.411536
0.471498 0.495562 0.419453
0.484024 0.503547 0.427381
0.496574 0.511541 0.435320
0.509148 0.519544 0.443269
0.521745 0.527557 0.451229
0.534365 0.535578 0.459200
0.547007 0.543609 0.467180
0.559670 0.551648 0.475171
0.572355 0.559696 0.483172
0.585060 0.567753 0.491183
0.597786 0.575818 0.499203
0.610532 0.583891 0.507233
0.623298 0.591973 0.515272
0.636083 0.600063 0.523321
0.648888 0.608161 0.531378
0.661711 0.616267 0.539445
0.674552 0.624381 0.547521
0.289768 0.389177 0.309435
0.301857 0.397021 0.317188
0.313982 0.404877 0.324955
0.326142 0.412744 0.332736
0.338336 0.420622 0.340530
0.350563 0.428511 0.348337
0.362821 0.436411 0.356158
0.375110 0.444322 0.363991
0.387428 0.452243 0.371837
0.399776 0.460174 0.379695
0.412152 0.468116 0.387565
0.424556 0.476067 0.395447
0.436987 0.484028 0.403340
0.449444 0.491999 0.411245
0.461926 0.499980 0.419162
0.474434 0.507970 0.427089
0.486966 0.515969 0.435027
0.499522 0.523977 0.442976
0.512101 0.531995 0.450936
0.524703 0.540022 0.458906
0.537328 0.548057 0.466887
0.549975 0.556101 0.474877
0.562644 0.564154 0.482877
0.575333 0.572215 0.490888
0.588043 0.580285 0.498908
0.600774 0.588363 0.506937
0.613525 0.596449 0.514976
0.626295 0.604543 0.523024
0.639085 0.612646 0.531082
0.651894 0.620756 0.539148
0.664721 0.628874 0.547224
0.677567 0.637000 0.555308
0.690431 0.645134 0.563401
0.304698 0.409229 0.324669
0.316832 0.417103 0.332449
0.329000 0.424987 0.340243
0.341201 0.432882 0.348050
0.353435 0.440788 0.355870
0.365700 0.448704 0.363703
0.377996 0.456631 0.371548
0.390322 0.464568 0.379406
0.402677 0.472515 0.387275
0.415059 0.480472 0.395157
0.427469 0.488438 0.403050
0.439906 0.496414 0.410954
0.452369 0.504400 0.418870
0.464858 0.512395 0.426797
0.477371 0.520400 0.434735
0.489909 0.528413 0.442684
0.502470 0.536436 0.450643
0.515055 0.544467 0.458613
0.527663 0.552508 0.466593
0.540293 0.560557 0.474583
0.552945 0.568614 0.482583
0.565618 0.576680 0.490593
0.578313 0.584754 0.498612
0.591028 0.592837 0.506642
0.603763 0.600928 0.514680
0.616519 0.609026 0.522728
0.629294 0.617133 0.530785
0.642088 0.625248 0.538851
0.654901 0.633370 0.546926
0.667733 0.641501 0.555010
0.680583 0.649639 0.563103
0.693451 0.657784 0.571204
0.706336 0.665937 0.579314
0.319683 0.429355 0.339956
0.331859 0.437256 0.347763
0.344068 0.445168 0.355582
0.356309 0.453090 0.363414
0.368582 0.461022 0.371259
0.380885 0.468964 0.379116
0.393217 0.476917 0.386985
0.405579 0.484879 0.394866
0.417968 0.492851 0.402759
0.430384 0.500833 0.410663
0.442827 0.508824 0.418579
0.455296 0.516824 0.426505
0.467791 0.524834 0.434443
0.480310 0.532852 0.442391
0.492853 0.540880 0.450350
0.505420 0.548916 0.458319
0.518010 0.556961 0.466299
0.530623 0.565015 0.474289
0.543259 0.573077 0.482288
0.555916 0.581147 0.490298
0.568594 0.589226 0.498317
0.581293 0.597313 0.506346
0.594013 0.605409 0.514384
0.606753 0.613512 0.522432
0.619513 0.621623 0.530489
0.632293 0.629742 0.538554
0.645092 0.637869 0.546629
0.657909 0.646003 0.554713
0.670745 0.654145 0.562805
0.683599 0.662295 0.570906
0.696472 0.670452 0.579016
0.709361 0.678616 0.587134
0.722269 0.686788 0.595260
0.334720 0.449550 0.355294
0.346937 0.457478 0.363126
0.359185 0.465416 0.370970
0.371465 0.473364 0.378827
0.383775 0.481322 0.386696
0.396114 0.489290 0.394576
0.408482 0.497267 0.402469
0.420878 0.505254 0.410372
0.433301 0.513250 0.418287
0.445750 0.521255 0.426214
0.458225 0.529270 0.434151
0.470725 0.537293 0.442099
0.483250 0.545326 0.450057
0.495799 0.553367 0.458026
0.508371 0.561417 0.466005
0.520967 0.569475 0.473995
0.533585 0.577542 0.481994
0.546226 0.585617 0.490003
0.558888 0.593701 0.498022
0.571571 0.601792 0.506050
0.584275 0.609892 0.514088
0.597000 0.618000 0.522136
0.609745 0.626115 0.530192
0.622509 0.634239 0.538257
0.635293 0.642370 0.546332
0.648097 0.650508 0.554415
0.660918 0.658655 0.562507
0.673759 0.666808 0.570608
0.686617 0.674969 0.578717
0.699494 0.683138 0.586835
0.712387 0.691314 0.594961
0.725299 0.699496 0.603095
0.738227 0.707686 0.611237
0.349807 0.469814 0.370681
0.362063 0.477767 0.378538
0.374350 0.485730 0.386406
0.386667 0.493703 0.394286
0.399013 0.501686 0.402178
0.411387 0.509678 0.410081
0.423789 0.517679 0.417996
0.436218 0.525690 0.425922
0.448674 0.533709 0.433859
0.461155 0.541738 0.441806
0.473661 0.549775 0.449764
0.486191 0.557821 0.457733
0.498746 0.565875 0.465712
0.511324 0.573939 0.473700
0.523925 0.582010 0.481699
0.536548 0.590090 0.489708
0.549194 0.598178 0.497727
0.561861 0.606274 0.505755
0.574549 0.614378 0.513792
0.587258 0.622490 0.521839
0.599988 0.630610 0.529895
0.612737 0.638738 0.537961
0.625506 0.646873 0.546035
0.638295 0.655016 0.554118
0.651102 0.663166 0.562209
0.663929 0.671324 0.570310
0.676773 0.679489 0.578419
0.689636 0.687661 0.586536
0.702516 0.695841 0.594662
0.715414 0.704028 0.602796
0.728330 0.712222 0.610938
0.741262 0.720423 0.619088
0.754211 0.728630 0.627246
0.364942 0.490142 0.386116
0.377236 0.498120 0.393996
0.389560 0.506108 0.401888
0.401913 0.514105 0.409790
0.414294 0.522111 0.417705
0.426703 0.530127 0.425630
0.439138 0.538151 0.433566
0.451599 0.546184 0.441513
0.464086 0.554227 0.449471
0.476598 0.562277 0.457439
0.489134 0.570337 0.465418
0.501694 0.578404 0.473406
0.514278 0.586480 0.481405
0.526884 0.594565 0.489413
0.539513 0.602657 0.497432
0.552163 0.610758 0.505459
0.564835 0.618866 0.513497
0.577528 0.626983 0.521543
0.590242 0.635107 0.529599
0.602976 0.643239 0.537664
0.615731 0.651378 0.545737
0.628504 0.659525 0.553820
0.641297 0.667680 0.561912
0.654109 0.675842 0.570012
0.666940 0.684011 0.578120
