luts/teal_orange.cube
# Ascension Engine — Teal Orange LUT
LUT_3D_SIZE 9
0.0 0.03 0.0645
0.133505 0.020386 0.051018
0.271509 0.010773 0.037536
0.409514 0.001159 0.024054
0.547518 0.0 0.010572
0.685523 0.0 0.0
0.823527 0.0 0.0
0.961532 0.0 0.0
1.0 0.0 0.0
0.0 0.160896 0.044052
0.128245 0.151283 0.03057
0.26625 0.141669 0.017088
0.404254 0.132055 0.003606
0.542259 0.122441 0.0
0.680263 0.112828 0.0
0.818268 0.103214 0.0
0.95625 0.09375 0.0
1.0 0.0875 0.0
0.0 0.291793 0.023604
0.122986 0.282179 0.010122
0.26099 0.272565 0.0
0.398995 0.262951 0.0
0.536999 0.253337 0.0
0.675 0.24375 0.0
0.8125 0.2375 0.0
0.95 0.23125 0.0
1.0 0.225 0.0
0.0 0.422689 0.003156
0.117726 0.413075 0.0
0.255731 0.403461 0.0
0.393735 0.393847 0.0
0.53125 0.3875 0.0
0.66875 0.38125 0.0
0.80625 0.375 0.0
0.94375 0.36875 0.0
1.0 0.3625 0.0
0.0 0.553585 0.0
0.112467 0.543971 0.0
0.25 0.5375 0.0
0.3875 0.53125 0.0
0.525 0.525 0.0
0.6625 0.51875 0.0
0.8 0.5125 0.0
0.9375 0.50625 0.0
1.0 0.5 0.0
0.0 0.6875 0.0
0.10625 0.68125 0.0
0.24375 0.675 0.0
0.38125 0.66875 0.0
0.51875 0.6625 0.0
0.65625 0.65625 0.0
0.79375 0.65 0.0
0.937413 0.645816 0.0
1.0 0.642276 0.0
0.0 0.825 0.0
0.1 0.81875 0.0
0.2375 0.8125 0.0
0.375 0.80625 0.0
0.5125 0.8 0.0
0.655866 0.795717 0.0
0.801448 0.792176 0.0
0.94703 0.788636 0.0
1.0 0.785096 0.0
0.0 0.9625 0.0
0.09375 0.95625 0.0
0.23125 0.95 0.0
0.374318 0.945617 0.0
0.519901 0.942077 0.0
0.665483 0.938536 0.0
0.811065 0.934996 0.0
0.956648 0.931456 0.0
1.0 0.927915 0.0
0.0 1.0 0.0
0.092771 1.0 0.0
0.238353 1.0 0.0
0.383936 1.0 0.0
0.529518 1.0 0.0
0.6751 1.0 0.0
0.820683 1.0 0.0
0.966265 1.0 0.0
1.0 1.0 0.0
0.0 0.022468 0.199243
0.127447 0.012854 0.185761
0.265452 0.00324 0.172279
0.403456 0.0 0.158796
0.541461 0.0 0.145314
0.679465 0.0 0.131832
0.81747 0.0 0.11835
0.955474 0.0 0.104868
1.0 0.0 0.091386
0.0 0.153364 0.178795
0.122188 0.14375 0.165313
0.260192 0.134136 0.15183
0.398197 0.124522 0.138348
0.536201 0.114909 0.124866
0.674206 0.105295 0.111384
0.81221 0.095681 0.097902
0.95 0.0875 0.0875
1.0 0.08125 0.08125
0.0 0.28426 0.158347
0.116928 0.274646 0.144864
0.254933 0.265033 0.131382
0.392937 0.255419 0.1179
0.530942 0.245805 0.104418
0.66875 0.2375 0.09375
0.80625 0.23125 0.0875
0.94375 0.225 0.08125
1.0 0.21875 0.075
0.0 0.415156 0.137898
0.111669 0.405543 0.124416
0.249673 0.395929 0.110934
0.3875 0.3875 0.1
0.525 0.38125 0.09375
0.6625 0.375 0.0875
0.8 0.36875 0.08125
0.9375 0.3625 0.075
1.0 0.35625 0.06875
0.0 0.546052 0.11745
0.10625 0.5375 0.10625
0.24375 0.53125 0.1
0.38125 0.525 0.09375
0.51875 0.51875 0.0875
0.65625 0.5125 0.08125
0.79375 0.50625 0.075
0.93125 0.5 0.06875
1.0 0.494239 0.062407
0.0 0.68125 0.10625
0.1 0.675 0.1
0.2375 0.66875 0.09375
0.375 0.6625 0.0875
0.5125 0.65625 0.08125
0.65 0.65 0.075
0.788662 0.64414 0.068676
0.934245 0.640599 0.061912
1.0 0.637059 0.055148
0.0 0.81875 0.1
0.09375 0.8125 0.09375
0.23125 0.80625 0.0875
0.36875 0.8 0.08125
0.507115 0.79404 0.074945
0.652697 0.7905 0.068181
0.79828 0.786959 0.061417
0.943862 0.783419 0.054653
1.0 0.779879 0.047889
0.0 0.95625 0.09375
0.0875 0.95 0.0875
0.225568 0.94394 0.081214
0.37115 0.9404 0.07445
0.516732 0.93686 0.067686
0.662315 0.933319 0.060922
0.807897 0.929779 0.054158
0.953479 0.926239 0.047394
1.0 0.922698 0.04063
0.0 1.0 0.087483
0.089603 1.0 0.080719
0.235185 1.0 0.073955
0.380767 1.0 0.067191
0.52635 1.0 0.060427
0.671932 1.0 0.053663
0.817514 1.0 0.046899
0.963097 1.0 0.040135
1.0 1.0 0.033372
0.0 0.014935 0.333985
0.121389 0.005321 0.320503
0.259394 0.0 0.307021
0.397398 0.0 0.293539
0.535403 0.0 0.280057
0.673408 0.0 0.266575
0.811412 0.0 0.253093
0.949417 0.0 0.239611
1.0 0.0 0.226129
0.0 0.145831 0.313537
0.11613 0.136217 0.300055
0.254134 0.126604 0.286573
0.392139 0.11699 0.273091
0.530144 0.107376 0.259609
0.668148 0.097763 0.246127
0.806153 0.088149 0.232645
0.94375 0.08125 0.225
1.0 0.075 0.21875
0.0 0.276728 0.293089
0.11087 0.267114 0.279607
0.248875 0.2575 0.266125
0.38688 0.247886 0.252643
0.524884 0.238272 0.239161
0.6625 0.23125 0.23125
0.8 0.225 0.225
0.9375 0.21875 0.21875
1.0 0.2125 0.2125
0.0 0.407624 0.272641
0.105611 0.39801 0.259159
0.243616 0.388396 0.245677
0.38125 0.38125 0.2375
0.51875 0.375 0.23125
0.65625 0.36875 0.225
0.79375 0.3625 0.21875
0.93125 0.35625 0.2125
1.0 0.35 0.20625
0.0 0.53852 0.252193
0.1 0.53125 0.24375
0.2375 0.525 0.2375
0.375 0.51875 0.23125
0.5125 0.5125 0.225
0.65 0.50625 0.21875
0.7875 0.5 0.2125
0.925 0.49375 0.20625
1.0 0.489023 0.199711
0.0 0.675 0.24375
0.09375 0.66875 0.2375
0.23125 0.6625 0.23125
0.36875 0.65625 0.225
0.50625 0.65 0.21875
0.64375 0.64375 0.2125
0.785494 0.638923 0.20598
0.931076 0.635383 0.199216
1.0 0.631842 0.192452
0.0 0.8125 0.2375
0.0875 0.80625 0.23125
0.225 0.8 0.225
0.3625 0.79375 0.21875
0.503947 0.788823 0.212249
0.649529 0.785283 0.205485
0.795111 0.781743 0.198721
0.940694 0.778202 0.191957
1.0 0.774662 0.185193
0.0 0.95 0.23125
0.08125 0.94375 0.225
0.222399 0.938723 0.218518
0.367982 0.935183 0.211754
0.513564 0.931643 0.20499
0.659146 0.928102 0.198226
0.804729 0.924562 0.191462
0.950311 0.921022 0.184698
1.0 0.917482 0.177935
0.0 1.0 0.224787
0.086434 1.0 0.218023
0.232017 1.0 0.211259
0.377599 1.0 0.204495
0.523181 1.0 0.197731
0.668764 1.0 0.190967
0.814346 1.0 0.184203
0.959928 1.0 0.17744
1.0 1.0 0.170676
0.0 0.007403 0.468728
0.115332 0.0 0.455246
0.253336 0.0 0.441764
0.391341 0.0 0.428282
0.529345 0.0 0.4148
0.66735 0.0 0.401318
0.805354 0.0 0.387835
0.943359 0.0 0.374353
1.0 0.0 0.3625
0.0 0.138299 0.44828
0.110072 0.128685 0.434798
0.248077 0.119071 0.421316
0.386081 0.109458 0.407834
0.524086 0.099844 0.394352
0.66209 0.09023 0.38087
0.8 0.08125 0.36875
0.9375 0.075 0.3625
1.0 0.06875 0.35625
0.0 0.269195 0.427832
0.104813 0.259581 0.41435
0.242817 0.249967 0.400868
0.380822 0.240354 0.387386
0.51875 0.23125 0.375
0.65625 0.225 0.36875
0.79375 0.21875 0.3625
0.93125 0.2125 0.35625
1.0 0.20625 0.35
0.0 0.400091 0.407384
0.099553 0.390478 0.393902
0.2375 0.38125 0.38125
0.375 0.375 0.375
0.5125 0.36875 0.36875
0.65 0.3625 0.3625
0.7875 0.35625 0.35625
0.925 0.35 0.35
1.0 0.34375 0.34375
0.0 0.53125 0.3875
0.09375 0.525 0.38125
0.23125 0.51875 0.375
0.36875 0.5125 0.36875
0.50625 0.50625 0.3625
0.64375 0.5 0.35625
0.78125 0.49375 0.35
0.91875 0.4875 0.34375
1.0 0.483806 0.337015
0.0 0.66875 0.38125
0.0875 0.6625 0.375
0.225 0.65625 0.36875
0.3625 0.65 0.3625
0.5 0.64375 0.35625
0.6375 0.6375 0.35
0.782325 0.633706 0.343284
0.927908 0.630166 0.33652
1.0 0.626625 0.329756
0.0 0.80625 0.375
0.08125 0.8 0.36875
0.21875 0.79375 0.3625
0.35625 0.7875 0.35625
0.500778 0.783606 0.349553
0.64636 0.780066 0.342789
0.791943 0.776526 0.336025
0.937525 0.772985 0.329261
1.0 0.769445 0.322498
0.0 0.94375 0.36875
0.075 0.9375 0.3625
0.219231 0.933507 0.355822
0.364813 0.929966 0.349058
0.510395 0.926426 0.342294
0.655978 0.922886 0.33553
0.80156 0.919345 0.328766
0.947142 0.915805 0.322003
1.0 0.912265 0.315239
0.0 1.0 0.362091
0.083266 1.0 0.355327
0.228848 1.0 0.348563
0.37443 1.0 0.341799
0.520013 1.0 0.335035
0.665595 1.0 0.328271
0.811177 1.0 0.321508
0.95676 1.0 0.314744
1.0 1.0 0.30798
0.0 0.0 0.60347
0.109274 0.0 0.589988
0.247279 0.0 0.576506
0.385283 0.0 0.563024
0.523288 0.0 0.549542
0.661292 0.0 0.53606
0.799297 0.0 0.522578
0.937301 0.0 0.509096
1.0 0.0 0.5
0.0 0.130766 0.583022
0.104015 0.121153 0.56954
0.242019 0.111539 0.556058
0.380024 0.101925 0.542576
0.518028 0.092311 0.529094
0.656033 0.082698 0.515612
0.79375 0.075 0.50625
0.93125 0.06875 0.5
1.0 0.0625 0.49375
0.0 0.261663 0.562574
0.098755 0.252049 0.549092
0.23676 0.242435 0.53561
0.374764 0.232821 0.522128
0.5125 0.225 0.5125
0.65 0.21875 0.50625
0.7875 0.2125 0.5
0.925 0.20625 0.49375
1.0 0.2 0.4875
0.0 0.392559 0.542126
0.093496 0.382945 0.528644
0.23125 0.375 0.51875
0.36875 0.36875 0.5125
0.50625 0.3625 0.50625
0.64375 0.35625 0.5
0.78125 0.35 0.49375
0.91875 0.34375 0.4875
1.0 0.3375 0.48125
0.0 0.525 0.525
0.0875 0.51875 0.51875
0.225 0.5125 0.5125
0.3625 0.50625 0.50625
0.5 0.5 0.5
0.6375 0.49375 0.49375
0.775 0.4875 0.4875
0.915122 0.482129 0.481083
1.0 0.478589 0.474319
0.0 0.6625 0.51875
0.08125 0.65625 0.5125
0.21875 0.65 0.50625
0.35625 0.64375 0.5
0.49375 0.6375 0.49375
0.633575 0.632029 0.487352
0.779157 0.628489 0.480588
0.924739 0.624949 0.473824
1.0 0.621408 0.46706
0.0 0.8 0.5125
0.075 0.79375 0.50625
0.2125 0.7875 0.5
0.352027 0.78193 0.493621
0.49761 0.778389 0.486857
0.643192 0.774849 0.480093
0.788774 0.771309 0.473329
0.934357 0.767768 0.466565
1.0 0.764228 0.459802
0.0 0.9375 0.50625
0.07048 0.93183 0.49989
0.216062 0.92829 0.493126
0.361645 0.924749 0.486362
0.507227 0.921209 0.479598
0.652809 0.917669 0.472834
0.798392 0.914128 0.46607
0.943974 0.910588 0.459307
1.0 0.907048 0.452543
0.0 1.0 0.499395
0.080097 1.0 0.492631
0.22568 1.0 0.485867
0.371262 1.0 0.479103
0.516844 1.0 0.472339
0.662427 1.0 0.465575
0.808009 1.0 0.458812
0.953591 1.0 0.452048
1.0 1.0 0.445284
0.0 0.0 0.738213
0.103216 0.0 0.724731
0.241221 0.0 0.711249
0.379226 0.0 0.697767
0.51723 0.0 0.684285
0.655235 0.0 0.670803
0.793239 0.0 0.657321
0.931244 0.0 0.643839
1.0 0.0 0.6375
0.0 0.123234 0.717765
0.097957 0.11362 0.704283
0.235962 0.104006 0.690801
0.373966 0.094393 0.677319
0.511971 0.084779 0.663837
0.649975 0.075165 0.650355
0.7875 0.06875 0.64375
0.925 0.0625 0.6375
1.0 0.05625 0.63125
0.0 0.25413 0.697317
0.092698 0.244516 0.683835
0.230702 0.234903 0.670353
0.368707 0.225289 0.656871
0.50625 0.21875 0.65
0.64375 0.2125 0.64375
0.78125 0.20625 0.6375
0.91875 0.2 0.63125
1.0 0.19375 0.625
0.0 0.385026 0.676869
0.087438 0.375412 0.663387
0.225 0.36875 0.65625
0.3625 0.3625 0.65
0.5 0.35625 0.64375
0.6375 0.35 0.6375
0.775 0.34375 0.63125
0.9125 0.3375 0.625
1.0 0.33125 0.61875
0.0 0.51875 0.6625
0.08125 0.5125 0.65625
0.21875 0.50625 0.65
0.35625 0.5 0.64375
0.49375 0.49375 0.6375
0.63125 0.4875 0.63125
0.76875 0.48125 0.625
0.911954 0.476912 0.618387
1.0 0.473372 0.611623
0.0 0.65625 0.65625
0.075 0.65 0.65
0.2125 0.64375 0.64375
0.35 0.6375 0.6375
0.4875 0.63125 0.63125
0.630406 0.626812 0.624656
0.775989 0.623272 0.617892
0.921571 0.619732 0.611128
1.0 0.616192 0.604365
0.0 0.79375 0.65
0.06875 0.7875 0.64375
0.20625 0.78125 0.6375
0.348859 0.776713 0.630925
0.494441 0.773173 0.624161
0.640024 0.769632 0.617397
0.785606 0.766092 0.610633
0.931188 0.762552 0.60387
1.0 0.759011 0.597106
0.0 0.93125 0.64375
0.067312 0.926613 0.637194
0.212894 0.923073 0.63043
0.358476 0.919533 0.623666
0.504059 0.915992 0.616902
0.649641 0.912452 0.610138
0.795223 0.908912 0.603375
0.940806 0.905371 0.596611
1.0 0.901831 0.589847
0.0 1.0 0.636699
0.076929 1.0 0.629935
0.222511 1.0 0.623171
0.368094 1.0 0.616407
0.513676 1.0 0.609643
0.659258 1.0 0.60288
0.804841 1.0 0.596116
0.950423 1.0 0.589352
1.0 1.0 0.582588
0.0 0.0 0.872956
0.097159 0.0 0.859474
0.235163 0.0 0.845992
0.373168 0.0 0.83251
0.511173 0.0 0.819028
0.649177 0.0 0.805545
0.787182 0.0 0.792063
0.925 0.0 0.78125
1.0 0.0 0.775
0.0 0.115701 0.852508
0.091899 0.106088 0.839026
0.229904 0.096474 0.825544
0.367908 0.08686 0.812061
0.505913 0.077246 0.798579
0.64375 0.06875 0.7875
0.78125 0.0625 0.78125
0.91875 0.05625 0.775
1.0 0.05 0.76875
0.0 0.246597 0.83206
0.08664 0.236984 0.818578
0.224645 0.22737 0.805095
0.3625 0.21875 0.79375
0.5 0.2125 0.7875
0.6375 0.20625 0.78125
0.775 0.2 0.775
0.9125 0.19375 0.76875
1.0 0.1875 0.7625
0.0 0.377494 0.811612
0.08125 0.36875 0.8
0.21875 0.3625 0.79375
0.35625 0.35625 0.7875
0.49375 0.35 0.78125
0.63125 0.34375 0.775
0.76875 0.3375 0.76875
0.90625 0.33125 0.7625
1.0 0.325335 0.756186
0.0 0.5125 0.8
0.075 0.50625 0.79375
0.2125 0.5 0.7875
0.35 0.49375 0.78125
0.4875 0.4875 0.775
0.625 0.48125 0.76875
0.763203 0.475236 0.762455
0.908785 0.471695 0.755691
1.0 0.468155 0.748927
0.0 0.65 0.79375
0.06875 0.64375 0.7875
0.20625 0.6375 0.78125
0.34375 0.63125 0.775
0.481655 0.625136 0.768724
0.627238 0.621596 0.76196
0.77282 0.618055 0.755196
0.918403 0.614515 0.748433
1.0 0.610975 0.741669
0.0 0.7875 0.7875
0.0625 0.78125 0.78125
0.200108 0.775036 0.774993
0.34569 0.771496 0.768229
0.491273 0.767956 0.761465
0.636855 0.764415 0.754701
0.782438 0.760875 0.747938
0.92802 0.757335 0.741174
1.0 0.753794 0.73441
0.0 0.925 0.78125
0.064143 0.921396 0.774498
0.209725 0.917856 0.767734
0.355308 0.914316 0.76097
0.50089 0.910775 0.754206
0.646473 0.907235 0.747443
0.792055 0.903695 0.740679
0.937637 0.900154 0.733915
1.0 0.896614 0.727151
0.0 1.0 0.774003
0.07376 1.0 0.767239
0.219343 1.0 0.760475
0.364925 1.0 0.753711
0.510508 1.0 0.746947
0.65609 1.0 0.740184
0.801672 1.0 0.73342
0.947255 1.0 0.726656
1.0 1.0 0.719892
0.0 0.0 1.0
0.091101 0.0 0.994216
0.229106 0.0 0.980734
0.36711 0.0 0.967252
0.505115 0.0 0.95377
0.643119 0.0 0.940288
0.781124 0.0 0.926806
0.91875 0.0 0.91875
1.0 0.0 0.9125
0.0 0.108169 0.98725
0.085842 0.098555 0.973768
0.223846 0.088941 0.960286
0.361851 0.079327 0.946804
0.499855 0.069714 0.933322
0.6375 0.0625 0.925
0.775 0.05625 0.91875
0.9125 0.05 0.9125
1.0 0.04375 0.90625
0.0 0.239065 0.966802
0.080582 0.229451 0.95332
0.218587 0.219838 0.939838
0.35625 0.2125 0.93125
0.49375 0.20625 0.925
0.63125 0.2 0.91875
0.76875 0.19375 0.9125
0.90625 0.1875 0.90625
1.0 0.18125 0.9
0.0 0.369961 0.946354
0.075 0.3625 0.9375
0.2125 0.35625 0.93125
0.35 0.35 0.925
0.4875 0.34375 0.91875
0.625 0.3375 0.9125
0.7625 0.33125 0.90625
0.9 0.325 0.9
1.0 0.320118 0.89349
0.0 0.50625 0.9375
0.06875 0.5 0.93125
0.20625 0.49375 0.925
0.34375 0.4875 0.91875
0.48125 0.48125 0.9125
0.61875 0.475 0.90625
0.760034 0.470019 0.899759
0.905617 0.466478 0.892995
1.0 0.462938 0.886232
0.0 0.64375 0.93125
0.0625 0.6375 0.925
0.2 0.63125 0.91875
0.3375 0.625 0.9125
0.478487 0.619919 0.906028
0.624069 0.616379 0.899264
0.769652 0.612838 0.8925
0.915234 0.609298 0.885737
1.0 0.605758 0.878973
0.0 0.78125 0.925
0.05625 0.775 0.91875
0.19694 0.769819 0.912297
0.342522 0.766279 0.905533
0.488104 0.762739 0.898769
0.633687 0.759198 0.892005
0.779269 0.755658 0.885242
0.924851 0.752118 0.878478
1.0 0.748578 0.871714
0.0 0.91972 0.918566
0.060975 0.916179 0.911802
0.206557 0.912639 0.905038
0.352139 0.909099 0.898274
0.497722 0.905558 0.89151
0.643304 0.902018 0.884747
0.788886 0.898478 0.877983
0.934469 0.894937 0.871219
1.0 0.891397 0.864455
0.0 1.0 0.911307
0.070592 1.0 0.904543
0.216174 1.0 0.897779
0.361757 1.0 0.891015
0.507339 1.0 0.884252
0.652921 1.0 0.877488
0.798504 1.0 0.870724
0.944086 1.0 0.86396
1.0 1.0 0.857196
0.0 0.0 1.0
0.085044 0.0 1.0
0.223048 0.0 1.0
0.361053 0.0 1.0
0.499057 0.0 1.0
0.637062 0.0 1.0
0.775 0.0 1.0
0.9125 0.0 1.0
1.0 0.0 1.0
0.0 0.100636 1.0
0.079784 0.091023 1.0
0.217789 0.081409 1.0
0.355793 0.071795 1.0
0.49375 0.0625 1.0
0.63125 0.05625 1.0
0.76875 0.05 1.0
0.90625 0.04375 1.0
1.0 0.0375 1.0
0.0 0.231533 1.0
0.074525 0.221919 1.0
0.2125 0.2125 1.0
0.35 0.20625 1.0
0.4875 0.2 1.0
0.625 0.19375 1.0
0.7625 0.1875 1.0
0.9 0.18125 1.0
1.0 0.175 1.0
0.0 0.3625 1.0
0.06875 0.35625 1.0
0.20625 0.35 1.0
0.34375 0.34375 1.0
0.48125 0.3375 1.0
0.61875 0.33125 1.0
0.75625 0.325 1.0
0.89375 0.31875 1.0
1.0 0.314902 1.0
0.0 0.5 1.0
0.0625 0.49375 1.0
0.2 0.4875 1.0
0.3375 0.48125 1.0
0.475 0.475 1.0
0.6125 0.46875 1.0
0.756866 0.464802 1.0
0.902448 0.461262 1.0
1.0 0.457721 1.0
0.0 0.6375 1.0
0.05625 0.63125 1.0
0.19375 0.625 1.0
0.33125 0.61875 1.0
0.475319 0.614702 1.0
0.620901 0.611162 1.0
0.766483 0.607622 1.0
0.912066 0.604081 1.0
1.0 0.600541 1.0
0.0 0.775 1.0
0.05 0.76875 1.0
0.193771 0.764603 1.0
0.339354 0.761062 1.0
0.484936 0.757522 1.0
0.630518 0.753982 1.0
0.776101 0.750441 1.0
0.921683 0.746901 1.0
1.0 0.743361 1.0
0.0 0.914503 1.0
0.057806 0.910962 1.0
0.203389 0.907422 1.0
0.348971 0.903882 1.0
0.494553 0.900342 1.0
0.640136 0.896801 1.0
0.785718 0.893261 1.0
0.9313 0.889721 1.0
1.0 0.88618 1.0
0.0 1.0 1.0
0.067424 1.0 1.0
0.213006 1.0 1.0
0.358588 1.0 1.0
0.504171 1.0 1.0
0.649753 1.0 1.0
0.795335 1.0 1.0
0.940918 1.0 1.0
1.0 1.0 0.9945
