luts/teal_orange.cube
# Ascension Engine — Teal Orange LUT
LUT_3D_SIZE 33
0.0 0.03 0.0645
0.030001 0.027597 0.061129
0.064502 0.025193 0.057759
0.099003 0.02279 0.054388
0.133505 0.020386 0.051018
0.168006 0.017983 0.047647
0.202507 0.015579 0.044277
0.237008 0.013176 0.040906
0.271509 0.010773 0.037536
0.30601 0.008369 0.034165
0.340511 0.005966 0.030795
0.375013 0.003562 0.027424
0.409514 0.001159 0.024054
0.444015 0.0 0.020683
0.478516 0.0 0.017313
0.513017 0.0 0.013942
0.547518 0.0 0.010572
0.582019 0.0 0.007201
0.616521 0.0 0.003831
0.651022 0.0 0.00046
0.685523 0.0 0.0
0.720024 0.0 0.0
0.754525 0.0 0.0
0.789026 0.0 0.0
0.823527 0.0 0.0
0.858029 0.0 0.0
0.89253 0.0 0.0
0.927031 0.0 0.0
0.961532 0.0 0.0
0.996033 0.0 0.0
1.0 0.0 0.0
1.0 0.0 0.0
1.0 0.0 0.0
0.0 0.062724 0.059388
0.028686 0.060321 0.056017
0.063187 0.057917 0.052647
0.097689 0.055514 0.049276
0.13219 0.05311 0.045906
0.166691 0.050707 0.042535
0.201192 0.048303 0.039165
0.235693 0.0459 0.035794
0.270194 0.043497 0.032424
0.304695 0.041093 0.029053
0.339197 0.03869 0.025683
0.373698 0.036286 0.022312
0.408199 0.033883 0.018942
0.4427 0.031479 0.015571
0.477201 0.029076 0.012201
0.511702 0.026673 0.00883
0.546203 0.024269 0.00546
0.580705 0.021866 0.002089
0.615206 0.019462 0.0
0.649707 0.017059 0.0
0.684208 0.014655 0.0
0.718709 0.012252 0.0
0.75321 0.009848 0.0
0.787711 0.007445 0.0
0.822213 0.005042 0.0
0.856714 0.002638 0.0
0.891215 0.000235 0.0
0.925716 0.0 0.0
0.960217 0.0 0.0
0.994718 0.0 0.0
1.0 0.0 0.0
1.0 0.0 0.0
1.0 0.0 0.0
0.0 0.095448 0.054276
0.027371 0.093045 0.050905
0.061873 0.090641 0.047535
0.096374 0.088238 0.044164
0.130875 0.085834 0.040794
0.165376 0.083431 0.037423
0.199877 0.081028 0.034053
0.234378 0.078624 0.030682
0.268879 0.076221 0.027312
0.303381 0.073817 0.023941
0.337882 0.071414 0.020571
0.372383 0.06901 0.0172
0.406884 0.066607 0.01383
0.441385 0.064203 0.010459
0.475886 0.0618 0.007089
0.510387 0.059397 0.003718
0.544889 0.056993 0.000348
0.57939 0.05459 0.0
0.613891 0.052186 0.0
0.648392 0.049783 0.0
0.682893 0.047379 0.0
0.717394 0.044976 0.0
0.751895 0.042573 0.0
0.786397 0.040169 0.0
0.820898 0.037766 0.0
0.855399 0.035362 0.0
0.8899 0.032959 0.0
0.924401 0.030555 0.0
0.958902 0.028152 0.0
0.993403 0.025748 0.0
1.0 0.023345 0.0
1.0 0.020942 0.0
1.0 0.01875 0.0
0.0 0.128172 0.049164
0.026057 0.125769 0.045793
0.060558 0.123365 0.042423
0.095059 0.120962 0.039052
0.12956 0.118558 0.035682
0.164061 0.116155 0.032311
0.198562 0.113752 0.028941
0.233063 0.111348 0.02557
0.267565 0.108945 0.0222
0.302066 0.106541 0.018829
0.336567 0.104138 0.015459
0.371068 0.101734 0.012088
0.405569 0.099331 0.008718
0.44007 0.096928 0.005347
0.474571 0.094524 0.001977
0.509073 0.092121 0.0
0.543574 0.089717 0.0
0.578075 0.087314 0.0
0.612576 0.08491 0.0
0.647077 0.082507 0.0
0.681578 0.080103 0.0
0.716079 0.0777 0.0
0.750581 0.075297 0.0
0.785082 0.072893 0.0
0.819583 0.07049 0.0
0.854084 0.068086 0.0
0.888585 0.065683 0.0
0.923086 0.063279 0.0
0.957587 0.060876 0.0
0.992088 0.058472 0.0
1.0 0.05625 0.0
1.0 0.054688 0.0
1.0 0.053125 0.0
0.0 0.160896 0.044052
0.024742 0.158493 0.040681
0.059243 0.156089 0.037311
0.093744 0.153686 0.03394
0.128245 0.151283 0.03057
0.162746 0.148879 0.027199
0.197247 0.146476 0.023829
0.231749 0.144072 0.020458
0.26625 0.141669 0.017088
0.300751 0.139265 0.013717
0.335252 0.136862 0.010347
0.369753 0.134458 0.006976
0.404254 0.132055 0.003606
0.438755 0.129652 0.000235
0.473257 0.127248 0.0
0.507758 0.124845 0.0
0.542259 0.122441 0.0
0.57676 0.120038 0.0
0.611261 0.117634 0.0
0.645762 0.115231 0.0
0.680263 0.112828 0.0
0.714765 0.110424 0.0
0.749266 0.108021 0.0
0.783767 0.105617 0.0
0.818268 0.103214 0.0
0.852769 0.10081 0.0
0.88727 0.098407 0.0
0.921771 0.096003 0.0
0.95625 0.09375 0.0
0.990625 0.092188 0.0
1.0 0.090625 0.0
1.0 0.089063 0.0
1.0 0.0875 0.0
0.0 0.19362 0.03894
0.023427 0.191217 0.035569
0.057928 0.188813 0.032199
0.092429 0.18641 0.028828
0.12693 0.184007 0.025458
0.161431 0.181603 0.022087
0.195933 0.1792 0.018717
0.230434 0.176796 0.015346
0.264935 0.174393 0.011976
0.299436 0.171989 0.008605
0.333937 0.169586 0.005235
0.368438 0.167183 0.001864
0.402939 0.164779 0.0
0.437441 0.162376 0.0
0.471942 0.159972 0.0
0.506443 0.157569 0.0
0.540944 0.155165 0.0
0.575445 0.152762 0.0
0.609946 0.150358 0.0
0.644447 0.147955 0.0
0.678949 0.145552 0.0
0.71345 0.143148 0.0
0.747951 0.140745 0.0
0.782452 0.138341 0.0
0.816953 0.135938 0.0
0.851454 0.133534 0.0
0.885938 0.13125 0.0
0.920313 0.129688 0.0
0.954687 0.128125 0.0
0.989062 0.126563 0.0
1.0 0.125 0.0
1.0 0.123438 0.0
1.0 0.121875 0.0
0.0 0.226344 0.033828
0.022112 0.223941 0.030457
0.056613 0.221537 0.027087
0.091114 0.219134 0.023716
0.125615 0.216731 0.020346
0.160117 0.214327 0.016975
0.194618 0.211924 0.013605
0.229119 0.20952 0.010234
0.26362 0.207117 0.006864
0.298121 0.204713 0.003493
0.332622 0.20231 0.000123
0.367123 0.199907 0.0
0.401625 0.197503 0.0
0.436126 0.1951 0.0
0.470627 0.192696 0.0
0.505128 0.190293 0.0
0.539629 0.187889 0.0
0.57413 0.185486 0.0
0.608631 0.183083 0.0
0.643133 0.180679 0.0
0.677634 0.178276 0.0
0.712135 0.175872 0.0
0.746636 0.173469 0.0
0.781137 0.171065 0.0
0.815625 0.16875 0.0
0.85 0.167188 0.0
0.884375 0.165625 0.0
0.91875 0.164062 0.0
0.953125 0.1625 0.0
0.9875 0.160938 0.0
1.0 0.159375 0.0
1.0 0.157813 0.0
1.0 0.15625 0.0
0.0 0.259068 0.028716
0.020797 0.256665 0.025345
0.055298 0.254262 0.021975
0.089799 0.251858 0.018604
0.124301 0.249455 0.015234
0.158802 0.247051 0.011863
0.193303 0.244648 0.008493
0.227804 0.242244 0.005122
0.262305 0.239841 0.001752
0.296806 0.237437 0.0
0.331307 0.235034 0.0
0.365809 0.232631 0.0
0.40031 0.230227 0.0
0.434811 0.227824 0.0
0.469312 0.22542 0.0
0.503813 0.223017 0.0
0.538314 0.220613 0.0
0.572815 0.21821 0.0
0.607317 0.215807 0.0
0.641818 0.213403 0.0
0.676319 0.211 0.0
0.71082 0.208596 0.0
0.745313 0.20625 0.0
0.779687 0.204688 0.0
0.814062 0.203125 0.0
0.848437 0.201563 0.0
0.882812 0.2 0.0
0.917188 0.198438 0.0
0.951563 0.196875 0.0
0.985937 0.195312 0.0
1.0 0.19375 0.0
1.0 0.192188 0.0
1.0 0.190625 0.0
0.0 0.291793 0.023604
0.019482 0.289389 0.020233
0.053983 0.286986 0.016863
0.088485 0.284582 0.013492
0.122986 0.282179 0.010122
0.157487 0.279775 0.006751
0.191988 0.277372 0.003381
0.226489 0.274968 1e-05
0.26099 0.272565 0.0
0.295491 0.270162 0.0
0.329993 0.267758 0.0
0.364494 0.265355 0.0
0.398995 0.262951 0.0
0.433496 0.260548 0.0
0.467997 0.258144 0.0
0.502498 0.255741 0.0
0.536999 0.253337 0.0
0.571501 0.250934 0.0
0.606002 0.248531 0.0
0.640503 0.246127 0.0
0.675 0.24375 0.0
0.709375 0.242188 0.0
0.74375 0.240625 0.0
0.778125 0.239063 0.0
0.8125 0.2375 0.0
0.846875 0.235938 0.0
0.88125 0.234375 0.0
0.915625 0.232813 0.0
0.95 0.23125 0.0
0.984375 0.229688 0.0
1.0 0.228125 0.0
1.0 0.226562 0.0
1.0 0.225 0.0
0.0 0.324517 0.018492
0.018167 0.322113 0.015121
0.052669 0.31971 0.011751
0.08717 0.317306 0.00838
0.121671 0.314903 0.00501
0.156172 0.312499 0.001639
0.190673 0.310096 0.0
0.225174 0.307693 0.0
0.259675 0.305289 0.0
0.294177 0.302886 0.0
0.328678 0.300482 0.0
0.363179 0.298079 0.0
0.39768 0.295675 0.0
0.432181 0.293272 0.0
0.466682 0.290868 0.0
0.501183 0.288465 0.0
0.535685 0.286062 0.0
0.570186 0.283658 0.0
0.604687 0.281255 0.0
0.639062 0.279687 0.0
0.673437 0.278125 0.0
0.707812 0.276562 0.0
0.742188 0.275 0.0
0.776563 0.273438 0.0
0.810937 0.271875 0.0
0.845312 0.270313 0.0
0.879687 0.26875 0.0
0.914062 0.267188 0.0
0.948438 0.265625 0.0
0.982813 0.264062 0.0
1.0 0.2625 0.0
1.0 0.260938 0.0
1.0 0.259375 0.0
0.0 0.357241 0.01338
0.016853 0.354837 0.010009
0.051354 0.352434 0.006639
0.085855 0.35003 0.003268
0.120356 0.347627 0.0
0.154857 0.345223 0.0
0.189358 0.34282 0.0
0.223859 0.340417 0.0
0.258361 0.338013 0.0
0.292862 0.33561 0.0
0.327363 0.333206 0.0
0.361864 0.330803 0.0
0.396365 0.328399 0.0
0.430866 0.325996 0.0
0.465367 0.323592 0.0
0.499869 0.321189 0.0
0.53437 0.318786 0.0
0.56875 0.317188 0.0
0.603125 0.315625 0.0
0.6375 0.314063 0.0
0.671875 0.3125 0.0
0.70625 0.310937 0.0
0.740625 0.309375 0.0
0.775 0.307812 0.0
0.809375 0.30625 0.0
0.84375 0.304688 0.0
0.878125 0.303125 0.0
0.9125 0.301563 0.0
0.946875 0.3 0.0
0.98125 0.298438 0.0
1.0 0.296875 0.0
1.0 0.295312 0.0
1.0 0.29375 0.0
0.0 0.389965 0.008268
0.015538 0.387561 0.004897
0.050039 0.385158 0.001527
0.08454 0.382754 0.0
0.119041 0.380351 0.0
0.153542 0.377947 0.0
0.188043 0.375544 0.0
0.222545 0.373141 0.0
0.257046 0.370737 0.0
0.291547 0.368334 0.0
0.326048 0.36593 0.0
0.360549 0.363527 0.0
0.39505 0.361123 0.0
0.429551 0.35872 0.0
0.464053 0.356317 0.0
0.498437 0.354687 0.0
0.532812 0.353125 0.0
0.567187 0.351562 0.0
0.601562 0.35 0.0
0.635938 0.348438 0.0
0.670312 0.346875 0.0
0.704687 0.345313 0.0
0.739062 0.34375 0.0
0.773438 0.342187 0.0
0.807813 0.340625 0.0
0.842187 0.339062 0.0
0.876562 0.3375 0.0
0.910937 0.335938 0.0
0.945312 0.334375 0.0
0.979688 0.332813 0.0
1.0 0.33125 0.0
1.0 0.329688 0.0
1.0 0.328125 0.0
0.0 0.422689 0.003156
0.014223 0.420285 0.0
0.048724 0.417882 0.0
0.083225 0.415478 0.0
0.117726 0.413075 0.0
0.152227 0.410672 0.0
0.186729 0.408268 0.0
0.22123 0.405865 0.0
0.255731 0.403461 0.0
0.290232 0.401058 0.0
0.324733 0.398654 0.0
0.359234 0.396251 0.0
0.393735 0.393847 0.0
0.428125 0.392188 0.0
0.4625 0.390625 0.0
0.496875 0.389062 0.0
0.53125 0.3875 0.0
0.565625 0.385937 0.0
0.6 0.384375 0.0
0.634375 0.382812 0.0
0.66875 0.38125 0.0
0.703125 0.379688 0.0
0.7375 0.378125 0.0
0.771875 0.376563 0.0
0.80625 0.375 0.0
0.840625 0.373437 0.0
0.875 0.371875 0.0
0.909375 0.370312 0.0
0.94375 0.36875 0.0
0.978125 0.367188 0.0
1.0 0.365625 0.0
1.0 0.364063 0.0
1.0 0.3625 0.0
0.0 0.455413 0.0
0.012908 0.453009 0.0
0.047409 0.450606 0.0
0.08191 0.448202 0.0
0.116411 0.445799 0.0
0.150913 0.443396 0.0
0.185414 0.440992 0.0
0.219915 0.438589 0.0
0.254416 0.436185 0.0
0.288917 0.433782 0.0
0.323418 0.431378 0.0
0.357812 0.429688 0.0
0.392188 0.428125 0.0
0.426562 0.426562 0.0
0.460938 0.425 0.0
0.495312 0.423438 0.0
0.529687 0.421875 0.0
0.564062 0.420312 0.0
0.598437 0.41875 0.0
0.632812 0.417187 0.0
0.667188 0.415625 0.0
0.701562 0.414062 0.0
0.735937 0.4125 0.0
0.770312 0.410938 0.0
0.804688 0.409375 0.0
0.839063 0.407813 0.0
0.873437 0.40625 0.0
0.907812 0.404687 0.0
0.942187 0.403125 0.0
0.976562 0.401562 0.0
1.0 0.4 0.0
1.0 0.398438 0.0
1.0 0.396875 0.0
0.0 0.488137 0.0
0.011593 0.485733 0.0
0.046094 0.48333 0.0
0.080595 0.480927 0.0
0.115097 0.478523 0.0
0.149598 0.47612 0.0
0.184099 0.473716 0.0
0.2186 0.471313 0.0
0.253101 0.468909 0.0
0.2875 0.467187 0.0
0.321875 0.465625 0.0
0.35625 0.464062 0.0
0.390625 0.4625 0.0
0.425 0.460938 0.0
0.459375 0.459375 0.0
0.49375 0.457812 0.0
0.528125 0.45625 0.0
0.5625 0.454688 0.0
0.596875 0.453125 0.0
0.63125 0.451562 0.0
0.665625 0.45 0.0
0.7 0.448437 0.0
0.734375 0.446875 0.0
0.76875 0.445312 0.0
0.803125 0.44375 0.0
0.8375 0.442188 0.0
0.871875 0.440625 0.0
0.90625 0.439063 0.0
0.940625 0.4375 0.0
0.975 0.435937 0.0
1.0 0.434375 0.0
1.0 0.432812 0.0
1.0 0.43125 0.0
0.0 0.520861 0.0
0.010278 0.518458 0.0
0.044779 0.516054 0.0
0.079281 0.513651 0.0
0.113782 0.511247 0.0
0.148283 0.508844 0.0
0.182784 0.50644 0.0
0.217188 0.504687 0.0
0.251563 0.503125 0.0
0.285938 0.501562 0.0
0.320312 0.5 0.0
0.354687 0.498437 0.0
0.389062 0.496875 0.0
0.423438 0.495312 0.0
0.457812 0.49375 0.0
0.492188 0.492188 0.0
0.526563 0.490625 0.0
0.560937 0.489062 0.0
0.595312 0.4875 0.0
0.629687 0.485938 0.0
0.664062 0.484375 0.0
0.698438 0.482812 0.0
0.732812 0.48125 0.0
0.767187 0.479687 0.0
0.801562 0.478125 0.0
0.835938 0.476562 0.0
0.870313 0.475 0.0
0.904687 0.473438 0.0
0.939062 0.471875 0.0
0.973437 0.470313 0.0
1.0 0.46875 0.0
1.0 0.467187 0.0
1.0 0.465625 0.0
0.0 0.553585 0.0
0.008963 0.551182 0.0
0.043465 0.548778 0.0
0.077966 0.546375 0.0
0.112467 0.543971 0.0
0.146875 0.542188 0.0
0.18125 0.540625 0.0
0.215625 0.539062 0.0
0.25 0.5375 0.0
0.284375 0.535937 0.0
0.31875 0.534375 0.0
0.353125 0.532812 0.0
0.3875 0.53125 0.0
0.421875 0.529687 0.0
0.45625 0.528125 0.0
0.490625 0.526563 0.0
0.525 0.525 0.0
0.559375 0.523438 0.0
0.59375 0.521875 0.0
0.628125 0.520312 0.0
0.6625 0.51875 0.0
0.696875 0.517188 0.0
0.73125 0.515625 0.0
0.765625 0.514062 0.0
0.8 0.5125 0.0
0.834375 0.510938 0.0
0.86875 0.509375 0.0
0.903125 0.507812 0.0
0.9375 0.50625 0.0
0.971875 0.504687 0.0
1.0 0.503125 0.0
1.0 0.501563 0.0
1.0 0.5 0.0
0.0 0.586309 0.0
0.007649 0.583906 0.0
0.04215 0.581502 0.0
0.076563 0.579687 0.0
0.110938 0.578125 0.0
0.145313 0.576562 0.0
0.179688 0.575 0.0
0.214062 0.573438 0.0
0.248438 0.571875 0.0
0.282813 0.570312 0.0
0.317188 0.56875 0.0
0.351562 0.567187 0.0
0.385937 0.565625 0.0
0.420312 0.564062 0.0
0.454688 0.5625 0.0
0.489062 0.560937 0.0
0.523438 0.559375 0.0
0.557813 0.557813 0.0
0.592187 0.55625 0.0
0.626562 0.554688 0.0
0.660937 0.553125 0.0
0.695312 0.551562 0.0
0.729688 0.55 0.0
0.764062 0.548438 0.0
0.798437 0.546875 0.0
0.832812 0.545312 0.0
0.867188 0.54375 0.0
0.901563 0.542188 0.0
0.935937 0.540625 0.0
0.970312 0.539062 0.0
1.0 0.5375 0.0
1.0 0.536046 0.0
1.0 0.535161 0.0
0.0 0.619033 0.0
0.00625 0.617188 0.0
0.040625 0.615625 0.0
0.075 0.614062 0.0
0.109375 0.6125 0.0
0.14375 0.610937 0.0
0.178125 0.609375 0.0
0.2125 0.607812 0.0
0.246875 0.60625 0.0
0.28125 0.604688 0.0
0.315625 0.603125 0.0
0.35 0.601562 0.0
0.384375 0.6 0.0
0.41875 0.598437 0.0
0.453125 0.596875 0.0
0.4875 0.595312 0.0
0.521875 0.59375 0.0
0.55625 0.592187 0.0
0.590625 0.590625 0.0
0.625 0.589063 0.0
0.659375 0.5875 0.0
0.69375 0.585938 0.0
0.728125 0.584375 0.0
0.7625 0.582812 0.0
0.796875 0.58125 0.0
0.83125 0.579688 0.0
0.865625 0.578125 0.0
0.9 0.576562 0.0
0.934375 0.575 0.0
0.969 0.573521 0.0
1.0 0.572636 0.0
1.0 0.571751 0.0
1.0 0.570866 0.0
0.0 0.653125 0.0
0.004688 0.651562 0.0
0.039062 0.65 0.0
0.073438 0.648438 0.0
0.107813 0.646875 0.0
0.142188 0.645312 0.0
0.176563 0.64375 0.0
0.210938 0.642187 0.0
0.245312 0.640625 0.0
0.279687 0.639062 0.0
0.314063 0.6375 0.0
0.348438 0.635938 0.0
0.382812 0.634375 0.0
0.417187 0.632812 0.0
0.451562 0.63125 0.0
0.485938 0.629687 0.0
0.520312 0.628125 0.0
0.554688 0.626562 0.0
0.589063 0.625 0.0
0.623437 0.623437 0.0
0.657812 0.621875 0.0
0.692187 0.620313 0.0
0.726562 0.61875 0.0
0.760938 0.617188 0.0
0.795312 0.615625 0.0
0.829687 0.614062 0.0
0.864062 0.6125 0.0
0.898613 0.610996 0.0
0.935009 0.610111 0.0
0.971404 0.609226 0.0
1.0 0.608341 0.0
1.0 0.607456 0.0
1.0 0.606571 0.0
0.0 0.6875 0.0
0.003125 0.685937 0.0
0.0375 0.684375 0.0
0.071875 0.682812 0.0
0.10625 0.68125 0.0
0.140625 0.679688 0.0
0.175 0.678125 0.0
0.209375 0.676562 0.0
0.24375 0.675 0.0
0.278125 0.673437 0.0
0.3125 0.671875 0.0
0.346875 0.670312 0.0
0.38125 0.66875 0.0
0.415625 0.667188 0.0
0.45 0.665625 0.0
0.484375 0.664062 0.0
0.51875 0.6625 0.0
0.553125 0.660937 0.0
0.5875 0.659375 0.0
0.621875 0.657812 0.0
0.65625 0.65625 0.0
0.690625 0.654687 0.0
0.725 0.653125 0.0
0.759375 0.651563 0.0
0.79375 0.65 0.0
0.828226 0.648471 0.0
0.864622 0.647586 0.0
0.901018 0.646701 0.0
0.937413 0.645816 0.0
0.973809 0.644931 0.0
1.0 0.644046 0.0
1.0 0.643161 0.0
1.0 0.642276 0.0
0.0 0.721875 0.0
0.001563 0.720313 0.0
0.035938 0.71875 0.0
0.070312 0.717187 0.0
0.104688 0.715625 0.0
0.139063 0.714063 0.0
0.173438 0.7125 0.0
0.207813 0.710938 0.0
0.242188 0.709375 0.0
0.276562 0.707812 0.0
0.310937 0.70625 0.0
0.345313 0.704687 0.0
0.379688 0.703125 0.0
0.414062 0.701562 0.0
0.448437 0.7 0.0
0.482812 0.698438 0.0
0.517188 0.696875 0.0
0.551562 0.695312 0.0
0.585938 0.69375 0.0
0.620313 0.692187 0.0
0.654687 0.690625 0.0
0.689062 0.689062 0.0
0.723437 0.6875 0.0
0.75784 0.685947 0.0
0.794235 0.685061 0.0
0.830631 0.684176 0.0
0.867026 0.683291 0.0
0.903422 0.682406 0.0
0.939817 0.681521 0.0
0.976213 0.680636 0.0
1.0 0.679751 0.0
1.0 0.678866 0.0
1.0 0.677981 0.0
0.0 0.75625 0.0
0.0 0.754687 0.0
0.034375 0.753125 0.0
0.06875 0.751562 0.0
0.103125 0.75 0.0
0.1375 0.748437 0.0
0.171875 0.746875 0.0
0.20625 0.745313 0.0
0.240625 0.74375 0.0
0.275 0.742188 0.0
0.309375 0.740625 0.0
0.34375 0.739062 0.0
0.378125 0.7375 0.0
0.4125 0.735937 0.0
0.446875 0.734375 0.0
0.48125 0.732812 0.0
0.515625 0.73125 0.0
0.55 0.729688 0.0
0.584375 0.728125 0.0
0.61875 0.726562 0.0
0.653125 0.725 0.0
0.6875 0.723437 0.0
0.723848 0.722537 0.0
0.760244 0.721651 0.0
0.796639 0.720766 0.0
0.833035 0.719881 0.0
0.869431 0.718996 0.0
0.905826 0.718111 0.0
0.942222 0.717226 0.0
0.978617 0.716341 0.0
1.0 0.715456 0.0
1.0 0.714571 0.0
1.0 0.713686 0.0
0.0 0.790625 0.0
0.0 0.789062 0.0
0.032813 0.7875 0.0
0.067188 0.785937 0.0
0.101562 0.784375 0.0
0.135938 0.782812 0.0
0.170313 0.78125 0.0
0.204688 0.779687 0.0
0.239063 0.778125 0.0
0.273438 0.776563 0.0
0.307812 0.775 0.0
0.342187 0.773438 0.0
0.376563 0.771875 0.0
0.410938 0.770312 0.0
0.445312 0.76875 0.0
0.479687 0.767187 0.0
0.514062 0.765625 0.0
0.548438 0.764062 0.0
0.582812 0.7625 0.0
0.617188 0.760938 0.0
0.653461 0.760012 0.0
0.689857 0.759127 0.0
0.726253 0.758241 0.0
0.762648 0.757356 0.0
0.799044 0.756471 0.0
0.835439 0.755586 0.0
0.871835 0.754701 0.0
0.908231 0.753816 0.0
0.944626 0.752931 0.0
0.981022 0.752046 0.0
1.0 0.751161 0.0
1.0 0.750276 0.0
1.0 0.749391 0.0
0.0 0.825 0.0
0.0 0.823438 0.0
0.03125 0.821875 0.0
0.065625 0.820312 0.0
0.1 0.81875 0.0
0.134375 0.817187 0.0
0.16875 0.815625 0.0
0.203125 0.814062 0.0
0.2375 0.8125 0.0
0.271875 0.810937 0.0
0.30625 0.809375 0.0
0.340625 0.807813 0.0
0.375 0.80625 0.0
0.409375 0.804688 0.0
0.44375 0.803125 0.0
0.478125 0.801562 0.0
0.5125 0.8 0.0
0.546875 0.798437 0.0
0.583075 0.797487 0.0
0.61947 0.796602 0.0
0.655866 0.795717 0.0
0.692261 0.794831 0.0
0.728657 0.793946 0.0
0.765053 0.793061 0.0
0.801448 0.792176 0.0
0.837844 0.791291 0.0
0.874239 0.790406 0.0
0.910635 0.789521 0.0
0.94703 0.788636 0.0
0.983426 0.787751 0.0
1.0 0.786866 0.0
1.0 0.785981 0.0
1.0 0.785096 0.0
0.0 0.859375 0.0
0.0 0.857813 0.0
0.029688 0.85625 0.0
0.064063 0.854688 0.0
0.098438 0.853125 0.0
0.132812 0.851562 0.0
0.167188 0.85 0.0
0.201563 0.848437 0.0
0.235938 0.846875 0.0
0.270313 0.845312 0.0
0.304688 0.84375 0.0
0.339062 0.842187 0.0
0.373437 0.840625 0.0
0.407813 0.839063 0.0
0.442188 0.8375 0.0
0.476562 0.835938 0.0
0.512688 0.834962 0.0
0.549083 0.834077 0.0
0.585479 0.833192 0.0
0.621875 0.832307 0.0
0.65827 0.831421 0.0
0.694666 0.830536 0.0
0.731061 0.829651 0.0
0.767457 0.828766 0.0
0.803852 0.827881 0.0
0.840248 0.826996 0.0
0.876644 0.826111 0.0
0.913039 0.825226 0.0
0.949435 0.824341 0.0
0.98583 0.823456 0.0
1.0 0.822571 0.0
1.0 0.821686 0.0
1.0 0.820801 0.0
0.0 0.89375 0.0
0.0 0.892187 0.0
0.028125 0.890625 0.0
0.0625 0.889063 0.0
0.096875 0.8875 0.0
0.13125 0.885938 0.0
0.165625 0.884375 0.0
0.2 0.882812 0.0
0.234375 0.88125 0.0
0.26875 0.879687 0.0
0.303125 0.878125 0.0
0.3375 0.876562 0.0
0.371875 0.875 0.0
0.40625 0.873437 0.0
0.442301 0.872437 0.0
0.478697 0.871552 0.0
0.515092 0.870667 0.0
0.551488 0.869782 0.0
0.587883 0.868897 0.0
0.624279 0.868011 0.0
0.660674 0.867126 0.0
0.69707 0.866241 0.0
0.733466 0.865356 0.0
0.769861 0.864471 0.0
0.806257 0.863586 0.0
0.842652 0.862701 0.0
0.879048 0.861816 0.0
0.915444 0.860931 0.0
0.951839 0.860046 0.0
0.988235 0.859161 0.0
1.0 0.858276 0.0
1.0 0.857391 0.0
1.0 0.856505 0.0
0.0 0.928125 0.0
0.0 0.926562 0.0
0.026563 0.925 0.0
0.060938 0.923437 0.0
0.095313 0.921875 0.0
0.129688 0.920313 0.0
0.164062 0.91875 0.0
0.198438 0.917188 0.0
0.232813 0.915625 0.0
