luts/teal_orange.cube
# Ascension Engine — Teal Orange LUT
LUT_3D_SIZE 5
0.0 0.03 0.0645
0.271509 0.010773 0.037536
0.547518 0.0 0.010572
0.823527 0.0 0.0
1.0 0.0 0.0
0.0 0.291793 0.023604
0.26099 0.272565 0.0
0.536999 0.253337 0.0
0.8125 0.2375 0.0
1.0 0.225 0.0
0.0 0.553585 0.0
0.25 0.5375 0.0
0.525 0.525 0.0
0.8 0.5125 0.0
1.0 0.5 0.0
0.0 0.825 0.0
0.2375 0.8125 0.0
0.5125 0.8 0.0
0.801448 0.792176 0.0
1.0 0.785096 0.0
0.0 1.0 0.0
0.238353 1.0 0.0
0.529518 1.0 0.0
0.820683 1.0 0.0
1.0 1.0 0.0
0.0 0.014935 0.333985
0.259394 0.0 0.307021
0.535403 0.0 0.280057
0.811412 0.0 0.253093
1.0 0.0 0.226129
0.0 0.276728 0.293089
0.248875 0.2575 0.266125
0.524884 0.238272 0.239161
0.8 0.225 0.225
1.0 0.2125 0.2125
0.0 0.53852 0.252193
0.2375 0.525 0.2375
0.5125 0.5125 0.225
0.7875 0.5 0.2125
1.0 0.489023 0.199711
0.0 0.8125 0.2375
0.225 0.8 0.225
0.503947 0.788823 0.212249
0.795111 0.781743 0.198721
1.0 0.774662 0.185193
0.0 1.0 0.224787
0.232017 1.0 0.211259
0.523181 1.0 0.197731
0.814346 1.0 0.184203
1.0 1.0 0.170676
0.0 0.0 0.60347
0.247279 0.0 0.576506
0.523288 0.0 0.549542
0.799297 0.0 0.522578
1.0 0.0 0.5
0.0 0.261663 0.562574
0.23676 0.242435 0.53561
0.5125 0.225 0.5125
0.7875 0.2125 0.5
1.0 0.2 0.4875
0.0 0.525 0.525
0.225 0.5125 0.5125
0.5 0.5 0.5
0.775 0.4875 0.4875
1.0 0.478589 0.474319
0.0 0.8 0.5125
0.2125 0.7875 0.5
0.49761 0.778389 0.486857
0.788774 0.771309 0.473329
1.0 0.764228 0.459802
0.0 1.0 0.499395
0.22568 1.0 0.485867
0.516844 1.0 0.472339
0.808009 1.0 0.458812
1.0 1.0 0.445284
0.0 0.0 0.872956
0.235163 0.0 0.845992
0.511173 0.0 0.819028
0.787182 0.0 0.792063
1.0 0.0 0.775
0.0 0.246597 0.83206
0.224645 0.22737 0.805095
0.5 0.2125 0.7875
0.775 0.2 0.775
1.0 0.1875 0.7625
0.0 0.5125 0.8
0.2125 0.5 0.7875
0.4875 0.4875 0.775
0.763203 0.475236 0.762455
1.0 0.468155 0.748927
0.0 0.7875 0.7875
0.200108 0.775036 0.774993
0.491273 0.767956 0.761465
0.782438 0.760875 0.747938
1.0 0.753794 0.73441
0.0 1.0 0.774003
0.219343 1.0 0.760475
0.510508 1.0 0.746947
0.801672 1.0 0.73342
1.0 1.0 0.719892
0.0 0.0 1.0
0.223048 0.0 1.0
0.499057 0.0 1.0
0.775 0.0 1.0
1.0 0.0 1.0
0.0 0.231533 1.0
0.2125 0.2125 1.0
0.4875 0.2 1.0
0.7625 0.1875 1.0
1.0 0.175 1.0
0.0 0.5 1.0
0.2 0.4875 1.0
0.475 0.475 1.0
0.756866 0.464802 1.0
1.0 0.457721 1.0
0.0 0.775 1.0
0.193771 0.764603 1.0
0.484936 0.757522 1.0
0.776101 0.750441 1.0
1.0 0.743361 1.0
0.0 1.0 1.0
0.213006 1.0 1.0
0.504171 1.0 1.0
0.795335 1.0 1.0
1.0 1.0 0.9945
