luts/warm_gold.cube
# Ascension Engine — Warm Gold LUT
LUT_3D_SIZE 9
0.041422 0.020711 0.0
0.181389 0.021944 0.0
0.321356 0.023178 0.0
0.461322 0.024411 0.0
0.601289 0.025645 0.0
0.741256 0.026878 0.0
0.881223 0.028111 0.0
1.0 0.029322 0.0
1.0 0.029322 0.0
0.046045 0.154272 0.0
0.186011 0.155506 0.0
0.325978 0.156739 0.0
0.465945 0.157972 0.0
0.605912 0.159206 0.0
0.745878 0.160439 0.0
0.885845 0.161673 0.0
1.0 0.162884 0.0
1.0 0.162884 0.0
0.050667 0.287834 0.0
0.190634 0.289067 0.0
0.330601 0.2903 0.0
0.470568 0.291534 0.0
0.610534 0.292767 0.0
0.750501 0.294001 0.0
0.890468 0.295234 0.0
1.0 0.296445 0.0
1.0 0.296445 0.0
0.05529 0.421395 0.0
0.195257 0.422628 0.0
0.335223 0.423862 0.0
0.47519 0.425095 0.0
0.615157 0.426328 0.0
0.755124 0.427562 0.0
0.89491 0.428705 0.0
1.0 0.427494 0.0
1.0 0.427494 0.0
0.059913 0.554956 0.0
0.199879 0.55619 0.0
0.339846 0.557423 0.0
0.479813 0.558656 0.0
0.61978 0.55989 0.0
0.755254 0.558877 0.0
0.890287 0.557644 0.0
1.0 0.556433 0.0
1.0 0.556433 0.0
0.064535 0.688518 0.0
0.204502 0.689751 0.0
0.344469 0.690984 0.0
0.480565 0.690282 0.0
0.615598 0.689049 0.0
0.750631 0.687816 0.0
0.885664 0.686582 0.0
1.0 0.685371 0.0
1.0 0.685371 0.0
0.069158 0.822079 0.0
0.205876 0.821688 0.0
0.340909 0.820454 0.0
0.475942 0.819221 0.0
0.610975 0.817988 0.0
0.746009 0.816754 0.0
0.881042 0.815521 0.0
1.0 0.81431 0.0
1.0 0.81431 0.0
0.06622 0.95186 0.0
0.201253 0.950626 0.0
0.336286 0.949393 0.0
0.471319 0.94816 0.0
0.606353 0.946926 0.0
0.741386 0.945693 0.0
0.876419 0.94446 0.0
1.0 0.943249 0.0
1.0 0.943249 0.0
0.064062 1.0 0.0
0.199096 1.0 0.0
0.334129 1.0 0.0
0.469162 1.0 0.0
0.604195 1.0 0.0
0.739229 1.0 0.0
0.874262 1.0 0.0
1.0 1.0 0.0
1.0 1.0 0.0
0.042149 0.021074 0.10625
0.182116 0.022308 0.10625
0.322082 0.023541 0.10625
0.462049 0.024775 0.10625
0.602016 0.026008 0.10625
0.741982 0.027241 0.10625
0.881949 0.028475 0.10625
1.0 0.029686 0.10625
1.0 0.029686 0.10625
0.046771 0.154636 0.10625
0.186738 0.155869 0.10625
0.326705 0.157102 0.10625
0.466672 0.158336 0.10625
0.606638 0.159569 0.10625
0.746605 0.160803 0.10625
0.886572 0.162036 0.10625
1.0 0.163247 0.10625
1.0 0.163247 0.10625
0.051394 0.288197 0.10625
0.191361 0.28943 0.10625
0.331327 0.290664 0.10625
0.471294 0.291897 0.10625
0.611261 0.293131 0.10625
0.751228 0.294364 0.10625
0.891195 0.295597 0.10625
1.0 0.296808 0.10625
1.0 0.296808 0.10625
0.056017 0.421758 0.10625
0.195983 0.422992 0.10625
0.33595 0.424225 0.10625
0.475917 0.425458 0.10625
0.615884 0.426692 0.10625
0.75585 0.427925 0.10625
0.894183 0.428341 0.10625
1.0 0.42713 0.10625
1.0 0.42713 0.10625
0.060639 0.55532 0.10625
0.200606 0.556553 0.10625
0.340573 0.557786 0.10625
0.48054 0.55902 0.10625
0.619494 0.559747 0.10625
0.754527 0.558513 0.10625
0.88956 0.55728 0.10625
1.0 0.556069 0.10625
1.0 0.556069 0.10625
0.065262 0.688881 0.10625
0.205229 0.690114 0.10625
0.344805 0.691152 0.10625
0.479838 0.689919 0.10625
0.614871 0.688686 0.10625
0.749904 0.687452 0.10625
0.884938 0.686219 0.10625
1.0 0.685008 0.10625
1.0 0.685008 0.10625
0.069885 0.822442 0.10625
0.205149 0.821324 0.10625
0.340182 0.820091 0.10625
0.475215 0.818858 0.10625
0.610249 0.817624 0.10625
0.745282 0.816391 0.10625
0.880315 0.815158 0.10625
1.0 0.813947 0.10625
1.0 0.813947 0.10625
0.065493 0.951496 0.10625
0.200526 0.950263 0.10625
0.335559 0.94903 0.10625
0.470593 0.947796 0.10625
0.605626 0.946563 0.10625
0.740659 0.94533 0.10625
0.875692 0.944096 0.10625
1.0 0.942885 0.10625
1.0 0.942885 0.10625
0.063336 1.0 0.10625
0.198369 1.0 0.10625
0.333402 1.0 0.10625
0.468435 1.0 0.10625
0.603469 1.0 0.10625
0.738502 1.0 0.10625
0.873535 1.0 0.10625
1.0 1.0 0.10625
1.0 1.0 0.10625
0.042875 0.021438 0.2125
0.182842 0.022671 0.2125
0.322809 0.023904 0.2125
0.462776 0.025138 0.2125
0.602743 0.026371 0.2125
0.742709 0.027605 0.2125
0.882676 0.028838 0.2125
1.0 0.030049 0.2125
1.0 0.030049 0.2125
0.047498 0.154999 0.2125
0.187465 0.156232 0.2125
0.327432 0.157466 0.2125
0.467398 0.158699 0.2125
0.607365 0.159933 0.2125
0.747332 0.161166 0.2125
0.887299 0.162399 0.2125
1.0 0.16361 0.2125
1.0 0.16361 0.2125
0.052121 0.28856 0.2125
0.192088 0.289794 0.2125
0.332054 0.291027 0.2125
0.472021 0.292261 0.2125
0.611988 0.293494 0.2125
0.751955 0.294727 0.2125
0.891921 0.295961 0.2125
1.0 0.297172 0.2125
1.0 0.297172 0.2125
0.056743 0.422122 0.2125
0.19671 0.423355 0.2125
0.336677 0.424588 0.2125
0.476644 0.425822 0.2125
0.61661 0.427055 0.2125
0.756577 0.428289 0.2125
0.893456 0.427978 0.2125
1.0 0.426767 0.2125
1.0 0.426767 0.2125
0.061366 0.555683 0.2125
0.201333 0.556916 0.2125
0.341299 0.55815 0.2125
0.481266 0.559383 0.2125
0.618767 0.559384 0.2125
0.7538 0.55815 0.2125
0.888834 0.556917 0.2125
1.0 0.555706 0.2125
1.0 0.555706 0.2125
0.065989 0.689244 0.2125
0.205955 0.690478 0.2125
0.344078 0.690789 0.2125
0.479111 0.689556 0.2125
0.614144 0.688322 0.2125
0.749178 0.687089 0.2125
0.884211 0.685855 0.2125
1.0 0.684644 0.2125
1.0 0.684644 0.2125
0.069389 0.822194 0.2125
0.204422 0.820961 0.2125
0.339455 0.819728 0.2125
0.474488 0.818494 0.2125
0.609522 0.817261 0.2125
0.744555 0.816028 0.2125
0.879588 0.814794 0.2125
1.0 0.813583 0.2125
1.0 0.813583 0.2125
0.064766 0.951133 0.2125
0.199799 0.9499 0.2125
0.334833 0.948666 0.2125
0.469866 0.947433 0.2125
0.604899 0.9462 0.2125
0.739932 0.944966 0.2125
0.874966 0.943733 0.2125
1.0 0.942522 0.2125
1.0 0.942522 0.2125
0.062609 1.0 0.2125
0.197642 1.0 0.2125
0.332675 1.0 0.2125
0.467709 1.0 0.2125
0.602742 1.0 0.2125
0.737775 1.0 0.2125
0.872808 1.0 0.2125
1.0 1.0 0.2125
1.0 1.0 0.2125
0.043602 0.021801 0.31875
0.183569 0.023034 0.31875
0.323536 0.024268 0.31875
0.463502 0.025501 0.31875
0.603469 0.026735 0.31875
0.743436 0.027968 0.31875
0.883403 0.029201 0.31875
1.0 0.030412 0.31875
1.0 0.030412 0.31875
0.048225 0.155362 0.31875
0.188192 0.156596 0.31875
0.328158 0.157829 0.31875
0.468125 0.159063 0.31875
0.608092 0.160296 0.31875
0.748059 0.161529 0.31875
0.888025 0.162763 0.31875
1.0 0.163974 0.31875
1.0 0.163974 0.31875
0.052847 0.288924 0.31875
0.192814 0.290157 0.31875
0.332781 0.291391 0.31875
0.472748 0.292624 0.31875
0.612715 0.293857 0.31875
0.752681 0.295091 0.31875
0.892648 0.296324 0.31875
1.0 0.297465 0.31875
1.0 0.297465 0.31875
0.05747 0.422485 0.31875
0.197437 0.423718 0.31875
0.337404 0.424952 0.31875
0.47737 0.426185 0.31875
0.617337 0.427419 0.31875
0.757304 0.428652 0.31875
0.892729 0.427615 0.31875
1.0 0.426404 0.31875
1.0 0.426404 0.31875
0.062093 0.556046 0.31875
0.20206 0.55728 0.31875
0.342026 0.558513 0.31875
0.481993 0.559747 0.31875
0.61804 0.55902 0.31875
0.753074 0.557787 0.31875
0.888107 0.556553 0.31875
1.0 0.555342 0.31875
1.0 0.555342 0.31875
0.066715 0.689608 0.31875
0.206682 0.690841 0.31875
0.343351 0.690426 0.31875
0.478384 0.689192 0.31875
0.613418 0.687959 0.31875
0.748451 0.686725 0.31875
0.883484 0.685492 0.31875
1.0 0.684281 0.31875
1.0 0.684281 0.31875
0.068662 0.821831 0.31875
0.203695 0.820598 0.31875
0.338728 0.819364 0.31875
0.473762 0.818131 0.31875
0.608795 0.816898 0.31875
0.743828 0.815664 0.31875
0.878862 0.814431 0.31875
1.0 0.81322 0.31875
1.0 0.81322 0.31875
0.064039 0.95077 0.31875
0.199073 0.949536 0.31875
0.334106 0.948303 0.31875
0.469139 0.94707 0.31875
0.604172 0.945836 0.31875
0.739206 0.944603 0.31875
0.874239 0.943369 0.31875
1.0 0.942158 0.31875
1.0 0.942158 0.31875
0.061882 1.0 0.31875
0.196915 1.0 0.31875
0.331949 1.0 0.31875
0.466982 1.0 0.31875
0.602015 1.0 0.31875
0.737048 1.0 0.31875
0.872082 1.0 0.31875
1.0 1.0 0.31875
1.0 1.0 0.31875
0.044329 0.022165 0.425
0.184296 0.023398 0.425
0.324263 0.024631 0.425
0.464229 0.025865 0.425
0.604196 0.027098 0.425
0.744163 0.028331 0.425
0.88413 0.029565 0.425
1.0 0.030776 0.425
1.0 0.030776 0.425
0.048952 0.155726 0.425
0.188918 0.156959 0.425
0.328885 0.158193 0.425
0.468852 0.159426 0.425
0.608819 0.160659 0.425
0.748785 0.161893 0.425
0.888752 0.163126 0.425
1.0 0.164337 0.425
1.0 0.164337 0.425
0.053574 0.289287 0.425
0.193541 0.290521 0.425
0.333508 0.291754 0.425
0.473475 0.292987 0.425
0.613441 0.294221 0.425
0.753408 0.295454 0.425
0.893375 0.296687 0.425
1.0 0.297102 0.425
1.0 0.297102 0.425
0.058197 0.422848 0.425
0.198164 0.424082 0.425
0.33813 0.425315 0.425
0.478097 0.426549 0.425
0.618064 0.427782 0.425
0.756969 0.428485 0.425
0.892003 0.427251 0.425
1.0 0.42604 0.425
1.0 0.42604 0.425
0.06282 0.55641 0.425
0.202786 0.557643 0.425
0.342753 0.558876 0.425
0.48228 0.55989 0.425
0.617314 0.558657 0.425
0.752347 0.557423 0.425
0.88738 0.55619 0.425
1.0 0.554979 0.425
1.0 0.554979 0.425
0.067442 0.689971 0.425
0.207409 0.691204 0.425
0.342624 0.690062 0.425
0.477658 0.688829 0.425
0.612691 0.687595 0.425
0.747724 0.686362 0.425
0.882757 0.685129 0.425
1.0 0.683918 0.425
1.0 0.683918 0.425
0.067935 0.821468 0.425
0.202969 0.820234 0.425
0.338002 0.819001 0.425
0.473035 0.817768 0.425
0.608068 0.816534 0.425
0.743102 0.815301 0.425
0.878135 0.814067 0.425
1.0 0.812856 0.425
1.0 0.812856 0.425
0.063313 0.950406 0.425
0.198346 0.949173 0.425
0.333379 0.94794 0.425
0.468412 0.946706 0.425
0.603446 0.945473 0.425
0.738479 0.944239 0.425
0.873512 0.943006 0.425
1.0 0.941795 0.425
1.0 0.941795 0.425
0.061155 1.0 0.425
0.196189 1.0 0.425
0.331222 1.0 0.425
0.466255 1.0 0.425
0.601288 1.0 0.425
0.736322 1.0 0.425
0.871355 1.0 0.425
1.0 1.0 0.425
1.0 1.0 0.425
0.045056 0.022528 0.53125
0.185023 0.023761 0.53125
0.324989 0.024995 0.53125
0.464956 0.026228 0.53125
0.604923 0.027461 0.53125
0.744889 0.028695 0.53125
0.884856 0.029928 0.53125
1.0 0.031139 0.53125
1.0 0.031139 0.53125
0.049678 0.156089 0.53125
0.189645 0.157323 0.53125
0.329612 0.158556 0.53125
0.469579 0.159789 0.53125
0.609545 0.161023 0.53125
0.749512 0.162256 0.53125
0.889479 0.163489 0.53125
1.0 0.1647 0.53125
1.0 0.1647 0.53125
0.054301 0.289651 0.53125
0.194268 0.290884 0.53125
0.334234 0.292117 0.53125
0.474201 0.293351 0.53125
0.614168 0.294584 0.53125
0.754135 0.295817 0.53125
0.894102 0.297051 0.53125
1.0 0.296738 0.53125
1.0 0.296738 0.53125
0.058924 0.423212 0.53125
0.19889 0.424445 0.53125
0.338857 0.425679 0.53125
0.478824 0.426912 0.53125
0.618791 0.428145 0.53125
0.756243 0.428121 0.53125
0.891276 0.426888 0.53125
1.0 0.425677 0.53125
1.0 0.425677 0.53125
0.063546 0.556773 0.53125
0.203513 0.558007 0.53125
0.34348 0.55924 0.53125
0.481554 0.559527 0.53125
0.616587 0.558293 0.53125
0.75162 0.55706 0.53125
0.886653 0.555827 0.53125
1.0 0.554616 0.53125
1.0 0.554616 0.53125
0.068169 0.690334 0.53125
0.206864 0.690932 0.53125
0.341898 0.689699 0.53125
0.476931 0.688465 0.53125
0.611964 0.687232 0.53125
0.746997 0.685999 0.53125
0.882031 0.684765 0.53125
1.0 0.683554 0.53125
1.0 0.683554 0.53125
0.067209 0.821104 0.53125
0.202242 0.819871 0.53125
0.337275 0.818638 0.53125
0.472308 0.817404 0.53125
0.607342 0.816171 0.53125
0.742375 0.814937 0.53125
0.877408 0.813704 0.53125
1.0 0.812493 0.53125
1.0 0.812493 0.53125
0.062586 0.950043 0.53125
0.197619 0.94881 0.53125
0.332652 0.947576 0.53125
0.467686 0.946343 0.53125
0.602719 0.945109 0.53125
0.737752 0.943876 0.53125
0.872785 0.942643 0.53125
1.0 0.941432 0.53125
1.0 0.941432 0.53125
0.060429 1.0 0.53125
0.195462 1.0 0.53125
0.330495 1.0 0.53125
0.465528 1.0 0.53125
0.600562 1.0 0.53125
0.735595 1.0 0.53125
0.870628 1.0 0.53125
1.0 1.0 0.53125
1.0 1.0 0.53125
0.045783 0.022891 0.6375
0.185749 0.024125 0.6375
0.325716 0.025358 0.6375
0.465683 0.026591 0.6375
0.60565 0.027825 0.6375
0.745616 0.029058 0.6375
0.885583 0.030291 0.6375
1.0 0.031502 0.6375
1.0 0.031502 0.6375
0.050405 0.156453 0.6375
0.190372 0.157686 0.6375
0.330339 0.158919 0.6375
0.470305 0.160153 0.6375
0.610272 0.161386 0.6375
0.750239 0.162619 0.6375
0.890206 0.163853 0.6375
1.0 0.165064 0.6375
1.0 0.165064 0.6375
0.055028 0.290014 0.6375
0.194995 0.291247 0.6375
0.334961 0.292481 0.6375
0.474928 0.293714 0.6375
0.614895 0.294947 0.6375
0.754862 0.296181 0.6375
0.894828 0.297414 0.6375
1.0 0.296375 0.6375
1.0 0.296375 0.6375
0.05965 0.423575 0.6375
0.199617 0.424809 0.6375
0.339584 0.426042 0.6375
0.479551 0.427275 0.6375
0.619517 0.428509 0.6375
0.755516 0.427758 0.6375
0.890549 0.426525 0.6375
1.0 0.425314 0.6375
1.0 0.425314 0.6375
0.064273 0.557137 0.6375
0.20424 0.55837 0.6375
0.344207 0.559603 0.6375
0.480827 0.559163 0.6375
0.61586 0.55793 0.6375
0.750893 0.556697 0.6375
0.885927 0.555463 0.6375
1.0 0.554252 0.6375
1.0 0.554252 0.6375
0.068896 0.690698 0.6375
0.206138 0.690569 0.6375
0.341171 0.689335 0.6375
0.476204 0.688102 0.6375
0.611237 0.686869 0.6375
0.746271 0.685635 0.6375
0.881304 0.684402 0.6375
1.0 0.683191 0.6375
1.0 0.683191 0.6375
0.066482 0.820741 0.6375
0.201515 0.819508 0.6375
0.336548 0.818274 0.6375
0.471581 0.817041 0.6375
0.606615 0.815807 0.6375
0.741648 0.814574 0.6375
0.876681 0.813341 0.6375
1.0 0.81213 0.6375
1.0 0.81213 0.6375
0.061859 0.94968 0.6375
0.196892 0.948446 0.6375
0.331926 0.947213 0.6375
0.466959 0.945979 0.6375
0.601992 0.944746 0.6375
0.737025 0.943513 0.6375
0.872059 0.942279 0.6375
1.0 0.941068 0.6375
1.0 0.941068 0.6375
0.059702 1.0 0.6375
0.194735 1.0 0.6375
0.329768 1.0 0.6375
0.464802 1.0 0.6375
0.599835 1.0 0.6375
0.734868 1.0 0.6375
0.869901 1.0 0.6375
1.0 1.0 0.6375
1.0 1.0 0.6375
0.046509 0.023255 0.74375
0.186476 0.024488 0.74375
0.326443 0.025721 0.74375
0.46641 0.026955 0.74375
0.606376 0.028188 0.74375
0.746343 0.029421 0.74375
0.88631 0.030655 0.74375
1.0 0.031866 0.74375
1.0 0.031866 0.74375
0.051132 0.156816 0.74375
0.191099 0.158049 0.74375
0.331065 0.159283 0.74375
0.471032 0.160516 0.74375
0.610999 0.161749 0.74375
0.750966 0.162983 0.74375
0.890932 0.164216 0.74375
1.0 0.165427 0.74375
1.0 0.165427 0.74375
0.055754 0.290377 0.74375
0.195721 0.291611 0.74375
0.335688 0.292844 0.74375
0.475655 0.294077 0.74375
0.615622 0.295311 0.74375
0.755588 0.296544 0.74375
0.894445 0.297223 0.74375
1.0 0.296012 0.74375
1.0 0.296012 0.74375
0.060377 0.423939 0.74375
0.200344 0.425172 0.74375
0.340311 0.426405 0.74375
0.480277 0.427639 0.74375
0.619756 0.428628 0.74375
0.754789 0.427395 0.74375
0.889822 0.426161 0.74375
1.0 0.42495 0.74375
1.0 0.42495 0.74375
0.065 0.5575 0.74375
0.204967 0.558733 0.74375
0.344933 0.559967 0.74375
0.4801 0.5588 0.74375
0.615133 0.557567 0.74375
0.750167 0.556333 0.74375
0.8852 0.5551 0.74375
1.0 0.553889 0.74375
1.0 0.553889 0.74375
0.069622 0.691061 0.74375
0.205411 0.690205 0.74375
0.340444 0.688972 0.74375
0.475477 0.687739 0.74375
0.610511 0.686505 0.74375
0.745544 0.685272 0.74375
0.880577 0.684039 0.74375
1.0 0.682828 0.74375
1.0 0.682828 0.74375
0.065755 0.820378 0.74375
0.200788 0.819144 0.74375
0.335821 0.817911 0.74375
0.470855 0.816677 0.74375
0.605888 0.815444 0.74375
0.740921 0.814211 0.74375
0.875955 0.812977 0.74375
1.0 0.811766 0.74375
1.0 0.811766 0.74375
0.061132 0.949316 0.74375
0.196166 0.948083 0.74375
0.331199 0.946849 0.74375
0.466232 0.945616 0.74375
0.601265 0.944383 0.74375
0.736299 0.943149 0.74375
0.871332 0.941916 0.74375
1.0 0.940705 0.74375
1.0 0.940705 0.74375
0.058975 1.0 0.74375
0.194008 1.0 0.74375
0.329042 1.0 0.74375
0.464075 1.0 0.74375
0.599108 1.0 0.74375
0.734141 1.0 0.74375
0.869175 1.0 0.74375
1.0 1.0 0.74375
1.0 1.0 0.74375
0.047236 0.023618 0.85
0.187203 0.024851 0.85
0.32717 0.026085 0.85
0.467136 0.027318 0.85
0.607103 0.028552 0.85
0.74707 0.029785 0.85
0.887037 0.031018 0.85
1.0 0.032229 0.85
1.0 0.032229 0.85
0.051859 0.157179 0.85
0.191825 0.158413 0.85
0.331792 0.159646 0.85
0.471759 0.160879 0.85
0.611726 0.162113 0.85
0.751692 0.163346 0.85
0.891659 0.16458 0.85
1.0 0.165791 0.85
1.0 0.165791 0.85
0.056481 0.290741 0.85
0.196448 0.291974 0.85
0.336415 0.293207 0.85
0.476382 0.294441 0.85
0.616348 0.295674 0.85
0.756315 0.296908 0.85
0.893718 0.296859 0.85
1.0 0.295648 0.85
1.0 0.295648 0.85
0.061104 0.424302 0.85
0.201071 0.425535 0.85
0.341037 0.426769 0.85
0.481004 0.428002 0.85
0.619029 0.428265 0.85
0.754062 0.427031 0.85
0.889096 0.425798 0.85
1.0 0.424587 0.85
1.0 0.424587 0.85
0.065726 0.557863 0.85
0.205693 0.559097 0.85
0.34434 0.55967 0.85
0.479373 0.558437 0.85
0.614407 0.557203 0.85
0.74944 0.55597 0.85
0.884473 0.554737 0.85
1.0 0.553526 0.85
1.0 0.553526 0.85
0.069651 0.691075 0.85
0.204684 0.689842 0.85
0.339717 0.688609 0.85
0.474751 0.687375 0.85
0.609784 0.686142 0.85
0.744817 0.684909 0.85
0.87985 0.683675 0.85
1.0 0.682464 0.85
1.0 0.682464 0.85
0.065028 0.820014 0.85
0.200062 0.818781 0.85
0.335095 0.817547 0.85
0.470128 0.816314 0.85
0.605161 0.815081 0.85
0.740195 0.813847 0.85
0.875228 0.812614 0.85
1.0 0.811403 0.85
1.0 0.811403 0.85
0.060406 0.948953 0.85
0.195439 0.947719 0.85
0.330472 0.946486 0.85
0.465505 0.945253 0.85
0.600539 0.944019 0.85
0.735572 0.942786 0.85
0.870605 0.941553 0.85
1.0 0.940342 0.85
1.0 0.940342 0.85
0.058248 1.0 0.85
0.193282 1.0 0.85
0.328315 1.0 0.85
0.463348 1.0 0.85
0.598381 1.0 0.85
0.733415 1.0 0.85
0.868448 1.0 0.85
1.0 1.0 0.85
1.0 1.0 0.85
