luts/warm_gold.cube
# Ascension Engine — Warm Gold LUT
LUT_3D_SIZE 33
0.041422 0.020711 0.0
0.076414 0.021019 0.0
0.111405 0.021328 0.0
0.146397 0.021636 0.0
0.181389 0.021944 0.0
0.21638 0.022253 0.0
0.251372 0.022561 0.0
0.286364 0.022869 0.0
0.321356 0.023178 0.0
0.356347 0.023486 0.0
0.391339 0.023794 0.0
0.426331 0.024103 0.0
0.461322 0.024411 0.0
0.496314 0.024719 0.0
0.531306 0.025028 0.0
0.566297 0.025336 0.0
0.601289 0.025645 0.0
0.636281 0.025953 0.0
0.671272 0.026261 0.0
0.706264 0.02657 0.0
0.741256 0.026878 0.0
0.776247 0.027186 0.0
0.811239 0.027495 0.0
0.846231 0.027803 0.0
0.881223 0.028111 0.0
0.916214 0.02842 0.0
0.951206 0.028728 0.0
0.986198 0.029036 0.0
1.0 0.029322 0.0
1.0 0.029322 0.0
1.0 0.029322 0.0
1.0 0.029322 0.0
1.0 0.029322 0.0
0.042578 0.054101 0.0
0.077569 0.05441 0.0
0.112561 0.054718 0.0
0.147553 0.055026 0.0
0.182544 0.055335 0.0
0.217536 0.055643 0.0
0.252528 0.055951 0.0
0.287519 0.05626 0.0
0.322511 0.056568 0.0
0.357503 0.056876 0.0
0.392495 0.057185 0.0
0.427486 0.057493 0.0
0.462478 0.057801 0.0
0.49747 0.05811 0.0
0.532461 0.058418 0.0
0.567453 0.058726 0.0
0.602445 0.059035 0.0
0.637436 0.059343 0.0
0.672428 0.059652 0.0
0.70742 0.05996 0.0
0.742411 0.060268 0.0
0.777403 0.060577 0.0
0.812395 0.060885 0.0
0.847386 0.061193 0.0
0.882378 0.061502 0.0
0.91737 0.06181 0.0
0.952362 0.062118 0.0
0.987353 0.062427 0.0
1.0 0.062713 0.0
1.0 0.062713 0.0
1.0 0.062713 0.0
1.0 0.062713 0.0
1.0 0.062713 0.0
0.043733 0.087492 0.0
0.078725 0.0878 0.0
0.113717 0.088108 0.0
0.148708 0.088417 0.0
0.1837 0.088725 0.0
0.218692 0.089033 0.0
0.253683 0.089342 0.0
0.288675 0.08965 0.0
0.323667 0.089958 0.0
0.358658 0.090267 0.0
0.39365 0.090575 0.0
0.428642 0.090883 0.0
0.463634 0.091192 0.0
0.498625 0.0915 0.0
0.533617 0.091808 0.0
0.568609 0.092117 0.0
0.6036 0.092425 0.0
0.638592 0.092734 0.0
0.673584 0.093042 0.0
0.708575 0.09335 0.0
0.743567 0.093659 0.0
0.778559 0.093967 0.0
0.81355 0.094275 0.0
0.848542 0.094584 0.0
0.883534 0.094892 0.0
0.918526 0.0952 0.0
0.953517 0.095509 0.0
0.988509 0.095817 0.0
1.0 0.096103 0.0
1.0 0.096103 0.0
1.0 0.096103 0.0
1.0 0.096103 0.0
1.0 0.096103 0.0
0.044889 0.120882 0.0
0.079881 0.12119 0.0
0.114872 0.121499 0.0
0.149864 0.121807 0.0
0.184856 0.122115 0.0
0.219847 0.122424 0.0
0.254839 0.122732 0.0
0.289831 0.12304 0.0
0.324822 0.123349 0.0
0.359814 0.123657 0.0
0.394806 0.123965 0.0
0.429798 0.124274 0.0
0.464789 0.124582 0.0
0.499781 0.12489 0.0
0.534773 0.125199 0.0
0.569764 0.125507 0.0
0.604756 0.125815 0.0
0.639748 0.126124 0.0
0.674739 0.126432 0.0
0.709731 0.126741 0.0
0.744723 0.127049 0.0
0.779714 0.127357 0.0
0.814706 0.127666 0.0
0.849698 0.127974 0.0
0.884689 0.128282 0.0
0.919681 0.128591 0.0
0.954673 0.128899 0.0
0.989665 0.129207 0.0
1.0 0.129493 0.0
1.0 0.129493 0.0
1.0 0.129493 0.0
1.0 0.129493 0.0
1.0 0.129493 0.0
0.046045 0.154272 0.0
0.081036 0.154581 0.0
0.116028 0.154889 0.0
0.15102 0.155197 0.0
0.186011 0.155506 0.0
0.221003 0.155814 0.0
0.255995 0.156122 0.0
0.290986 0.156431 0.0
0.325978 0.156739 0.0
0.36097 0.157047 0.0
0.395961 0.157356 0.0
0.430953 0.157664 0.0
0.465945 0.157972 0.0
0.500937 0.158281 0.0
0.535928 0.158589 0.0
0.57092 0.158897 0.0
0.605912 0.159206 0.0
0.640903 0.159514 0.0
0.675895 0.159823 0.0
0.710887 0.160131 0.0
0.745878 0.160439 0.0
0.78087 0.160748 0.0
0.815862 0.161056 0.0
0.850853 0.161364 0.0
0.885845 0.161673 0.0
0.920837 0.161981 0.0
0.955829 0.162289 0.0
0.99082 0.162598 0.0
1.0 0.162884 0.0
1.0 0.162884 0.0
1.0 0.162884 0.0
1.0 0.162884 0.0
1.0 0.162884 0.0
0.0472 0.187663 0.0
0.082192 0.187971 0.0
0.117184 0.188279 0.0
0.152175 0.188588 0.0
0.187167 0.188896 0.0
0.222159 0.189204 0.0
0.25715 0.189513 0.0
0.292142 0.189821 0.0
0.327134 0.190129 0.0
0.362125 0.190438 0.0
0.397117 0.190746 0.0
0.432109 0.191054 0.0
0.467101 0.191363 0.0
0.502092 0.191671 0.0
0.537084 0.191979 0.0
0.572076 0.192288 0.0
0.607067 0.192596 0.0
0.642059 0.192904 0.0
0.677051 0.193213 0.0
0.712042 0.193521 0.0
0.747034 0.19383 0.0
0.782026 0.194138 0.0
0.817017 0.194446 0.0
0.852009 0.194755 0.0
0.887001 0.195063 0.0
0.921992 0.195371 0.0
0.956984 0.19568 0.0
0.991976 0.195988 0.0
1.0 0.196274 0.0
1.0 0.196274 0.0
1.0 0.196274 0.0
1.0 0.196274 0.0
1.0 0.196274 0.0
0.048356 0.221053 0.0
0.083348 0.221361 0.0
0.118339 0.22167 0.0
0.153331 0.221978 0.0
0.188323 0.222286 0.0
0.223314 0.222595 0.0
0.258306 0.222903 0.0
0.293298 0.223211 0.0
0.328289 0.22352 0.0
0.363281 0.223828 0.0
0.398273 0.224136 0.0
0.433265 0.224445 0.0
0.468256 0.224753 0.0
0.503248 0.225061 0.0
0.53824 0.22537 0.0
0.573231 0.225678 0.0
0.608223 0.225986 0.0
0.643215 0.226295 0.0
0.678206 0.226603 0.0
0.713198 0.226912 0.0
0.74819 0.22722 0.0
0.783181 0.227528 0.0
0.818173 0.227837 0.0
0.853165 0.228145 0.0
0.888156 0.228453 0.0
0.923148 0.228762 0.0
0.95814 0.22907 0.0
0.993132 0.229378 0.0
1.0 0.229664 0.0
1.0 0.229664 0.0
1.0 0.229664 0.0
1.0 0.229664 0.0
1.0 0.229664 0.0
0.049512 0.254443 0.0
0.084503 0.254752 0.0
0.119495 0.25506 0.0
0.154487 0.255368 0.0
0.189478 0.255677 0.0
0.22447 0.255985 0.0
0.259462 0.256293 0.0
0.294453 0.256602 0.0
0.329445 0.25691 0.0
0.364437 0.257218 0.0
0.399428 0.257527 0.0
0.43442 0.257835 0.0
0.469412 0.258143 0.0
0.504404 0.258452 0.0
0.539395 0.25876 0.0
0.574387 0.259068 0.0
0.609379 0.259377 0.0
0.64437 0.259685 0.0
0.679362 0.259993 0.0
0.714354 0.260302 0.0
0.749345 0.26061 0.0
0.784337 0.260919 0.0
0.819329 0.261227 0.0
0.85432 0.261535 0.0
0.889312 0.261844 0.0
0.924304 0.262152 0.0
0.959295 0.26246 0.0
0.994287 0.262769 0.0
1.0 0.263054 0.0
1.0 0.263054 0.0
1.0 0.263054 0.0
1.0 0.263054 0.0
1.0 0.263054 0.0
0.050667 0.287834 0.0
0.085659 0.288142 0.0
0.120651 0.28845 0.0
0.155642 0.288759 0.0
0.190634 0.289067 0.0
0.225626 0.289375 0.0
0.260617 0.289684 0.0
0.295609 0.289992 0.0
0.330601 0.2903 0.0
0.365592 0.290609 0.0
0.400584 0.290917 0.0
0.435576 0.291225 0.0
0.470568 0.291534 0.0
0.505559 0.291842 0.0
0.540551 0.29215 0.0
0.575543 0.292459 0.0
0.610534 0.292767 0.0
0.645526 0.293075 0.0
0.680518 0.293384 0.0
0.715509 0.293692 0.0
0.750501 0.294001 0.0
0.785493 0.294309 0.0
0.820484 0.294617 0.0
0.855476 0.294926 0.0
0.890468 0.295234 0.0
0.925459 0.295542 0.0
0.960451 0.295851 0.0
0.995443 0.296159 0.0
1.0 0.296445 0.0
1.0 0.296445 0.0
1.0 0.296445 0.0
1.0 0.296445 0.0
1.0 0.296445 0.0
0.051823 0.321224 0.0
0.086815 0.321532 0.0
0.121806 0.321841 0.0
0.156798 0.322149 0.0
0.19179 0.322457 0.0
0.226781 0.322766 0.0
0.261773 0.323074 0.0
0.296765 0.323382 0.0
0.331756 0.323691 0.0
0.366748 0.323999 0.0
0.40174 0.324307 0.0
0.436731 0.324616 0.0
0.471723 0.324924 0.0
0.506715 0.325232 0.0
0.541707 0.325541 0.0
0.576698 0.325849 0.0
0.61169 0.326157 0.0
0.646682 0.326466 0.0
0.681673 0.326774 0.0
0.716665 0.327082 0.0
0.751657 0.327391 0.0
0.786648 0.327699 0.0
0.82164 0.328008 0.0
0.856632 0.328316 0.0
0.891623 0.328624 0.0
0.926615 0.328933 0.0
0.961607 0.329241 0.0
0.996598 0.329549 0.0
1.0 0.329835 0.0
1.0 0.329835 0.0
1.0 0.329835 0.0
1.0 0.329835 0.0
1.0 0.329835 0.0
0.052979 0.354614 0.0
0.08797 0.354923 0.0
0.122962 0.355231 0.0
0.157954 0.355539 0.0
0.192945 0.355848 0.0
0.227937 0.356156 0.0
0.262929 0.356464 0.0
0.29792 0.356773 0.0
0.332912 0.357081 0.0
0.367904 0.357389 0.0
0.402895 0.357698 0.0
0.437887 0.358006 0.0
0.472879 0.358314 0.0
0.507871 0.358623 0.0
0.542862 0.358931 0.0
0.577854 0.359239 0.0
0.612846 0.359548 0.0
0.647837 0.359856 0.0
0.682829 0.360164 0.0
0.717821 0.360473 0.0
0.752812 0.360781 0.0
0.787804 0.36109 0.0
0.822796 0.361398 0.0
0.857787 0.361706 0.0
0.892779 0.362015 0.0
0.927771 0.362323 0.0
0.962762 0.362631 0.0
0.997754 0.36294 0.0
1.0 0.363025 0.0
1.0 0.363025 0.0
1.0 0.363025 0.0
1.0 0.363025 0.0
1.0 0.363025 0.0
0.054134 0.388005 0.0
0.089126 0.388313 0.0
0.124118 0.388621 0.0
0.159109 0.38893 0.0
0.194101 0.389238 0.0
0.229093 0.389546 0.0
0.264084 0.389855 0.0
0.299076 0.390163 0.0
0.334068 0.390471 0.0
0.369059 0.39078 0.0
0.404051 0.391088 0.0
0.439043 0.391396 0.0
0.474034 0.391705 0.0
0.509026 0.392013 0.0
0.544018 0.392321 0.0
0.57901 0.39263 0.0
0.614001 0.392938 0.0
0.648993 0.393246 0.0
0.683985 0.393555 0.0
0.718976 0.393863 0.0
0.753968 0.394171 0.0
0.78896 0.39448 0.0
0.823951 0.394788 0.0
0.858943 0.395097 0.0
0.893935 0.395405 0.0
0.928926 0.395713 0.0
0.963582 0.395853 0.0
0.99734 0.395545 0.0
1.0 0.395259 0.0
1.0 0.395259 0.0
1.0 0.395259 0.0
1.0 0.395259 0.0
1.0 0.395259 0.0
0.05529 0.421395 0.0
0.090282 0.421703 0.0
0.125273 0.422012 0.0
0.160265 0.42232 0.0
0.195257 0.422628 0.0
0.230248 0.422937 0.0
0.26524 0.423245 0.0
0.300232 0.423553 0.0
0.335223 0.423862 0.0
0.370215 0.42417 0.0
0.405207 0.424478 0.0
0.440198 0.424787 0.0
0.47519 0.425095 0.0
0.510182 0.425403 0.0
0.545174 0.425712 0.0
0.580165 0.42602 0.0
0.615157 0.426328 0.0
0.650149 0.426637 0.0
0.68514 0.426945 0.0
0.720132 0.427253 0.0
0.755124 0.427562 0.0
0.790115 0.42787 0.0
0.825107 0.428179 0.0
0.860099 0.428487 0.0
0.89491 0.428705 0.0
0.928668 0.428396 0.0
0.962426 0.428088 0.0
0.996185 0.42778 0.0
1.0 0.427494 0.0
1.0 0.427494 0.0
1.0 0.427494 0.0
1.0 0.427494 0.0
1.0 0.427494 0.0
0.056446 0.454785 0.0
0.091437 0.455094 0.0
0.126429 0.455402 0.0
0.161421 0.45571 0.0
0.196412 0.456019 0.0
0.231404 0.456327 0.0
0.266396 0.456635 0.0
0.301387 0.456944 0.0
0.336379 0.457252 0.0
0.371371 0.45756 0.0
0.406362 0.457869 0.0
0.441354 0.458177 0.0
0.476346 0.458485 0.0
0.511337 0.458794 0.0
0.546329 0.459102 0.0
0.581321 0.45941 0.0
0.616313 0.459719 0.0
0.651304 0.460027 0.0
0.686296 0.460335 0.0
0.721288 0.460644 0.0
0.756279 0.460952 0.0
0.791271 0.46126 0.0
0.826237 0.461556 0.0
0.859996 0.461248 0.0
0.893754 0.460939 0.0
0.927512 0.460631 0.0
0.961271 0.460323 0.0
0.995029 0.460014 0.0
1.0 0.459729 0.0
1.0 0.459729 0.0
1.0 0.459729 0.0
1.0 0.459729 0.0
1.0 0.459729 0.0
0.057601 0.488176 0.0
0.092593 0.488484 0.0
0.127585 0.488792 0.0
0.162576 0.489101 0.0
0.197568 0.489409 0.0
0.23256 0.489717 0.0
0.267551 0.490026 0.0
0.302543 0.490334 0.0
0.337535 0.490642 0.0
0.372526 0.490951 0.0
0.407518 0.491259 0.0
0.44251 0.491567 0.0
0.477501 0.491876 0.0
0.512493 0.492184 0.0
0.547485 0.492492 0.0
0.582477 0.492801 0.0
0.617468 0.493109 0.0
0.65246 0.493417 0.0
0.687452 0.493726 0.0
0.722443 0.494034 0.0
0.757435 0.494342 0.0
0.791323 0.494099 0.0
0.825082 0.493791 0.0
0.85884 0.493483 0.0
0.892598 0.493174 0.0
0.926357 0.492866 0.0
0.960115 0.492557 0.0
0.993873 0.492249 0.0
1.0 0.491963 0.0
1.0 0.491963 0.0
1.0 0.491963 0.0
1.0 0.491963 0.0
1.0 0.491963 0.0
0.058757 0.521566 0.0
0.093749 0.521874 0.0
0.12874 0.522183 0.0
0.163732 0.522491 0.0
0.198724 0.522799 0.0
0.233715 0.523108 0.0
0.268707 0.523416 0.0
0.303699 0.523724 0.0
0.33869 0.524033 0.0
0.373682 0.524341 0.0
0.408674 0.524649 0.0
0.443665 0.524958 0.0
0.478657 0.525266 0.0
0.513649 0.525574 0.0
0.54864 0.525883 0.0
0.583632 0.526191 0.0
0.618624 0.526499 0.0
0.653616 0.526808 0.0
0.688607 0.527116 0.0
0.722651 0.526951 0.0
0.756409 0.526642 0.0
0.790168 0.526334 0.0
0.823926 0.526026 0.0
0.857684 0.525717 0.0
0.891443 0.525409 0.0
0.925201 0.5251 0.0
0.958959 0.524792 0.0
0.992718 0.524484 0.0
1.0 0.524198 0.0
1.0 0.524198 0.0
1.0 0.524198 0.0
1.0 0.524198 0.0
1.0 0.524198 0.0
0.059913 0.554956 0.0
0.094904 0.555265 0.0
0.129896 0.555573 0.0
0.164888 0.555881 0.0
0.199879 0.55619 0.0
0.234871 0.556498 0.0
0.269863 0.556806 0.0
0.304854 0.557115 0.0
0.339846 0.557423 0.0
0.374838 0.557731 0.0
0.409829 0.55804 0.0
0.444821 0.558348 0.0
0.479813 0.558656 0.0
0.514804 0.558965 0.0
0.549796 0.559273 0.0
0.584788 0.559581 0.0
0.61978 0.55989 0.0
0.653979 0.559802 0.0
0.687737 0.559494 0.0
0.721495 0.559185 0.0
0.755254 0.558877 0.0
0.789012 0.558569 0.0
0.82277 0.55826 0.0
0.856529 0.557952 0.0
0.890287 0.557644 0.0
0.924045 0.557335 0.0
0.957804 0.557027 0.0
0.991562 0.556718 0.0
1.0 0.556433 0.0
1.0 0.556433 0.0
1.0 0.556433 0.0
1.0 0.556433 0.0
1.0 0.556433 0.0
0.061068 0.588347 0.0
0.09606 0.588655 0.0
0.131052 0.588963 0.0
0.166043 0.589272 0.0
0.201035 0.58958 0.0
0.236027 0.589888 0.0
0.271018 0.590197 0.0
0.30601 0.590505 0.0
0.341002 0.590813 0.0
0.375993 0.591122 0.0
0.410985 0.59143 0.0
0.445977 0.591738 0.0
0.480968 0.592047 0.0
0.51596 0.592355 0.0
0.550952 0.592663 0.0
0.585307 0.592653 0.0
0.619065 0.592345 0.0
0.652823 0.592037 0.0
0.686581 0.591728 0.0
0.72034 0.59142 0.0
0.754098 0.591112 0.0
0.787856 0.590803 0.0
0.821615 0.590495 0.0
0.855373 0.590187 0.0
0.889131 0.589878 0.0
0.92289 0.58957 0.0
0.956648 0.589261 0.0
0.990406 0.588953 0.0
1.0 0.588667 0.0
1.0 0.588667 0.0
1.0 0.588667 0.0
1.0 0.588667 0.0
1.0 0.588667 0.0
0.062224 0.621737 0.0
0.097215 0.622045 0.0
0.132207 0.622354 0.0
0.167199 0.622662 0.0
0.202191 0.62297 0.0
0.237182 0.623279 0.0
0.272174 0.623587 0.0
0.307166 0.623895 0.0
0.342157 0.624204 0.0
0.377149 0.624512 0.0
0.412141 0.62482 0.0
0.447132 0.625129 0.0
0.482124 0.625437 0.0
0.516634 0.625505 0.0
0.550393 0.625196 0.0
0.584151 0.624888 0.0
0.617909 0.62458 0.0
0.651668 0.624271 0.0
0.685426 0.623963 0.0
0.719184 0.623655 0.0
0.752942 0.623346 0.0
0.786701 0.623038 0.0
0.820459 0.62273 0.0
0.854217 0.622421 0.0
0.887976 0.622113 0.0
0.921734 0.621805 0.0
0.955492 0.621496 0.0
0.989251 0.621188 0.0
1.0 0.620902 0.0
1.0 0.620902 0.0
1.0 0.620902 0.0
1.0 0.620902 0.0
1.0 0.620902 0.0
0.063379 0.655127 0.0
0.098371 0.655436 0.0
0.133363 0.655744 0.0
0.168355 0.656052 0.0
0.203346 0.656361 0.0
0.238338 0.656669 0.0
0.27333 0.656977 0.0
0.308321 0.657286 0.0
0.343313 0.657594 0.0
0.378305 0.657902 0.0
0.413296 0.658211 0.0
0.447962 0.658356 0.0
0.48172 0.658048 0.0
0.515479 0.657739 0.0
0.549237 0.657431 0.0
0.582995 0.657123 0.0
0.616754 0.656814 0.0
0.650512 0.656506 0.0
0.68427 0.656198 0.0
0.718028 0.655889 0.0
0.751787 0.655581 0.0
0.785545 0.655273 0.0
0.819303 0.654964 0.0
0.853062 0.654656 0.0
0.88682 0.654348 0.0
0.920578 0.654039 0.0
0.954337 0.653731 0.0
0.988095 0.653422 0.0
1.0 0.653137 0.0
1.0 0.653137 0.0
1.0 0.653137 0.0
1.0 0.653137 0.0
1.0 0.653137 0.0
0.064535 0.688518 0.0
0.099527 0.688826 0.0
0.134519 0.689134 0.0
0.16951 0.689443 0.0
0.204502 0.689751 0.0
0.239494 0.690059 0.0
0.274485 0.690368 0.0
0.309477 0.690676 0.0
0.344469 0.690984 0.0
0.37929 0.691207 0.0
0.413048 0.690899 0.0
0.446806 0.690591 0.0
0.480565 0.690282 0.0
0.514323 0.689974 0.0
0.548081 0.689666 0.0
0.58184 0.689357 0.0
0.615598 0.689049 0.0
0.649356 0.688741 0.0
0.683115 0.688432 0.0
0.716873 0.688124 0.0
0.750631 0.687816 0.0
0.784389 0.687507 0.0
0.818148 0.687199 0.0
0.851906 0.686891 0.0
0.885664 0.686582 0.0
0.919423 0.686274 0.0
0.953181 0.685966 0.0
0.986939 0.685657 0.0
1.0 0.685371 0.0
1.0 0.685371 0.0
1.0 0.685371 0.0
1.0 0.685371 0.0
1.0 0.685371 0.0
0.065691 0.721908 0.0
0.100682 0.722216 0.0
0.135674 0.722525 0.0
0.170666 0.722833 0.0
0.205658 0.723141 0.0
0.240649 0.72345 0.0
0.275641 0.723758 0.0
0.310617 0.724059 0.0
0.344376 0.72375 0.0
0.378134 0.723442 0.0
0.411892 0.723134 0.0
0.445651 0.722825 0.0
0.479409 0.722517 0.0
0.513167 0.722209 0.0
0.546926 0.7219 0.0
0.580684 0.721592 0.0
0.614442 0.721284 0.0
0.648201 0.720975 0.0
0.681959 0.720667 0.0
0.715717 0.720359 0.0
0.749475 0.72005 0.0
0.783234 0.719742 0.0
0.816992 0.719434 0.0
0.85075 0.719125 0.0
0.884509 0.718817 0.0
0.918267 0.718509 0.0
0.952025 0.7182 0.0
0.985784 0.717892 0.0
1.0 0.717606 0.0
1.0 0.717606 0.0
1.0 0.717606 0.0
1.0 0.717606 0.0
1.0 0.717606 0.0
0.066846 0.755298 0.0
0.101838 0.755607 0.0
0.13683 0.755915 0.0
0.171822 0.756223 0.0
0.206813 0.756532 0.0
0.241805 0.75684 0.0
0.275703 0.756602 0.0
0.309462 0.756293 0.0
0.34322 0.755985 0.0
0.376978 0.755677 0.0
0.410737 0.755368 0.0
0.444495 0.75506 0.0
0.478253 0.754752 0.0
0.512012 0.754443 0.0
0.54577 0.754135 0.0
0.579528 0.753827 0.0
0.613287 0.753518 0.0
0.647045 0.75321 0.0
0.680803 0.752902 0.0
0.714562 0.752593 0.0
0.74832 0.752285 0.0
0.782078 0.751977 0.0
0.815836 0.751668 0.0
0.849595 0.75136 0.0
0.883353 0.751052 0.0
0.917111 0.750743 0.0
0.95087 0.750435 0.0
0.984628 0.750127 0.0
1.0 0.749841 0.0
1.0 0.749841 0.0
1.0 0.749841 0.0
1.0 0.749841 0.0
1.0 0.749841 0.0
0.068002 0.788689 0.0
0.102994 0.788997 0.0
0.137985 0.789305 0.0
0.172977 0.789614 0.0
0.207031 0.789453 0.0
0.240789 0.789145 0.0
0.274548 0.788836 0.0
0.308306 0.788528 0.0
0.342064 0.78822 0.0
0.375823 0.787911 0.0
0.409581 0.787603 0.0
0.443339 0.787295 0.0
0.477098 0.786986 0.0
0.510856 0.786678 0.0
0.544614 0.78637 0.0
0.578373 0.786061 0.0
0.612131 0.785753 0.0
0.645889 0.785445 0.0
0.679648 0.785136 0.0
0.713406 0.784828 0.0
0.747164 0.78452 0.0
0.780922 0.784211 0.0
0.814681 0.783903 0.0
0.848439 0.783595 0.0
0.882197 0.783286 0.0
0.915956 0.782978 0.0
0.949714 0.78267 0.0
0.983472 0.782361 0.0
1.0 0.782075 0.0
1.0 0.782075 0.0
1.0 0.782075 0.0
1.0 0.782075 0.0
1.0 0.782075 0.0
0.069158 0.822079 0.0
0.104149 0.822387 0.0
0.138359 0.822304 0.0
0.172117 0.821996 0.0
0.205876 0.821688 0.0
0.239634 0.821379 0.0
0.273392 0.821071 0.0
0.30715 0.820763 0.0
0.340909 0.820454 0.0
0.374667 0.820146 0.0
0.408425 0.819838 0.0
0.442184 0.819529 0.0
0.475942 0.819221 0.0
0.5097 0.818913 0.0
0.543459 0.818604 0.0
0.577217 0.818296 0.0
0.610975 0.817988 0.0
0.644734 0.817679 0.0
0.678492 0.817371 0.0
0.71225 0.817063 0.0
0.746009 0.816754 0.0
0.779767 0.816446 0.0
0.813525 0.816138 0.0
0.847283 0.815829 0.0
0.881042 0.815521 0.0
0.9148 0.815213 0.0
0.948558 0.814904 0.0
0.982317 0.814596 0.0
1.0 0.81431 0.0
1.0 0.81431 0.0
1.0 0.81431 0.0
1.0 0.81431 0.0
1.0 0.81431 0.0
0.069687 0.855156 0.0
0.103445 0.854847 0.0
0.137203 0.854539 0.0
0.170962 0.854231 0.0
0.20472 0.853922 0.0
0.238478 0.853614 0.0
0.272236 0.853306 0.0
0.305995 0.852997 0.0
0.339753 0.852689 0.0
0.373511 0.852381 0.0
0.40727 0.852072 0.0
0.441028 0.851764 0.0
0.474786 0.851456 0.0
0.508545 0.851147 0.0
0.542303 0.850839 0.0
0.576061 0.850531 0.0
0.60982 0.850222 0.0
0.643578 0.849914 0.0
0.677336 0.849606 0.0
0.711095 0.849297 0.0
0.744853 0.848989 0.0
0.778611 0.848681 0.0
0.812369 0.848372 0.0
0.846128 0.848064 0.0
0.879886 0.847756 0.0
0.913644 0.847447 0.0
0.947403 0.847139 0.0
0.981161 0.846831 0.0
1.0 0.846545 0.0
1.0 0.846545 0.0
1.0 0.846545 0.0
1.0 0.846545 0.0
1.0 0.846545 0.0
0.068531 0.88739 0.0
0.102289 0.887082 0.0
0.136048 0.886774 0.0
0.169806 0.886465 0.0
0.203564 0.886157 0.0
0.237322 0.885849 0.0
0.271081 0.88554 0.0
0.304839 0.885232 0.0
0.338597 0.884924 0.0
0.372356 0.884615 0.0
0.406114 0.884307 0.0
0.439872 0.883999 0.0
0.473631 0.88369 0.0
0.507389 0.883382 0.0
0.541147 0.883074 0.0
0.574906 0.882765 0.0
0.608664 0.882457 0.0
0.642422 0.882149 0.0
0.676181 0.88184 0.0
0.709939 0.881532 0.0
0.743697 0.881224 0.0
0.777456 0.880915 0.0
0.811214 0.880607 0.0
0.844972 0.880299 0.0
0.87873 0.87999 0.0
0.912489 0.879682 0.0
0.946247 0.879374 0.0
0.980005 0.879065 0.0
1.0 0.878779 0.0
1.0 0.878779 0.0
1.0 0.878779 0.0
1.0 0.878779 0.0
1.0 0.878779 0.0
0.067375 0.919625 0.0
0.101134 0.919317 0.0
0.134892 0.919008 0.0
0.16865 0.9187 0.0
0.202409 0.918392 0.0
0.236167 0.918083 0.0
0.269925 0.917775 0.0
0.303683 0.917467 0.0
0.337442 0.917158 0.0
