luts/warm_gold.cube
# Ascension Engine — Warm Gold LUT
LUT_3D_SIZE 5
0.041422 0.020711 0.0
0.321356 0.023178 0.0
0.601289 0.025645 0.0
0.881223 0.028111 0.0
1.0 0.029322 0.0
0.050667 0.287834 0.0
0.330601 0.2903 0.0
0.610534 0.292767 0.0
0.890468 0.295234 0.0
1.0 0.296445 0.0
0.059913 0.554956 0.0
0.339846 0.557423 0.0
0.61978 0.55989 0.0
0.890287 0.557644 0.0
1.0 0.556433 0.0
0.069158 0.822079 0.0
0.340909 0.820454 0.0
0.610975 0.817988 0.0
0.881042 0.815521 0.0
1.0 0.81431 0.0
0.064062 1.0 0.0
0.334129 1.0 0.0
0.604195 1.0 0.0
0.874262 1.0 0.0
1.0 1.0 0.0
0.042875 0.021438 0.2125
0.322809 0.023904 0.2125
0.602743 0.026371 0.2125
0.882676 0.028838 0.2125
1.0 0.030049 0.2125
0.052121 0.28856 0.2125
0.332054 0.291027 0.2125
0.611988 0.293494 0.2125
0.891921 0.295961 0.2125
1.0 0.297172 0.2125
0.061366 0.555683 0.2125
0.341299 0.55815 0.2125
0.618767 0.559384 0.2125
0.888834 0.556917 0.2125
1.0 0.555706 0.2125
0.069389 0.822194 0.2125
0.339455 0.819728 0.2125
0.609522 0.817261 0.2125
0.879588 0.814794 0.2125
1.0 0.813583 0.2125
0.062609 1.0 0.2125
0.332675 1.0 0.2125
0.602742 1.0 0.2125
0.872808 1.0 0.2125
1.0 1.0 0.2125
0.044329 0.022165 0.425
0.324263 0.024631 0.425
0.604196 0.027098 0.425
0.88413 0.029565 0.425
1.0 0.030776 0.425
0.053574 0.289287 0.425
0.333508 0.291754 0.425
0.613441 0.294221 0.425
0.893375 0.296687 0.425
1.0 0.297102 0.425
0.06282 0.55641 0.425
0.342753 0.558876 0.425
0.617314 0.558657 0.425
0.88738 0.55619 0.425
1.0 0.554979 0.425
0.067935 0.821468 0.425
0.338002 0.819001 0.425
0.608068 0.816534 0.425
0.878135 0.814067 0.425
1.0 0.812856 0.425
0.061155 1.0 0.425
0.331222 1.0 0.425
0.601288 1.0 0.425
0.871355 1.0 0.425
1.0 1.0 0.425
0.045783 0.022891 0.6375
0.325716 0.025358 0.6375
0.60565 0.027825 0.6375
0.885583 0.030291 0.6375
1.0 0.031502 0.6375
0.055028 0.290014 0.6375
0.334961 0.292481 0.6375
0.614895 0.294947 0.6375
0.894828 0.297414 0.6375
1.0 0.296375 0.6375
0.064273 0.557137 0.6375
0.344207 0.559603 0.6375
0.61586 0.55793 0.6375
0.885927 0.555463 0.6375
1.0 0.554252 0.6375
0.066482 0.820741 0.6375
0.336548 0.818274 0.6375
0.606615 0.815807 0.6375
0.876681 0.813341 0.6375
1.0 0.81213 0.6375
0.059702 1.0 0.6375
0.329768 1.0 0.6375
0.599835 1.0 0.6375
0.869901 1.0 0.6375
1.0 1.0 0.6375
0.047236 0.023618 0.85
0.32717 0.026085 0.85
0.607103 0.028552 0.85
0.887037 0.031018 0.85
1.0 0.032229 0.85
0.056481 0.290741 0.85
0.336415 0.293207 0.85
0.616348 0.295674 0.85
0.893718 0.296859 0.85
1.0 0.295648 0.85
0.065726 0.557863 0.85
0.34434 0.55967 0.85
0.614407 0.557203 0.85
0.884473 0.554737 0.85
1.0 0.553526 0.85
0.065028 0.820014 0.85
0.335095 0.817547 0.85
0.605161 0.815081 0.85
0.875228 0.812614 0.85
1.0 0.811403 0.85
0.058248 1.0 0.85
0.328315 1.0 0.85
0.598381 1.0 0.85
0.868448 1.0 0.85
1.0 1.0 0.85
